; HEADER_BLOCK_START
; generated by ElegooSlicer 1.1.8.2 on 2025-03-13 at 14:21:12
; total layer number: 227
; filament_density: 1.25
; filament_diameter: 1.75
; max_z_height: 45.40
; HEADER_BLOCK_END



; THUMBNAIL_BLOCK_START

;
; THUMBNAIL_BLOCK_END

; external perimeters extrusion width = 0.42mm
; perimeters extrusion width = 0.45mm
; infill extrusion width = 0.45mm
; solid infill extrusion width = 0.42mm
; top infill extrusion width = 0.42mm
; support material extrusion width = 0.42mm
; first layer extrusion width = 0.50mm

; EXECUTABLE_BLOCK_START
M73 P0 R28
M201 X20000 Y20000 Z500 E5000
M203 X500 Y500 Z20 E30
M204 P20000 R5000 T20000
M205 X9.00 Y9.00 Z3.00 E2.50 ; sets the jerk limits, mm/sec
M106 S0
M106 P2 S0
;TYPE:Custom
M400 ; wait for buffer to clear
M220 S100 ;Set the feed speed to 100%
M221 S100 ;Set the flow rate to 100%
M104 S140
M190 S60
G90
G28 ;home
M204 S10000

;加热，同时移动到废料桶位置，挤出110mm
M104 S250
G1 Z10 F600
G1 X202 Y250 F20000
G1 Y264.5 F3000
M109 S250
M83
G92 E0
G1 E10 F150 
M400
G1 E10 F300
M400
G4 P2000
G1 E10 F150
M400
G1 E10 F300
M400
G4 P2000
G1 E10 F150
M400
G1 E10 F300
M73 P1 R28
M400
G4 P2000
M73 P1 R28
G1 E10 F150
M400
G1 E10 F300
M400
G4 P2000
G1 E10 F150
M104 S180
M400
G1 E10 F300
M400
G4 P2000
G1 E10 F150
M400

;开启风扇，降温
M106 S250
M109 S180
M104 S140
;刮掉废料
G1 X188 F20000
M73 P2 R28
M73 P2 R28
G1 Y256
G1 X202
G1 Y264.5 F1000
G1 X188 F20000
G1 Y256
G1 X202
G1 Y264.5 F1000
G1 X188 F20000
G1 Y256
G1 X202
G1 Y264.5 F1000

;擦嘴
M204 S10000
G1 X176 F6000
G1 Y263
G3 I2 J0 F3000
G3 I2 J0 F3000
G3 I2 J0 F3000
G3 I2 J0 F3000
G3 I2 J0 F3000
G1 X176 F15000
G1 X185
G1 X170
G1 X185
G1 X170
G1 X180
G1 X176
G3 I2 J0 F3000
G3 I2 J0 F3000
G3 I2 J0 F3000
G3 I2 J0 F3000
G3 I2 J0 F3000


;移动到床后中位置，研磨喷嘴
M400
G1 X128 Y259 Z0 F3000

G2 X129 Y259 I1 J1 F2000
G2 X129 Y259 I1 J1 F2000
G2 X129 Y259 I1 J1 F2000
G2 X129 Y259 Z1 I1 J1 F2000

G1 X128 Y259 Z1 F30000
G1 Z0 F300
G1 X130 F120
G1 X126 
G1 X130
G1 X126 
G1 X130
G1 X126 
M73 P3 R27
M73 P3 R27
G1 X130
M109 S140
M106 S150

G2 X129 Y259 I1 J1 F2000
G2 X129 Y259 I1 J1 F2000
G2 X129 Y259 I1 J1 F2000
G2 X129 Y259 Z1 I1 J1 F2000
G1 Z10 F600
M106 S0


;打印前归零
G28 Z


预设加速度，划线准备打印
M204 S5000 ;Call exterior wall print acceleration
G1 X128.5 Y-1.2 F20000
G1 Z0.3 F900
M109 S210
M83
G92 E0 ;Reset Extruder
G1 F6000 
G1 X-1.2 E10.156 ;Draw the first line
G1 Y98.8 E7.934
G1 X-0.5 Y100 E0.1
G1 Y-0.3 E7.934
G1 X78.5 E6.284
G1 F1680 
G1 X98.5 E2
G1 F8400 
G1 X118.5 E2
G1 F1680 
G1 X138.5 E2
G1 F8400 
G1 X158.5 E2
G1 F8400 
G1 X178.5 E2
;End PA test.


G3 I-1 J0 Z0.6 F1200.0 ;Move to side a little
G1 F20000
G92 E0 ;Reset Extruder
;LAYER_COUNT:227
;LAYER:0


G90
G21
M83 ; use relative distances for extrusion
;LAYER_CHANGE
;Z:0.2
;HEIGHT:0.2
;BEFORE_LAYER_CHANGE
;0.2
G92 E0

G1 E-.8 F1800
M73 L1
;LAYER:1
;M204 S2000
;






;_SET_FAN_SPEED_CHANGING_LAYER
M204 S1000
G1 Z.6 F30000
G1 X123.426 Y114.947
G1 Z.6
G1 Z.2
G1 E.8 F1800
;TYPE:Inner wall
;WIDTH:0.5
G1 F3000
G1 X123.622 Y114.701 E.01139
G3 X125.291 Y113.261 I2.632 J1.364 E.08156
G2 X125.786 Y113.035 I-2.881 J-6.978 E.01969
G3 X126.813 Y112.88 I1.019 J3.259 E.03766
G3 X127.434 Y112.729 I1.569 J5.095 E.0231
G3 X127.609 Y112.73 I.07 J2.329 E.00633
G3 X128.26 Y112.909 I.008 J1.244 E.02469
G2 X129.055 Y113.124 I1.077 J-2.404 E.02988
G3 X129.757 Y113.762 I-1.171 J1.994 E.03452
G1 X129.991 Y114.079 E.01424
G2 X131.782 Y114.268 I1.019 J-1.073 E.06996
G3 X133.599 Y113.631 I2.531 J4.316 E.06997
G2 X134.383 Y113.648 I.443 J-2.344 E.02847
G3 X135.462 Y113.793 I.286 J1.956 E.03987
G2 X136.276 Y114.219 I1.152 J-1.211 E.03363
G3 X137.066 Y115.086 I-.857 J1.574 E.04317
G2 X137.412 Y115.48 I3.311 J-2.564 E.01894
G3 X137.48 Y115.61 I-.646 J.418 E.00532
G2 X138.174 Y117.281 I15.875 J-5.612 E.06539
G2 X139.095 Y117.954 I1.229 J-.715 E.04241
G3 X140.277 Y118.396 I-.734 J3.773 E.04579
G3 X140.617 Y118.681 I-.667 J1.14 E.01612
G2 X141.164 Y119.022 I1.581 J-1.929 E.02333
G3 X141.717 Y119.591 I-1.402 J1.915 E.02882
G3 X142 Y120.061 I-.927 J.878 E.01998
G2 X142.322 Y120.532 I3.871 J-2.305 E.02062
G3 X142.439 Y121.483 I-1.501 J.669 E.03515
G2 X142.456 Y122.107 I30.308 J-.49 E.02253
G1 X142.434 Y122.218 E.0041
G3 X142.175 Y122.775 I-1.539 J-.378 E.02232
G2 X141.621 Y123.834 I4.851 J3.212 E.04327
G2 X141.929 Y125.179 I1.358 J.397 E.05207
G3 X142.869 Y126.412 I-6.263 J5.749 E.05611
G3 X142.986 Y126.988 I-.673 J.437 E.02172
G2 X143.229 Y127.72 I1.632 J-.135 E.02814
G3 X143.265 Y128.284 I-.821 J.335 E.02077
G2 X143.262 Y128.916 I2.192 J.328 E.02292
G3 X143.184 Y129.311 I-1.133 J-.017 E.01463
G2 X142.589 Y130.284 I.88 J1.207 E.04228
G3 X142.106 Y130.726 I-1.686 J-1.358 E.02375
G2 X140.762 Y131.819 I5.556 J8.205 E.06263
G2 X140.477 Y132.752 I.816 J.76 E.03648
G2 X140.719 Y133.861 I24.38 J-4.737 E.04103
G2 X140.837 Y134.435 I41.181 J-8.137 E.02119
G3 X140.569 Y135.543 I-2.076 J.083 E.04169
G3 X140.384 Y136.006 I-22.681 J-8.759 E.01803
G2 X139.893 Y136.739 I1.899 J1.801 E.03202
G3 X139.534 Y136.979 I-.537 J-.417 E.01589
G2 X138.764 Y137.378 I1.117 J3.096 E.03141
G1 X138.73 Y137.393 E.00133
G3 X137.41 Y137.577 I-1.858 J-8.47 E.04822
G2 X136.551 Y137.789 I.707 J4.718 E.03199
G2 X135.792 Y138.567 I.824 J1.563 E.03993
G3 X134.487 Y140.498 I-11.224 J-6.182 E.08431
G3 X132.495 Y140.727 I-1.619 J-5.291 E.07286
G2 X131.423 Y140.443 I-8.763 J30.851 E.04005
G2 X130.28 Y140.067 I-2.582 J5.932 E.04354
G2 X128.568 Y140.462 I-.421 J2.086 E.06544
M73 P4 R27
G3 X127.337 Y141.145 I-2.561 J-3.164 E.05111
M73 P4 R27
G3 X125.666 Y141.403 I-2.338 J-9.583 E.06117
G3 X125.177 Y141.226 I.171 J-1.235 E.01896
G3 X123.785 Y139.963 I3.233 J-4.963 E.06818
G3 X123.296 Y139.393 I2.229 J-2.401 E.0272
G2 X122.125 Y138.769 I-1.383 J1.186 E.04908
G3 X120.984 Y138.55 I.923 J-7.887 E.04199
G3 X120.046 Y138.461 I13.023 J-141.732 E.03406
G3 X118.795 Y137.83 I1.237 J-4.011 E.05086
G3 X117.739 Y136.786 I1.166 J-2.235 E.05446
G3 X117.434 Y135.865 I1.722 J-1.081 E.03539
G2 X117.184 Y134.462 I-8.125 J.721 E.05157
G1 X117.137 Y134.203 E.00952
G3 X116.949 Y133.895 I.641 J-.603 E.01312
G2 X115.863 Y133.172 I-3.12 J3.514 E.04727
G3 X115.286 Y132.751 I1.226 J-2.283 E.02592
G3 X114.54 Y132.2 I4.754 J-7.227 E.03352
G3 X114.196 Y131.751 I1.78 J-1.715 E.02047
G3 X113.682 Y131.033 I7.892 J-6.199 E.03191
G3 X113.766 Y130.761 I.366 J-.035 E.01055
G2 X114.156 Y129.694 I-3.875 J-2.02 E.04117
G2 X114.395 Y129.234 I-7.023 J-3.949 E.01872
G3 X114.613 Y128.61 I4.821 J1.328 E.02392
G3 X114.917 Y127.833 I131.494 J51.054 E.03012
G3 X114.976 Y127.462 I2.278 J.173 E.01362
G2 X114.683 Y126.404 I-3.718 J.462 E.03978
G2 X114.367 Y126 I-1.824 J1.101 E.0186
G2 X114.07 Y125.218 I-1.712 J.202 E.03054
G3 X113.826 Y123.532 I5.571 J-1.665 E.06175
G3 X113.786 Y122.819 I2.47 J-.496 E.02589
G3 X114.038 Y122.315 I1.919 J.643 E.02043
G2 X115.078 Y121.812 I-.455 J-2.269 E.04217
G2 X115.51 Y121.242 I-1.772 J-1.793 E.02593
G3 X115.667 Y121.124 I.736 J.812 E.00709
G2 X116.735 Y120.458 I-3.133 J-6.216 E.04555
G2 X117.24 Y119.222 I-1.008 J-1.132 E.04996
G3 X117.412 Y117.749 I5.802 J-.068 E.05372
G1 X117.602 Y117.285 E.0181
G2 X118.187 Y116.679 I-.622 J-1.186 E.03098
G3 X118.432 Y116.122 I2.7 J.854 E.02203
G1 X118.481 Y116.074 E.00247
G2 X118.86 Y115.905 I-14.798 J-33.73 E.015
G2 X119.263 Y115.461 I-2.326 J-2.518 E.02167
G3 X120.383 Y115.188 I1.067 J1.939 E.04214
G3 X121.431 Y115.223 I.447 J2.342 E.0382
G2 X122.405 Y115.393 I1.257 J-4.306 E.0358
G2 X123.402 Y114.981 I-.007 J-1.428 E.03996
G1 X123.403 Y114.98 E.00006
G1 X123.067 Y114.664 F30000
;TYPE:Outer wall
G1 F3000
G1 X123.073 Y114.664 E.00021
G2 X123.246 Y114.44 I-.676 J-.702 E.01025
G3 X125.138 Y112.83 I3.008 J1.618 E.09185
G2 X125.622 Y112.609 I-4.833 J-11.211 E.01924
G3 X126.737 Y112.427 I1.073 J3.078 E.04102
G3 X127.404 Y112.272 I1.501 J4.933 E.02477
G3 X127.638 Y112.273 I.095 J3.111 E.00846
G3 X128.59 Y112.555 I-.125 J2.173 E.03617
G3 X129.225 Y112.699 I-6.095 J28.254 E.02355
G3 X130.123 Y113.488 I-1.146 J2.21 E.04358
G1 X130.329 Y113.767 E.01254
G2 X131.384 Y113.946 I.667 J-.733 E.04086
G3 X133.27 Y113.211 I3.991 J7.453 E.07329
G3 X134.03 Y113.223 I.349 J1.966 E.02762
G3 X135.459 Y113.289 I.568 J3.207 E.0521
G3 X135.913 Y113.574 I-.363 J1.084 E.01956
G2 X136.465 Y113.802 I1.231 J-2.193 E.02163
G3 X137.451 Y114.837 I-1.019 J1.958 E.05258
G2 X137.791 Y115.222 I8.398 J-7.065 E.01856
G3 X137.898 Y115.424 I-.997 J.661 E.00828
G2 X138.567 Y117.048 I16.603 J-5.896 E.06347
G2 X139.224 Y117.516 I.902 J-.571 E.02985
G3 X140.494 Y117.993 I-.844 J4.177 E.04922
G3 X140.92 Y118.338 I-.907 J1.556 E.0199
G2 X141.392 Y118.625 I1.339 J-1.668 E.02
G3 X142.119 Y119.355 I-1.817 J2.538 E.0374
G3 X142.463 Y119.959 I-2.13 J1.615 E.02519
G3 X142.73 Y120.326 I-8.138 J6.194 E.0164
G3 X142.897 Y121.499 I-1.88 J.866 E.04342
G3 X142.91 Y122.166 I-4.129 J.416 E.02411
G3 X142.567 Y123.01 I-2.251 J-.423 E.03315
G2 X142.062 Y123.959 I4.581 J3.047 E.03891
G2 X142.282 Y124.889 I.915 J.274 E.03615
G3 X143.273 Y126.198 I-6.476 J5.93 E.05938
G3 X143.444 Y126.967 I-1.053 J.638 E.02898
G2 X143.637 Y127.513 I1.396 J-.187 E.0211
G3 X143.719 Y128.343 I-1.155 J.533 E.0307
G2 X143.722 Y128.913 I3.042 J.269 E.02062
G3 X143.556 Y129.579 I-1.485 J-.017 E.02503
G3 X143.297 Y129.808 I-1.482 J-1.42 E.0125
G2 X143.013 Y130.463 I1.239 J.926 E.02601
G3 X142.379 Y131.093 I-2.029 J-1.409 E.03246
G2 X141.099 Y132.131 I5.155 J7.665 E.05962
G2 X140.934 Y132.717 I.503 J.459 E.02282
G2 X141.188 Y133.837 I101.146 J-22.365 E.04149
G2 X141.293 Y134.402 I42 J-7.527 E.02077
G3 X140.986 Y135.729 I-2.539 J.112 E.04983
G3 X140.794 Y136.216 I-11.541 J-4.277 E.0189
G2 X140.276 Y136.991 I2.588 J2.291 E.03379
G3 X139.709 Y137.401 I-.914 J-.667 E.0257
G2 X139.026 Y137.757 I.781 J2.329 E.02795
G3 X138.343 Y137.94 I-.906 J-2.02 E.02564
G3 X137.309 Y138.054 I-14.419 J-125.348 E.03757
G2 X136.616 Y138.277 I.374 J2.356 E.02641
G2 X136.188 Y138.795 I1.184 J1.412 E.02442
G3 X134.808 Y140.823 I-11.332 J-6.231 E.08877
G3 X134.219 Y141.046 I-.723 J-1.023 E.023
G3 X132.415 Y141.178 I-1.403 J-6.799 E.06552
G2 X131.455 Y140.926 I-6.761 J23.887 E.03587
G3 X130.559 Y140.605 I1.957 J-6.854 E.03439
G2 X128.821 Y140.842 I-.653 J1.7 E.06612
G3 X127.383 Y141.604 I-2.644 J-3.254 E.05918
G3 X126.265 Y141.817 I-2.57 J-10.434 E.04115
G3 X125.211 Y141.759 I-.415 J-2.033 E.03855
G3 X124.545 Y141.344 I1.227 J-2.715 E.02842
G3 X123.456 Y140.282 I3.999 J-5.186 E.05508
G3 X122.948 Y139.689 I2.427 J-2.598 E.02828
G2 X122.051 Y139.22 I-1.036 J.889 E.03745
G3 X120.905 Y139 I.933 J-7.959 E.0422
G3 X119.94 Y138.906 I2.43 J-29.748 E.03504
G3 X118.535 Y138.206 I1.348 J-4.471 E.05698
G3 X117.752 Y137.588 I1.42 J-2.603 E.0362
G3 X117.078 Y136.425 I2.571 J-2.266 E.04888
G3 X116.892 Y135.215 I11.323 J-2.364 E.04427
G2 X116.707 Y134.392 I-57.022 J12.384 E.03046
G3 X116.578 Y134.178 I.446 J-.416 E.00909
G2 X115.631 Y133.566 I-2.708 J3.151 E.04087
G3 X115.003 Y133.111 I1.456 J-2.669 E.02807
G3 X114.219 Y132.526 I4.724 J-7.148 E.03535
G3 X113.824 Y132.016 I2.103 J-2.038 E.02336
G3 X113.238 Y131.162 I4.134 J-3.464 E.03747
G3 X113.42 Y130.44 I.973 J-.14 E.02762
G2 X113.738 Y129.509 I-7.34 J-3.024 E.03556
G2 X113.962 Y129.082 I-14.598 J-7.945 E.01744
G3 X114.185 Y128.447 I4.847 J1.35 E.0243
G3 X114.47 Y127.724 I70.782 J27.392 E.02809
G3 X114.51 Y127.458 I1.626 J.113 E.00971
G2 X114.284 Y126.631 I-3.046 J.387 E.0311
G2 X113.945 Y126.188 I-37.954 J28.752 E.02014
G2 X113.843 Y125.761 I-7.43 J1.545 E.01588
G3 X113.532 Y124.966 I1.691 J-1.121 E.03107
G3 X113.371 Y123.575 I5.315 J-1.32 E.05072
G3 X113.347 Y122.688 I2.549 J-.512 E.03222
G3 X113.797 Y121.931 I1.521 J.391 E.03225
G3 X114.224 Y121.783 I.7 J1.331 E.01638
G2 X115.104 Y121.017 I-.455 J-1.412 E.04331
G3 X115.432 Y120.732 I.863 J.659 E.01583
G2 X116.441 Y120.106 I-2.894 J-5.792 E.04294
G2 X116.783 Y119.207 I-.741 J-.797 E.036
G3 X116.984 Y117.587 I5.955 J-.082 E.05915
G1 X117.184 Y117.1 E.01904
G3 X117.531 Y116.794 I.582 J.312 E.01707
G2 X117.89 Y116.18 I-.828 J-.895 E.02607
G3 X118.466 Y115.587 I.809 J.21 E.03125
G2 X118.869 Y115.218 I-.402 J-.844 E.02003
G3 X119.281 Y114.935 I.723 J.608 E.01829
G3 X120.336 Y114.733 I1.132 J3.06 E.03899
G3 X121.533 Y114.777 I.497 J2.767 E.04359
G2 X122.4 Y114.936 I1.175 J-3.96 E.03192
G2 X122.941 Y114.77 I-.003 J-.975 E.02073
G1 X123.037 Y114.69 E.00453
G1 E-.728 F1800
;WIPE_START
G1 F30000
G1 X123.073 Y114.664 E-.00268
G1 X123.246 Y114.44 E-.01696
G1 X123.462 Y114.099 E-.02425
G1 X123.635 Y113.873 E-.01705
G1 X123.764 Y113.741 E-.01106
;WIPE_END
G1 Z.6
G1 X134.787 Y113.864 Z.6
G1 Z.2
G1 E.8 F1800
;TYPE:Bottom surface
;WIDTH:0.500959
G1 F6300
G1 X137.7 Y116.777 E.14913
G1 E-.728 F1800
;WIPE_START
G1 F30000
G1 X136.851 Y115.928 E-.072
;WIPE_END
G1 Z.6
G1 X139.113 Y118.189 Z.6
G1 Z.2
G1 E.8 F1800
G1 F6300
G1 X142.028 Y121.105 E.14927
G2 X142.015 Y121.74 I3.095 J.381 E.02303
G1 X134.367 Y114.091 E.3916
G3 X133.71 Y114.082 I-.305 J-1.661 E.02394
G1 X141.942 Y122.314 E.42151
G1 X141.704 Y122.724 E.01716
G1 X133.148 Y114.168 E.43809
G1 X132.664 Y114.332 E.01848
G1 X141.464 Y123.132 E.45054
G2 X141.255 Y123.571 I1.684 J1.07 E.01764
G1 X132.212 Y114.527 E.46303
G1 X131.78 Y114.744 E.01747
G1 X141.139 Y124.102 E.47918
G2 X141.225 Y124.836 I1.941 J.144 E.02691
G1 X131.282 Y114.893 E.50908
G3 X130.618 Y114.877 I-.295 J-1.519 E.02424
G1 X142.552 Y126.811 E.61104
G2 X142.675 Y127.582 I1.943 J.085 E.02845
G1 X128.557 Y113.464 E.72285
G1 X128.289 Y113.397 E.00999
G1 X127.873 Y113.208 E.01657
G1 X127.615 Y113.17 E.00942
G1 X142.831 Y128.385 E.77905
G2 X142.809 Y129.011 I21.84 J1.073 E.02268
G1 X127.06 Y113.263 E.80635
G1 X126.884 Y113.311 E.00663
G1 X126.485 Y113.335 E.01447
G1 X142.518 Y129.368 E.82092
G2 X142.286 Y129.784 I1.26 J.974 E.01731
G1 X125.945 Y113.442 E.83672
G3 X125.494 Y113.64 I-1.033 J-1.746 E.01785
G1 X142.061 Y130.207 E.84825
G1 X142.033 Y130.235 E.00147
G1 X141.694 Y130.487 E.01528
G1 X125.041 Y113.834 E.85263
G1 X124.73 Y114.042 E.01353
G1 X124.663 Y114.104 E.00332
G1 X141.322 Y130.763 E.85296
G2 X140.963 Y131.052 I1.565 J2.31 E.0167
G1 X124.341 Y114.429 E.85111
G2 X124.069 Y114.806 I1.467 J1.342 E.01684
G1 X140.621 Y131.358 E.84746
G2 X140.311 Y131.695 I.815 J1.061 E.01668
G1 X123.795 Y115.18 E.8456
G3 X123.469 Y115.501 I-1.128 J-.819 E.01666
G1 X140.095 Y132.127 E.85126
G2 X140.042 Y132.722 I1.269 J.412 E.02182
G1 X123.036 Y115.716 E.87075
G3 X122.492 Y115.819 I-.57 J-1.507 E.02015
G1 X140.198 Y133.526 E.90658
G3 X140.377 Y134.353 I-9.804 J2.557 E.03064
G1 X121.759 Y115.734 E.95327
G2 X120.962 Y115.585 I-1.223 J4.319 E.02942
G1 X140.342 Y134.965 E.99227
G1 X140.325 Y135.035 E.00263
G2 X140.15 Y135.421 I2.848 J1.526 E.01534
G1 X120.354 Y115.625 E1.01357
G1 X119.909 Y115.673 E.01621
G1 X119.787 Y115.705 E.00459
G1 X139.939 Y135.858 E1.03183
G2 X139.674 Y136.241 I.879 J.89 E.01696
G1 X119.409 Y115.975 E1.03762
G3 X119.072 Y116.286 I-1.997 J-1.829 E.01662
G1 X139.362 Y136.577 E1.03891
G2 X138.92 Y136.782 I.584 J1.842 E.01771
G1 X118.698 Y116.56 E1.03535
G3 X118.498 Y117.008 I-1.471 J-.39 E.01782
G1 X138.491 Y137.001 E1.02368
G3 X137.929 Y137.087 I-.729 J-2.89 E.02061
G1 X118.215 Y117.372 E1.00941
G3 X117.951 Y117.582 I-.575 J-.453 E.01232
G1 X117.901 Y117.706 E.00484
G1 X137.343 Y137.148 E.99546
G1 X136.803 Y137.256 E.01994
G1 X117.758 Y118.211 E.9751
G2 X117.696 Y118.797 I3.361 J.653 E.02135
G1 X136.32 Y137.421 E.95358
G2 X135.934 Y137.682 I.584 J1.278 E.01697
G1 X117.662 Y119.411 E.93552
G3 X117.574 Y119.971 I-1.5 J.051 E.02064
G1 X135.63 Y138.027 E.92448
G2 X135.377 Y138.422 I1.97 J1.538 E.017
G1 X117.357 Y120.401 E.92267
G3 X117.058 Y120.75 I-1.111 J-.651 E.01672
M73 P5 R27
G1 X135.14 Y138.832 E.92585
M73 P5 R27
G3 X134.89 Y139.23 I-2.943 J-1.577 E.01702
G1 X116.683 Y121.023 E.9322
G3 X116.288 Y121.276 I-1.832 J-2.426 E.01699
G1 X134.618 Y139.605 E.93849
G1 X134.346 Y139.981 E.01679
G1 X115.88 Y121.515 E.94547
G1 X115.824 Y121.548 E.00233
G3 X115.598 Y121.881 I-1.431 J-.726 E.01463
G1 X133.912 Y140.195 E.93767
G3 X133.351 Y140.282 I-1.041 J-4.861 E.02056
G1 X115.278 Y122.209 E.92534
G3 X114.89 Y122.469 I-1.104 J-1.231 E.01696
G1 X132.72 Y140.298 E.91289
G1 X132.573 Y140.296 E.0053
