; HEADER_BLOCK_START
; generated by ElegooSlicer 1.1.8.2 on 2025-03-13 at 14:18:21
; total layer number: 536
; filament_density: 1.25
; filament_diameter: 1.75
; max_z_height: 107.20
; HEADER_BLOCK_END



; THUMBNAIL_BLOCK_START

;
; THUMBNAIL_BLOCK_END

; external perimeters extrusion width = 0.42mm
; perimeters extrusion width = 0.45mm
; infill extrusion width = 0.45mm
; solid infill extrusion width = 0.42mm
; top infill extrusion width = 0.42mm
; support material extrusion width = 0.42mm
; first layer extrusion width = 0.50mm

; EXECUTABLE_BLOCK_START
M73 P0 R123
M201 X20000 Y20000 Z500 E5000
M203 X500 Y500 Z20 E30
M204 P20000 R5000 T20000
M205 X9.00 Y9.00 Z3.00 E2.50 ; sets the jerk limits, mm/sec
M106 S0
M106 P2 S0
;TYPE:Custom
M400 ; wait for buffer to clear
M220 S100 ;Set the feed speed to 100%
M221 S100 ;Set the flow rate to 100%
M104 S140
M190 S60
G90
G28 ;home
M204 S10000

;加热，同时移动到废料桶位置，挤出110mm
M104 S250
G1 Z10 F600
G1 X202 Y250 F20000
G1 Y264.5 F3000
M109 S250
M83
G92 E0
G1 E10 F150 
M400
G1 E10 F300
M400
G4 P2000
G1 E10 F150
M400
G1 E10 F300
M73 P0 R122
M400
G4 P2000
M73 P0 R122
G1 E10 F150
M400
G1 E10 F300
M400
G4 P2000
G1 E10 F150
M400
G1 E10 F300
M400
G4 P2000
G1 E10 F150
M104 S180
M400
G1 E10 F300
M400
G4 P2000
G1 E10 F150
M400

;开启风扇，降温
M106 S250
M109 S180
M104 S140
;刮掉废料
G1 X188 F20000
G1 Y256
G1 X202
G1 Y264.5 F1000
G1 X188 F20000
G1 Y256
G1 X202
G1 Y264.5 F1000
G1 X188 F20000
G1 Y256
G1 X202
G1 Y264.5 F1000

;擦嘴
M204 S10000
G1 X176 F6000
G1 Y263
G3 I2 J0 F3000
G3 I2 J0 F3000
G3 I2 J0 F3000
G3 I2 J0 F3000
G3 I2 J0 F3000
G1 X176 F15000
G1 X185
G1 X170
G1 X185
G1 X170
G1 X180
G1 X176
G3 I2 J0 F3000
G3 I2 J0 F3000
G3 I2 J0 F3000
G3 I2 J0 F3000
G3 I2 J0 F3000


;移动到床后中位置，研磨喷嘴
M400
G1 X128 Y259 Z0 F3000

G2 X129 Y259 I1 J1 F2000
G2 X129 Y259 I1 J1 F2000
G2 X129 Y259 I1 J1 F2000
G2 X129 Y259 Z1 I1 J1 F2000

G1 X128 Y259 Z1 F30000
G1 Z0 F300
G1 X130 F120
G1 X126 
G1 X130
G1 X126 
G1 X130
G1 X126 
G1 X130
M109 S140
M106 S150

G2 X129 Y259 I1 J1 F2000
G2 X129 Y259 I1 J1 F2000
G2 X129 Y259 I1 J1 F2000
G2 X129 Y259 Z1 I1 J1 F2000
G1 Z10 F600
M106 S0


;打印前归零
G28 Z


预设加速度，划线准备打印
M204 S5000 ;Call exterior wall print acceleration
G1 X128.5 Y-1.2 F20000
G1 Z0.3 F900
M109 S210
M83
G92 E0 ;Reset Extruder
G1 F6000 
G1 X-1.2 E10.156 ;Draw the first line
G1 Y98.8 E7.934
G1 X-0.5 Y100 E0.1
G1 Y-0.3 E7.934
G1 X78.5 E6.284
G1 F1680 
G1 X98.5 E2
G1 F8400 
G1 X118.5 E2
G1 F1680 
G1 X138.5 E2
G1 F8400 
G1 X158.5 E2
G1 F8400 
G1 X178.5 E2
;End PA test.


G3 I-1 J0 Z0.6 F1200.0 ;Move to side a little
G1 F20000
G92 E0 ;Reset Extruder
;LAYER_COUNT:536
;LAYER:0


G90
G21
M83 ; use relative distances for extrusion
;LAYER_CHANGE
;Z:0.2
;HEIGHT:0.2
;BEFORE_LAYER_CHANGE
;0.2
G92 E0

G1 E-.8 F1800
M73 L1
;LAYER:1
;M204 S2000
;






;_SET_FAN_SPEED_CHANGING_LAYER
M204 S1000
G1 Z.6 F30000
G1 X140.026 Y94.583
G1 Z.6
G1 Z.2
G1 E.8 F1800
;TYPE:Inner wall
;WIDTH:0.5
G1 F3000
G1 X140.026 Y87.057 E.27193
G2 X139.983 Y85.908 I-12.157 J-.122 E.04156
G1 X140.146 Y85.925 E.00591
G2 X142.184 Y85.974 I1.549 J-21.862 E.07368
G1 X157.018 Y85.973 E.53595
G2 X158.223 Y85.908 I-.119 J-13.422 E.04361
G2 X158.18 Y87.057 I12.113 J1.027 E.04156
G1 X158.18 Y94.583 E.27193
G1 X164.166 Y94.583 E.21626
G1 X167.693 Y98.111 E.18022
G1 X167.693 Y169.442 E2.57712
G1 X164.166 Y172.969 E.18022
G1 X92.834 Y172.969 E2.57712
G1 X89.307 Y169.442 E.18022
M73 P0 R121
G1 X89.307 Y98.111 E2.57712
M73 P0 R121
G1 X92.834 Y94.583 E.18022
G1 X139.986 Y94.583 E1.70355
G1 X139.569 Y94.126 F30000
M73 P1 R121
;TYPE:Outer wall
G1 F3000
M73 P1 R121
G1 X139.569 Y87.059 E.25533
G2 X139.443 Y85.417 I-9.16 J-.125 E.05956
G3 X140.186 Y85.47 I.128 J3.471 E.02694
G2 X142.184 Y85.517 I1.511 J-21.436 E.07225
G1 X157.013 Y85.515 E.53575
G2 X158.506 Y85.417 I-.129 J-13.382 E.05409
G1 X158.763 Y85.417 E.00928
G1 X158.671 Y86.076 E.02404
G2 X158.637 Y87.059 I10.36 J.849 E.03553
G1 X158.637 Y94.126 E.25533
G1 X164.355 Y94.126 E.20658
G1 X168.15 Y97.921 E.1939
G1 X168.15 Y169.631 E2.5908
G1 X164.355 Y173.426 E.1939
G1 X92.645 Y173.426 E2.5908
G1 X88.85 Y169.631 E.1939
G1 X88.85 Y97.921 E2.5908
G1 X92.645 Y94.126 E.1939
G1 X139.529 Y94.126 E1.69387
G1 E-.728 F1800
;WIPE_START
G1 F30000
G1 X139.536 Y92.926 E-.072
;WIPE_END
G1 Z.6
G1 X157.952 Y87.051 Z.6
G1 Z.2
G1 E.8 F1800
;TYPE:Bottom surface
;WIDTH:0.501383
G1 F6300
G1 X157.301 Y86.4 E.03335
G3 X156.659 Y86.407 I-.46 J-14.018 E.02327
G1 X157.746 Y87.494 E.0557
G1 X157.746 Y88.142 E.02349
G1 X156.011 Y86.407 E.08893
G1 X155.362 Y86.407 E.0235
G1 X157.746 Y88.79 E.12216
G1 X157.746 Y89.439 E.02349
G1 X154.714 Y86.407 E.15538
G1 X154.066 Y86.407 E.0235
G1 X157.746 Y90.087 E.18861
G1 X157.746 Y90.735 E.02349
G1 X153.417 Y86.407 E.22183
G1 X152.769 Y86.407 E.0235
G1 X157.746 Y91.384 E.25506
G1 X157.746 Y92.032 E.02349
G1 X152.121 Y86.407 E.28829
G1 X151.472 Y86.407 E.0235
G1 X157.746 Y92.68 E.32151
G1 X157.746 Y93.329 E.02349
G1 X150.824 Y86.407 E.35474
G1 X150.175 Y86.407 E.0235
G1 X157.951 Y94.183 E.39851
G1 E-.728 F1800
;WIPE_START
G1 F30000
G1 X157.103 Y93.334 E-.072
;WIPE_END
G1 Z.6
G1 X163.768 Y94.812 Z.6
G1 Z.2
G1 E.8 F1800
G1 F6300
G1 X167.259 Y98.303 E.17891
G1 X167.259 Y98.951 E.0235
G1 X163.325 Y95.018 E.2016
G1 X162.677 Y95.018 E.0235
G1 X167.259 Y99.6 E.23483
G1 X167.259 Y100.248 E.0235
G1 X162.028 Y95.018 E.26806
G1 X161.38 Y95.018 E.0235
G1 X167.259 Y100.897 E.30128
G1 X167.259 Y101.545 E.0235
G1 X160.731 Y95.018 E.33451
G1 X160.083 Y95.018 E.0235
G1 X167.259 Y102.193 E.36774
G1 X167.259 Y102.842 E.0235
G1 X159.435 Y95.018 E.40097
G1 X158.786 Y95.018 E.0235
G1 X167.259 Y103.49 E.4342
G1 X167.259 Y104.138 E.0235
G1 X149.527 Y86.407 E.90872
G1 X148.879 Y86.407 E.0235
G1 X167.259 Y104.787 E.94195
G1 X167.259 Y105.435 E.0235
G1 X148.23 Y86.407 E.97517
G1 X147.582 Y86.407 E.0235
G1 X167.259 Y106.083 E1.0084
G1 X167.259 Y106.732 E.0235
G1 X146.934 Y86.407 E1.04163
G1 X146.285 Y86.407 E.0235
G1 X167.259 Y107.38 E1.07486
G1 X167.259 Y108.029 E.0235
G1 X145.637 Y86.407 E1.10808
G1 X144.989 Y86.407 E.0235
G1 X167.259 Y108.677 E1.14131
G1 X167.259 Y109.325 E.0235
G1 X144.34 Y86.407 E1.17454
G1 X143.692 Y86.407 E.0235
G1 X167.259 Y109.974 E1.20777
G1 X167.259 Y110.622 E.0235
G1 X143.043 Y86.407 E1.241
G1 X142.395 Y86.407 E.0235
G1 X167.259 Y111.27 E1.27422
G1 X167.259 Y111.919 E.0235
G1 X141.747 Y86.407 E1.30745
G3 X141.095 Y86.403 I-.285 J-7.181 E.02364
G1 X167.259 Y112.567 E1.34087
G1 X167.259 Y113.215 E.0235
G1 X140.447 Y86.403 E1.37407
G3 X140.46 Y87.065 I-19.451 J.725 E.02399
G1 X167.259 Y113.864 E1.37338
G1 X167.259 Y114.512 E.0235
G1 X140.46 Y87.714 E1.37338
G1 X140.46 Y88.362 E.0235
G1 X167.259 Y115.161 E1.37338
G1 X167.259 Y115.809 E.0235
G1 X140.46 Y89.01 E1.37338
G1 X140.46 Y89.659 E.0235
G1 X167.259 Y116.457 E1.37338
G1 X167.259 Y117.106 E.0235
G1 X140.46 Y90.307 E1.37338
G1 X140.46 Y90.956 E.0235
G1 X167.259 Y117.754 E1.37337
G1 X167.259 Y118.402 E.0235
G1 X140.46 Y91.604 E1.37337
G1 X140.46 Y92.252 E.0235
G1 X167.259 Y119.051 E1.37337
G1 X167.259 Y119.699 E.0235
G1 X140.46 Y92.901 E1.37337
G1 X140.46 Y93.549 E.0235
G1 X167.259 Y120.347 E1.37337
G1 X167.259 Y120.996 E.0235
G1 X140.461 Y94.198 E1.37337
G1 X140.461 Y94.846 E.0235
G1 X167.259 Y121.644 E1.37337
G1 X167.259 Y122.293 E.0235
G1 X139.984 Y95.018 E1.3978
G1 X139.335 Y95.018 E.0235
G1 X167.259 Y122.941 E1.43103
G1 X167.259 Y123.589 E.0235
G1 X138.687 Y95.018 E1.46425
G1 X138.039 Y95.018 E.0235
G1 X167.259 Y124.238 E1.49748
G1 X167.259 Y124.886 E.0235
G1 X137.39 Y95.018 E1.53071
G1 X136.742 Y95.018 E.0235
G1 X167.259 Y125.534 E1.56394
G1 X167.259 Y126.183 E.0235
G1 X136.094 Y95.018 E1.59716
G1 X135.445 Y95.018 E.0235
G1 X167.259 Y126.831 E1.63039
G1 X167.259 Y127.479 E.0235
G1 X134.797 Y95.018 E1.66362
G1 X134.148 Y95.018 E.0235
G1 X167.259 Y128.128 E1.69685
G1 X167.259 Y128.776 E.0235
G1 X133.5 Y95.018 E1.73008
G1 X132.852 Y95.018 E.0235
G1 X167.259 Y129.425 E1.7633
G1 X167.259 Y130.073 E.0235
G1 X132.203 Y95.018 E1.79653
G1 X131.555 Y95.018 E.0235
G1 X167.259 Y130.721 E1.82976
G1 X167.259 Y131.37 E.0235
G1 X130.907 Y95.018 E1.86299
G1 X130.258 Y95.018 E.0235
G1 X167.259 Y132.018 E1.89621
G1 X167.259 Y132.666 E.0235
G1 X129.61 Y95.018 E1.92944
G1 X128.962 Y95.018 E.0235
G1 X167.259 Y133.315 E1.96267
G1 X167.259 Y133.963 E.0235
G1 X128.313 Y95.018 E1.9959
G1 X127.665 Y95.018 E.0235
G1 X167.259 Y134.611 E2.02913
G1 X167.259 Y135.26 E.0235
G1 X127.016 Y95.018 E2.06235
G1 X126.368 Y95.018 E.0235
G1 X167.259 Y135.908 E2.09558
G1 X167.259 Y136.557 E.0235
G1 X125.72 Y95.018 E2.12881
G1 X125.071 Y95.018 E.0235
G1 X167.259 Y137.205 E2.16204
G1 X167.259 Y137.853 E.0235
G1 X124.423 Y95.018 E2.19526
G1 X123.775 Y95.018 E.0235
G1 X167.259 Y138.502 E2.22849
G1 X167.259 Y139.15 E.0235
G1 X123.126 Y95.018 E2.26172
G1 X122.478 Y95.018 E.0235
G1 X167.259 Y139.798 E2.29495
G1 X167.259 Y140.447 E.0235
G1 X121.83 Y95.018 E2.32817
G1 X121.181 Y95.018 E.0235
G1 X167.259 Y141.095 E2.3614
G1 X167.259 Y141.743 E.0235
G1 X120.533 Y95.018 E2.39463
G1 X119.884 Y95.018 E.0235
G1 X167.259 Y142.392 E2.42786
G1 X167.259 Y143.04 E.0235
G1 X119.236 Y95.018 E2.46109
G1 X118.588 Y95.018 E.0235
G1 X167.259 Y143.689 E2.49431
G1 X167.259 Y144.337 E.0235
G1 X117.939 Y95.018 E2.52754
G1 X117.291 Y95.018 E.0235
G1 X167.259 Y144.985 E2.56077
G1 X167.259 Y145.634 E.0235
G1 X116.643 Y95.018 E2.594
G1 X115.994 Y95.018 E.0235
G1 X167.259 Y146.282 E2.62722
G1 X167.259 Y146.93 E.0235
G1 X115.346 Y95.018 E2.66045
G1 X114.698 Y95.018 E.0235
G1 X167.259 Y147.579 E2.69368
G1 X167.259 Y148.227 E.0235
G1 X114.049 Y95.018 E2.72691
G1 X113.401 Y95.018 E.0235
G1 X167.259 Y148.875 E2.76013
G1 X167.259 Y149.524 E.0235
G1 X112.752 Y95.018 E2.79336
G1 X112.104 Y95.018 E.0235
G1 X167.259 Y150.172 E2.82659
G1 X167.259 Y150.821 E.0235
G1 X111.456 Y95.018 E2.85982
G1 X110.807 Y95.018 E.0235
G1 X167.259 Y151.469 E2.89305
G1 X167.259 Y152.117 E.0235
G1 X110.159 Y95.018 E2.92627
G1 X109.511 Y95.018 E.0235
M73 P1 R120
G1 X167.259 Y152.766 E2.9595
M73 P1 R120
G1 X167.259 Y153.414 E.0235
G1 X108.862 Y95.018 E2.99273
G1 X108.214 Y95.018 E.0235
G1 X167.259 Y154.062 E3.02596
G1 X167.259 Y154.711 E.0235
G1 X107.566 Y95.018 E3.05918
G1 X106.917 Y95.018 E.0235
G1 X167.259 Y155.359 E3.09241
G1 X167.259 Y156.007 E.0235
G1 X106.269 Y95.018 E3.12564
G1 X105.62 Y95.018 E.0235
G1 X167.259 Y156.656 E3.15887
G1 X167.259 Y157.304 E.0235
G1 X104.972 Y95.018 E3.1921
G1 X104.324 Y95.018 E.0235
G1 X167.259 Y157.953 E3.22532
G1 X167.259 Y158.601 E.0235
G1 X103.675 Y95.018 E3.25855
G1 X103.027 Y95.018 E.0235
G1 X167.259 Y159.249 E3.29178
G1 X167.259 Y159.898 E.0235
G1 X102.379 Y95.018 E3.32501
G1 X101.73 Y95.018 E.0235
G1 X167.259 Y160.546 E3.35823
G1 X167.259 Y161.194 E.0235
G1 X101.082 Y95.018 E3.39146
G1 X100.434 Y95.018 E.0235
G1 X167.259 Y161.843 E3.42469
G1 X167.259 Y162.491 E.0235
G1 X99.785 Y95.018 E3.45792
G1 X99.137 Y95.018 E.0235
G1 X167.259 Y163.14 E3.49114
G1 X167.259 Y163.788 E.0235
G1 X98.488 Y95.018 E3.52437
G1 X97.84 Y95.018 E.0235
M73 P2 R120
G1 X167.259 Y164.436 E3.5576
M73 P2 R120
G1 X167.259 Y165.085 E.0235
G1 X97.192 Y95.018 E3.59083
G1 X96.543 Y95.018 E.0235
G1 X167.259 Y165.733 E3.62406
G1 X167.259 Y166.381 E.0235
G1 X95.895 Y95.018 E3.65728
G1 X95.247 Y95.018 E.0235
G1 X167.259 Y167.03 E3.69051
G1 X167.259 Y167.678 E.0235
G1 X94.598 Y95.018 E3.72374
G1 X93.95 Y95.018 E.0235
G1 X167.259 Y168.326 E3.75697
G1 X167.259 Y168.975 E.0235
G1 X93.302 Y95.018 E3.79019
G1 X93.014 Y95.018 E.01041
G1 X92.834 Y95.198 E.00925
G1 X167.078 Y169.443 E3.80492
G1 X166.754 Y169.767 E.01661
G1 X92.509 Y95.522 E3.80492
G1 X92.185 Y95.846 E.01661
G1 X166.43 Y170.091 E3.80492
G1 X166.106 Y170.415 E.01661
G1 X91.861 Y96.171 E3.80492
G1 X91.537 Y96.495 E.01661
G1 X165.781 Y170.739 E3.80492
G1 X165.457 Y171.064 E.01661
G1 X91.213 Y96.819 E3.80492
G1 X90.889 Y97.143 E.01661
G1 X165.133 Y171.388 E3.80492
G1 X164.809 Y171.712 E.01661
G1 X90.564 Y97.467 E3.80492
G1 X90.24 Y97.792 E.01661
G1 X164.485 Y172.036 E3.80492
G1 X164.161 Y172.36 E.01661
G1 X89.916 Y98.116 E3.80492
G1 X89.741 Y98.29 E.00895
G1 X89.741 Y98.589 E.01083
G1 X163.687 Y172.535 E3.7896
G1 X163.039 Y172.535 E.0235
G1 X89.741 Y99.238 E3.75637
G1 X89.741 Y99.886 E.0235
G1 X162.39 Y172.535 E3.72315
G1 X161.742 Y172.535 E.0235
G1 X89.741 Y100.534 E3.68992
G1 X89.741 Y101.183 E.0235
G1 X161.093 Y172.535 E3.65669
G1 X160.445 Y172.535 E.0235
G1 X89.741 Y101.831 E3.62346
G1 X89.741 Y102.48 E.0235
G1 X159.797 Y172.535 E3.59024
G1 X159.148 Y172.535 E.0235
G1 X89.741 Y103.128 E3.55701
G1 X89.741 Y103.776 E.0235
G1 X158.5 Y172.535 E3.52378
G1 X157.852 Y172.535 E.0235
G1 X89.741 Y104.425 E3.49055
G1 X89.741 Y105.073 E.0235
G1 X157.203 Y172.535 E3.45733
G1 X156.555 Y172.535 E.0235
G1 X89.741 Y105.721 E3.4241
G1 X89.741 Y106.37 E.0235
G1 X155.907 Y172.535 E3.39087
G1 X155.258 Y172.535 E.0235
G1 X89.741 Y107.018 E3.35764
G1 X89.741 Y107.667 E.0235
G1 X154.61 Y172.535 E3.32441
G1 X153.961 Y172.535 E.0235
G1 X89.741 Y108.315 E3.29119
G1 X89.741 Y108.963 E.0235
G1 X153.313 Y172.535 E3.25796
G1 X152.665 Y172.535 E.0235
G1 X89.741 Y109.612 E3.22473
G1 X89.741 Y110.26 E.0235
G1 X152.016 Y172.535 E3.1915
G1 X151.368 Y172.535 E.0235
G1 X89.741 Y110.908 E3.15828
G1 X89.741 Y111.557 E.0235
G1 X150.72 Y172.535 E3.12505
G1 X150.071 Y172.535 E.0235
G1 X89.741 Y112.205 E3.09182
G1 X89.741 Y112.853 E.0235
M73 P2 R119
G1 X149.423 Y172.535 E3.05859
M73 P2 R119
G1 X148.775 Y172.535 E.0235
G1 X89.741 Y113.502 E3.02536
G1 X89.741 Y114.15 E.0235
G1 X148.126 Y172.535 E2.99214
G1 X147.478 Y172.535 E.0235
G1 X89.741 Y114.799 E2.95891
G1 X89.741 Y115.447 E.0235
G1 X146.829 Y172.535 E2.92568
G1 X146.181 Y172.535 E.0235
G1 X89.741 Y116.095 E2.89245
G1 X89.741 Y116.744 E.0235
G1 X145.533 Y172.535 E2.85923
G1 X144.884 Y172.535 E.0235
G1 X89.741 Y117.392 E2.826
G1 X89.741 Y118.04 E.0235
G1 X144.236 Y172.535 E2.79277
G1 X143.588 Y172.535 E.0235
G1 X89.741 Y118.689 E2.75954
G1 X89.741 Y119.337 E.0235
G1 X142.939 Y172.535 E2.72632
G1 X142.291 Y172.535 E.0235
G1 X89.741 Y119.985 E2.69309
G1 X89.741 Y120.634 E.0235
G1 X141.643 Y172.535 E2.65986
G1 X140.994 Y172.535 E.0235
G1 X89.741 Y121.282 E2.62663
G1 X89.741 Y121.931 E.0235
G1 X140.346 Y172.535 E2.5934
G1 X139.697 Y172.535 E.0235
G1 X89.741 Y122.579 E2.56018
G1 X89.741 Y123.227 E.0235
G1 X139.049 Y172.535 E2.52695
G1 X138.401 Y172.535 E.0235
G1 X89.741 Y123.876 E2.49372
G1 X89.741 Y124.524 E.0235
G1 X137.752 Y172.535 E2.46049
G1 X137.104 Y172.535 E.0235
G1 X89.741 Y125.172 E2.42727
G1 X89.741 Y125.821 E.0235
G1 X136.456 Y172.535 E2.39404
G1 X135.807 Y172.535 E.0235
G1 X89.741 Y126.469 E2.36081
G1 X89.741 Y127.117 E.0235
G1 X135.159 Y172.535 E2.32758
G1 X134.511 Y172.535 E.0235
G1 X89.741 Y127.766 E2.29436
G1 X89.741 Y128.414 E.0235
G1 X133.862 Y172.535 E2.26113
G1 X133.214 Y172.535 E.0235
G1 X89.741 Y129.063 E2.2279
G1 X89.741 Y129.711 E.0235
G1 X132.565 Y172.535 E2.19467
G1 X131.917 Y172.535 E.0235
G1 X89.741 Y130.359 E2.16144
G1 X89.741 Y131.008 E.0235
G1 X131.269 Y172.535 E2.12822
G1 X130.62 Y172.535 E.0235
G1 X89.741 Y131.656 E2.09499
G1 X89.741 Y132.304 E.0235
G1 X129.972 Y172.535 E2.06176
G1 X129.324 Y172.535 E.0235
G1 X89.741 Y132.953 E2.02853
G1 X89.741 Y133.601 E.0235
G1 X128.675 Y172.535 E1.99531
G1 X128.027 Y172.535 E.0235
G1 X89.741 Y134.249 E1.96208
G1 X89.741 Y134.898 E.0235
G1 X127.379 Y172.535 E1.92885
G1 X126.73 Y172.535 E.0235
G1 X89.741 Y135.546 E1.89562
G1 X89.741 Y136.195 E.0235
G1 X126.082 Y172.535 E1.8624
G1 X125.433 Y172.535 E.0235
G1 X89.741 Y136.843 E1.82917
G1 X89.741 Y137.491 E.0235
G1 X124.785 Y172.535 E1.79594
G1 X124.137 Y172.535 E.0235
G1 X89.741 Y138.14 E1.76271
G1 X89.741 Y138.788 E.0235
G1 X123.488 Y172.535 E1.72948
G1 X122.84 Y172.535 E.0235
M73 P3 R119
G1 X89.741 Y139.436 E1.69626
M73 P3 R119
G1 X89.741 Y140.085 E.0235
G1 X122.192 Y172.535 E1.66303
G1 X121.543 Y172.535 E.0235
G1 X89.741 Y140.733 E1.6298
G1 X89.741 Y141.381 E.0235
G1 X120.895 Y172.535 E1.59657
G1 X120.246 Y172.535 E.0235
G1 X89.741 Y142.03 E1.56335
G1 X89.741 Y142.678 E.0235
G1 X119.598 Y172.535 E1.53012
G1 X118.95 Y172.535 E.0235
G1 X89.741 Y143.327 E1.49689
