; HEADER_BLOCK_START
; generated by ElegooSlicer 1.1.8.2 on 2025-03-13 at 15:15:42
; total layer number: 168
; filament_density: 1.25
; filament_diameter: 1.75
; max_z_height: 42.00
; HEADER_BLOCK_END



; THUMBNAIL_BLOCK_START

;
; THUMBNAIL_BLOCK_END

; external perimeters extrusion width = 0.45mm
; perimeters extrusion width = 0.50mm
; infill extrusion width = 0.45mm
; solid infill extrusion width = 0.42mm
; top infill extrusion width = 0.42mm
; support material extrusion width = 0.42mm
; first layer extrusion width = 0.50mm

; EXECUTABLE_BLOCK_START
M73 P0 R25
M201 X20000 Y20000 Z500 E5000
M203 X500 Y500 Z20 E30
M204 P20000 R5000 T20000
M205 X20.00 Y20.00 Z3.00 E2.50 ; sets the jerk limits, mm/sec
M106 S0
M106 P2 S0
;TYPE:Custom
M400 ; wait for buffer to clear
M220 S100 ;Set the feed speed to 100%
M221 S100 ;Set the flow rate to 100%
M104 S140
M190 S60
G90
G28 ;home
M204 S10000

;加热，同时移动到废料桶位置，挤出110mm
M104 S250
G1 Z10 F600
G1 X202 Y250 F20000
G1 Y264.5 F3000
M109 S250
M83
G92 E0
G1 E10 F150 
M400
G1 E10 F300
M400
G4 P2000
G1 E10 F150
M400
G1 E10 F300
M400
G4 P2000
G1 E10 F150
M400
G1 E10 F300
M73 P1 R25
M400
G4 P2000
M73 P1 R25
G1 E10 F150
M400
G1 E10 F300
M400
G4 P2000
G1 E10 F150
M104 S180
M400
G1 E10 F300
M400
G4 P2000
G1 E10 F150
M73 P2 R25
M400

;开启风扇，降温
M106 S250
M109 S180
M104 S140
;刮掉废料
M73 P2 R25
G1 X188 F20000
G1 Y256
G1 X202
G1 Y264.5 F1000
G1 X188 F20000
G1 Y256
G1 X202
G1 Y264.5 F1000
G1 X188 F20000
G1 Y256
G1 X202
G1 Y264.5 F1000

;擦嘴
M204 S10000
G1 X176 F6000
M73 P2 R24
M73 P2 R24
G1 Y263
G3 I2 J0 F3000
G3 I2 J0 F3000
G3 I2 J0 F3000
G3 I2 J0 F3000
G3 I2 J0 F3000
G1 X176 F15000
G1 X185
G1 X170
G1 X185
G1 X170
G1 X180
G1 X176
G3 I2 J0 F3000
G3 I2 J0 F3000
G3 I2 J0 F3000
G3 I2 J0 F3000
G3 I2 J0 F3000


;移动到床后中位置，研磨喷嘴
M400
G1 X128 Y259 Z0 F3000

G2 X129 Y259 I1 J1 F2000
G2 X129 Y259 I1 J1 F2000
G2 X129 Y259 I1 J1 F2000
G2 X129 Y259 Z1 I1 J1 F2000

G1 X128 Y259 Z1 F30000
G1 Z0 F300
G1 X130 F120
G1 X126 
G1 X130
M73 P3 R24
M73 P3 R24
G1 X126 
G1 X130
G1 X126 
G1 X130
M109 S140
M106 S150

G2 X129 Y259 I1 J1 F2000
G2 X129 Y259 I1 J1 F2000
G2 X129 Y259 I1 J1 F2000
G2 X129 Y259 Z1 I1 J1 F2000
G1 Z10 F600
M106 S0


;打印前归零
G28 Z


预设加速度，划线准备打印
M204 S8000 ;Call exterior wall print acceleration
G1 X128.5 Y-1.2 F20000
G1 Z0.3 F900
M109 S220
M83
G92 E0 ;Reset Extruder
G1 F6000 
G1 X-1.2 E10.156 ;Draw the first line
G1 Y98.8 E7.934
M73 P4 R24
G1 X-0.5 Y100 E0.1
M73 P4 R24
G1 Y-0.3 E7.934
G1 X78.5 E6.284
G1 F2400 
G1 X98.5 E2
G1 F12000 
G1 X118.5 E2
G1 F2400 
G1 X138.5 E2
G1 F12000 
G1 X158.5 E2
G1 F12000 
G1 X178.5 E2
;End PA test.


G3 I-1 J0 Z0.6 F1200.0 ;Move to side a little
G1 F20000
G92 E0 ;Reset Extruder
;LAYER_COUNT:168
;LAYER:0


G90
G21
M83 ; use relative distances for extrusion
;LAYER_CHANGE
;Z:0.25
;HEIGHT:0.25
;BEFORE_LAYER_CHANGE
;0.25
G92 E0

G1 E-.8 F1800
M73 L1
;LAYER:1
;M204 S2000
;






;_SET_FAN_SPEED_CHANGING_LAYER
M204 S1000
M205 X12 Y12
G1 Z.65 F30000
G1 X117.434 Y92.693
G1 Z.65
G1 Z.25
G1 E.8 F1800
;TYPE:Support
;WIDTH:0.5
G1 F3000
G3 X122.282 Y96.382 I-.161 J5.242 E.29552
G2 X121.021 Y102.028 I2.863 J3.603 E.28442
G2 X126.512 Y104.222 I7.126 J-9.863 E.27155
G2 X129.418 Y103.892 I1.254 J-1.915 E.14428
G3 X130.965 Y104.798 I-.297 J2.279 E.08373
G2 X132.882 Y107.168 I2.882 J-.371 E.1459
G1 X132.895 Y107.177 E.0007
G2 X137.919 Y109.888 I6.04 J-5.184 E.26547
G2 X140.629 Y107.668 I-1.247 J-4.286 E.16366
G1 X140.809 Y107.676 E.00817
G3 X135.206 Y112.535 I-.297 J5.317 E1.1483
G3 X133.665 Y112.164 I-.259 J-2.306 E.07355
G3 X132.849 Y114.427 I-5.073 J-.55 E.11045
G3 X132.392 Y118.207 I-3.839 J1.453 E.17998
G1 X132.198 Y118.234 E.0089
G2 X129.267 Y119.967 I1.041 J5.106 E.15767
G1 X129.069 Y119.997 E.00913
G3 X127.118 Y122.855 I-5.217 J-1.467 E.16013
G3 X125.417 Y123.825 I-3.293 J-3.801 E.08958
G1 X125.301 Y124.391 E.02629
G3 X123.513 Y125.585 I-3.124 J-2.745 E.09887
G3 X118.49 Y127.371 I-3.334 J-1.42 E.27236
G2 X117.321 Y128.048 I-.189 J1.02 E.06685
G3 X114.307 Y130.017 I-4.049 J-2.907 E.16749
G3 X110.077 Y131.041 I-3.153 J-3.773 E.20495
G3 X104.887 Y132.39 I-3.96 J-4.582 E.25258
G3 X103.116 Y122.912 I-3.101 J-4.325 E.97175
G3 X111.549 Y118.117 I5.293 J-.505 E.55543
G1 X112.603 Y118.821 E.05762
G3 X114.34 Y116.75 I3.984 J1.579 E.12499
G2 X114.987 Y115.106 I-1.41 J-1.505 E.08301
G3 X116.223 Y113.326 I4.793 J2.009 E.09927
G3 X116.954 Y112.216 I.951 J-.169 E.06661
G1 X116.965 Y112.212 E.00056
G2 X121.245 Y106.565 I-.81 J-5.06 E.3557
G1 X121.52 Y106.296 E.0175
G1 X121.347 Y106.23 E.00844
G2 X121.194 Y103.297 I-1.488 J-1.393 E.14909
G2 X119.795 Y103.629 I-.434 J1.285 E.06892
G1 X119.853 Y102.678 E.04332
G3 X117.717 Y103.313 I-2.779 J-5.443 E.10187
G2 X115.187 Y102.556 I-1.247 J-.437 E.19442
G2 X115.04 Y102.865 I3.626 J1.915 E.01556
G3 X113.439 Y101.742 I2.651 J-5.481 E.0893
G2 X112.426 Y100.317 I-1.489 J-.014 E.08497
G3 X117.367 Y92.69 I4.944 J-2.211 E.49017
G1 E-.08 F1800
;WIPE_START
G1 F3000
G1 X116.171 Y92.792 E-.72
;WIPE_END
G1 Z.65 F30000
G1 X145.069 Y115.351 Z.65
G1 Z.25
G1 E.8 F1800
G1 F3000
G1 X145.069 Y111.088 E.19378
G2 X144.573 Y110.192 I-2.717 J.919 E.04681
G1 X144.573 Y115.784 E.25421
G3 X144.077 Y116.396 I-1.936 J-1.06 E.03602
G1 X144.077 Y109.58 E.3099
G2 X143.581 Y109.113 I-1.535 J1.133 E.03115
G1 X143.581 Y116.864 E.3524
G1 X143.085 Y117.191 E.02702
G1 X143.085 Y108.785 E.38217
G2 X142.589 Y108.522 I-.973 J1.235 E.02566
G1 X142.589 Y117.454 E.4061
G1 X142.093 Y117.666 E.02452
G1 X142.093 Y108.31 E.42538
G2 X141.597 Y108.188 I-.583 J1.305 E.02334
G1 X141.597 Y117.788 E.43643
G3 X141.102 Y117.885 I-.516 J-1.318 E.0231
G1 X141.102 Y108.091 E.44527
G2 X140.661 Y108.363 I-.139 J.268 E.02829
G1 X140.606 Y117.907 E.43395
G3 X140.11 Y117.894 I-.213 J-1.373 E.02268
G1 X140.11 Y109.034 E.40285
G3 X139.614 Y109.487 I-3.117 J-2.916 E.03056
G1 X139.614 Y117.827 E.37921
G3 X139.118 Y117.701 I.099 J-1.429 E.02339
G1 X139.118 Y109.864 E.35632
G3 X138.622 Y110.107 I-1.236 J-1.893 E.02518
G1 X138.622 Y117.54 E.33794
G3 X138.126 Y117.281 I.466 J-1.496 E.02558
G1 X138.126 Y110.275 E.31856
G3 X137.63 Y110.318 I-5.829 J-63.33 E.02264
G1 X137.63 Y116.969 E.30237
G1 X137.134 Y116.574 E.02883
G1 X137.134 Y110.253 E.28736
G3 X136.638 Y110.109 I.455 J-2.486 E.02353
G1 X136.638 Y116.013 E.26844
G3 X136.142 Y115.24 I1.883 J-1.753 E.04199
G1 X136.133 Y109.892 E.24315
G3 X135.646 Y109.66 I82.215 J-173.216 E.02451
G1 X135.646 Y113.642 E.18106
G3 X135.608 Y112.129 I4.149 J-.863 E.06919
G1 X135.15 Y112.134 E.0208
G1 X135.15 Y109.421 E.12333
G3 X134.654 Y109.149 I6.595 J-12.588 E.02573
G1 X134.654 Y112.085 E.13352
G1 X134.158 Y111.911 E.0239
G1 X134.158 Y108.843 E.13948
G3 X133.662 Y108.464 I1.944 J-3.057 E.02842
G1 X133.662 Y111.737 E.14879
G1 X133.316 Y111.615 E.01668
G3 X133.166 Y112.732 I-2.835 J.188 E.05158
G1 X133.166 Y107.995 E.21538
G2 X132.671 Y107.513 I-2.987 J2.577 E.03149
G1 X132.671 Y113.915 E.29108
G2 X132.582 Y114.846 I.344 J.502 E.04849
M73 P5 R24
G3 X132.175 Y117.791 I-3.964 J.952 E.13834
M73 P5 R24
G1 X132.175 Y107.174 E.48271
G2 X131.679 Y106.868 I-22.752 J36.406 E.02648
G1 X131.679 Y117.938 E.50327
G2 X131.183 Y118.103 I6.045 J18.971 E.02377
G1 X131.183 Y106.463 E.52921
G3 X130.687 Y105.611 I2.332 J-1.927 E.04504
G1 X130.687 Y118.339 E.57868
G2 X130.191 Y118.631 I2.237 J4.364 E.02619
G1 X130.191 Y104.639 E.63613
G2 X129.695 Y104.431 I-.806 J1.223 E.0246
G1 X129.602 Y119.034 E.66395
G2 X129.199 Y119.433 I3.112 J3.55 E.02579
G1 X129.199 Y104.569 E.67576
G3 X128.703 Y104.835 I-.978 J-1.228 E.02573
G1 X128.703 Y119.684 E.67509
G3 X128.207 Y121.144 I-7.905 J-1.87 E.07023
G1 X128.207 Y104.982 E.73482
G3 X127.711 Y104.998 I-.455 J-6.441 E.02257
G1 X127.711 Y121.747 E.7615
G3 X127.215 Y122.148 I-1.089 J-.839 E.02926
G1 X127.215 Y104.912 E.78362
G3 X126.719 Y104.738 I2.573 J-8.108 E.02391
G1 X126.719 Y122.654 E.81453
G3 X126.223 Y123.025 I-1.286 J-1.202 E.02831
G1 X126.223 Y104.543 E.84026
G1 X125.727 Y104.41 E.02335
G1 X125.727 Y123.279 E.85788
G3 X125.231 Y123.463 I-.865 J-1.566 E.02415
G1 X125.231 Y104.348 E.86907
G3 X124.735 Y104.271 I9.069 J-60.324 E.02282
G1 X124.735 Y124.348 E.91276
G1 X124.239 Y124.774 E.02972
G1 X124.239 Y104.168 E.93683
G2 X123.744 Y104.008 I-6.727 J20.044 E.02369
G1 X123.744 Y125.062 E.95721
G3 X123.248 Y125.25 I-.951 J-1.767 E.02418
G1 X123.177 Y103.773 E.97646
G3 X122.752 Y103.572 I5.824 J-12.891 E.02138
G1 X122.752 Y126.105 E1.02449
G3 X122.256 Y126.632 I-1.339 J-.765 E.03319
G1 X122.256 Y103.32 E1.05985
G3 X121.76 Y103.046 I6.164 J-11.731 E.02577
G1 X121.76 Y103.193 E.0067
G2 X121.264 Y102.898 I-1.667 J2.237 E.02628
G2 X120.768 Y102.347 I-1.138 J.525 E.03422
G1 X120.768 Y102.816 E.02134
G2 X120.272 Y102.893 I-.044 J1.357 E.02295
G1 X120.272 Y94.117 E.39902
G1 X119.776 Y93.789 E.02702
G1 X119.776 Y102.274 E.38576
G1 X119.28 Y102.486 E.02452
G1 X119.28 Y93.532 E.40709
G1 X118.784 Y93.32 E.02452
G1 X118.784 Y102.698 E.42636
G3 X118.288 Y102.815 I-.569 J-1.308 E.02329
G1 X118.288 Y93.204 E.43696
G2 X117.792 Y93.111 I-.503 J1.32 E.02306
G1 X117.792 Y101.71 E.39094
G2 X117.296 Y101.273 I-1.718 J1.449 E.03017
G1 X117.296 Y93.089 E.37208
G2 X116.8 Y93.106 I-.2 J1.375 E.02268
G1 X116.8 Y101.107 E.36375
G2 X116.304 Y101.12 I-.215 J1.227 E.02271
G1 X116.304 Y93.174 E.36131
G2 X115.808 Y93.304 I.112 J1.432 E.02344
G1 X115.808 Y101.303 E.36366
G2 X115.312 Y101.699 I1.175 J1.978 E.02896
G1 X115.312 Y93.465 E.37436
G2 X114.817 Y93.73 I.481 J1.499 E.02569
G1 X114.817 Y102.289 E.38914
G3 X114.321 Y101.97 I.631 J-1.526 E.02695
G1 X114.321 Y94.049 E.36013
G2 X113.825 Y94.446 I.846 J1.565 E.02904
G1 X113.823 Y101.571 E.32395
G2 X113.329 Y100.387 I-2.226 J.235 E.05917
G1 X113.329 Y95.014 E.24431
G2 X112.833 Y95.8 I1.92 J1.76 E.04252
G1 X112.833 Y100.03 E.19228
G1 X112.733 Y99.991 E.00486
G3 X112.337 Y96.511 I6.244 J-2.473 E.16112
G1 E-.08 F1800
;WIPE_START
G1 F3000
G1 X112.337 Y97.711 E-.72
;WIPE_END
G1 Z.65 F30000
G1 X121.76 Y127.201 Z.65
G1 Z.25
G1 E.8 F1800
G1 F3000
G1 X121.76 Y106.624 E.93552
G1 X121.681 Y106.702 E.00505
G3 X121.264 Y109.4 I-5.257 J.57 E.12557
G1 X121.264 Y127.223 E.81028
G1 X120.768 Y127.335 E.02312
G1 X120.768 Y110.296 E.7747
G3 X120.272 Y110.94 I-2.198 J-1.18 E.03712
G1 X120.272 Y127.39 E.74791
G1 X119.776 Y127.378 E.02255
G1 X119.776 Y111.405 E.72621
G3 X119.28 Y111.723 I-1.094 J-1.161 E.02693
G1 X119.28 Y127.258 E.70632
G3 X118.784 Y127.077 I.109 J-1.067 E.02425
G1 X118.784 Y111.979 E.68642
G2 X118.288 Y112.184 I.762 J2.547 E.02444
M73 P6 R24
G1 X118.288 Y126.995 E.6734
M73 P6 R24
G3 X117.792 Y127.064 I-1.013 J-5.458 E.02277
G1 X117.792 Y112.347 E.66913
G3 X117.296 Y112.53 I-.964 J-1.847 E.0241
G1 X117.296 Y127.208 E.66732
G3 X116.8 Y128.113 I-3.457 J-1.306 E.04706
G1 X116.766 Y112.702 E.70065
G2 X116.598 Y113.544 I1.85 J.806 E.03936
G1 X116.304 Y113.771 E.01685
G1 X116.304 Y128.63 E.67559
G3 X115.808 Y128.988 I-1.02 J-.892 E.02804
G1 X115.808 Y114.316 E.66705
G2 X115.312 Y115.531 I2.423 J1.698 E.06016
G1 X115.312 Y129.253 E.62388
G3 X114.817 Y129.418 I-2.253 J-5.932 E.02377
G1 X114.817 Y116.793 E.57402
G3 X114.321 Y117.274 I-.884 J-.415 E.03212
G1 X114.321 Y129.502 E.55592
G2 X113.825 Y129.877 I.724 J1.473 E.02844
G1 X113.825 Y117.67 E.55499
G2 X113.329 Y118.235 I.963 J1.345 E.03451
G1 X113.329 Y130.238 E.54571
G3 X112.833 Y130.475 I-3.425 J-6.53 E.025
G1 X112.833 Y119.409 E.50312
G1 X112.337 Y119.126 E.02597
G1 X112.337 Y130.643 E.52362
G1 X111.841 Y130.76 E.02317
G1 X111.841 Y118.795 E.54399
G2 X111.345 Y118.464 I-1.517 J1.739 E.02718
G1 X111.345 Y130.783 E.56009
G3 X110.849 Y130.775 I-.227 J-1.186 E.02271
G1 X110.849 Y118.219 E.57084
G2 X110.353 Y117.993 I-2.153 J4.072 E.02479
G1 X110.353 Y130.684 E.57696
G1 X109.857 Y130.696 E.02256
G1 X109.857 Y117.793 E.58665
G1 X109.361 Y117.674 E.02319
M73 P6 R23
G1 X109.361 Y131.118 E.61125
M73 P6 R23
G3 X108.865 Y131.401 I-4.493 J-7.295 E.02597
G1 X108.865 Y117.582 E.62831
G1 X108.369 Y117.534 E.02265
G1 X108.369 Y131.608 E.63989
G3 X107.873 Y131.78 I-2.465 J-6.31 E.02387
G1 X107.873 Y117.54 E.64741
G1 X107.377 Y117.59 E.02266
G1 X107.377 Y131.944 E.6526
G3 X106.881 Y132.113 I-.802 J-1.536 E.02392
G1 X106.881 Y117.713 E.65469
G1 X106.386 Y117.869 E.02363
G1 X106.386 Y132.171 E.65022
G3 X105.89 Y132.163 I-.223 J-1.745 E.02263
G1 X105.89 Y118.139 E.63764
G2 X105.394 Y118.465 I.531 J1.346 E.02718
G1 X105.394 Y132.087 E.61933
G1 X104.898 Y131.981 E.02306
G1 X104.898 Y118.899 E.59476
G2 X104.402 Y119.529 I6.259 J5.442 E.03645
G1 X104.402 Y132.228 E.57738
G3 X103.906 Y132.505 I-1.012 J-1.229 E.02597
G1 X103.906 Y120.448 E.54818
G2 X103.52 Y123.416 I9.106 J2.693 E.13668
G1 X103.41 Y123.391 E.00513
G1 X103.41 Y132.717 E.42399
G3 X102.914 Y132.85 I-.616 J-1.301 E.02348
G1 X102.914 Y123.278 E.4352
G2 X102.418 Y123.17 I-.545 J1.311 E.0232
G1 X102.418 Y132.958 E.44503
G1 X101.922 Y132.981 E.02257
G1 X101.922 Y123.148 E.44706
G2 X101.426 Y123.15 I-.242 J1.366 E.02267
G1 X101.426 Y132.978 E.44686
G1 X100.93 Y132.911 E.02275
G1 X100.93 Y123.217 E.44075
G2 X100.434 Y123.332 I.067 J1.423 E.02327
G1 X100.434 Y132.797 E.43033
G1 X99.938 Y132.636 E.02371
G1 X99.938 Y123.493 E.41568
G2 X99.442 Y123.739 I.43 J1.489 E.02531
G1 X99.442 Y132.389 E.39327
G3 X98.946 Y132.092 I.572 J-1.516 E.02643
G1 X98.946 Y124.036 E.36625
G1 X98.45 Y124.432 E.02885
G1 X98.45 Y131.697 E.33029
G3 X97.954 Y131.157 I1.241 J-1.637 E.03352
G1 X97.954 Y124.972 E.28118
G2 X97.459 Y125.714 I1.796 J1.737 E.04081
G1 X97.459 Y130.415 E.21369
G3 X96.963 Y129.042 I4.573 J-2.428 E.06656
G1 X96.963 Y126.341 E.12281
G1 E-.08 F1800
;WIPE_START
G1 F3000
G1 X96.963 Y127.541 E-.72
;WIPE_END
G1 Z.65 F30000
G1 X121.76 Y96.589 Z.65
G1 Z.25
G1 E.8 F1800
G1 F3000
G2 X121.264 Y95.178 I-2.032 J-.078 E.06962
G1 X121.206 Y96.948 E.08052
G2 X120.768 Y97.638 I3.246 J2.544 E.0372
G1 X120.768 Y94.299 E.15182
G1 E-.08 F1800
;WIPE_START
G1 F3000
G1 X120.768 Y95.499 E-.72
;WIPE_END
G1 Z.65 F30000
G1 X124.631 Y127.619 Z.65
G1 Z.25
G1 E.8 F1800
G1 F3000
G3 X123.236 Y127.7 I-.384 J5.451 E1.49745
G3 X124.564 Y127.616 I.936 J4.275 E.06072
G1 X129.199 Y135.001 F30000
G1 F3000
G1 X129.199 Y131.829 E.14423
G2 X128.703 Y130.561 I-3.796 J.755 E.06219
G1 X128.703 Y135.58 E.22818
M73 P7 R23
G3 X128.207 Y136.296 I-2.253 J-1.032 E.03979
M73 P7 R23
G1 X128.207 Y129.846 E.29324
G2 X127.711 Y129.339 I-1.668 J1.135 E.03242
G1 X127.711 Y136.806 E.33949
G3 X127.215 Y137.198 I-1.438 J-1.306 E.02889
G1 X127.215 Y128.943 E.37535
G2 X126.719 Y128.618 I-1.157 J1.227 E.02709
G1 X126.719 Y137.523 E.40483
G1 X126.223 Y137.746 E.02473
G1 X126.223 Y128.396 E.42511
G2 X125.727 Y128.22 I-.741 J1.301 E.02405
G1 X125.727 Y137.921 E.44109
G1 X125.231 Y138.046 E.02325
G1 X125.231 Y128.095 E.45242
G2 X124.735 Y128.032 I-.448 J1.524 E.02283
G1 X124.735 Y138.105 E.45797
G1 X124.239 Y138.14 E.0226
G1 X124.239 Y128.004 E.46083
G2 X123.744 Y128.049 I-.1 J1.635 E.02273
G1 X123.744 Y138.092 E.45659
G3 X123.248 Y138.026 I-.061 J-1.424 E.02287
G1 X123.248 Y128.115 E.45058
G1 X122.752 Y128.26 E.02349
G1 X122.752 Y137.882 E.43745
G3 X122.256 Y137.695 I.275 J-1.484 E.02421
G1 X122.256 Y128.446 E.42052
G1 X121.76 Y128.692 E.02517
G1 X121.76 Y137.45 E.3982
G3 X121.264 Y137.108 I.712 J-1.562 E.02754
G1 X121.264 Y129.033 E.36711
G2 X120.768 Y129.454 I.934 J1.602 E.02973
G1 X120.768 Y136.692 E.32907
G3 X120.272 Y136.137 I3.362 J-3.503 E.03388
G1 X120.272 Y130.003 E.27887
G2 X119.776 Y130.802 I2.488 J2.098 E.04289
G1 X119.776 Y135.339 E.20626
G3 X119.28 Y131.483 I6.073 J-2.741 E.17934
G1 E-.08 F1800
;WIPE_START
G1 F3000
G1 X119.282 Y132.683 E-.72
;WIPE_END
G1 Z.65 F30000
G1 X131.267 Y104.314 Z.65
G1 Z.25
G1 E.8 F1800
;TYPE:Brim
G1 F3000
G1 X130.476 Y103.825 E.04229
G1 X129.571 Y103.472 E.04417
G1 X129.454 Y103.445 E.00543
G1 X129.587 Y103.302 E.00884
G1 X129.89 Y102.887 E.02336
G1 X130.063 Y102.599 E.0153
G1 X130.223 Y102.28 E.01621
G1 X130.358 Y101.922 E.01737
G1 X130.572 Y101.168 E.03568
G1 X130.585 Y100.962 E.00939
G1 X130.53 Y100.787 E.00831
G1 X130.737 Y100.515 E.01553
G1 X131.102 Y99.902 E.03246
G1 X131.309 Y99.428 E.02349
G1 X131.375 Y99.218 E.01003
G1 X131.423 Y98.979 E.01109
G1 X131.432 Y98.723 E.01164
