; HEADER_BLOCK_START
; generated by ElegooSlicer 1.1.7.3 on 2025-02-22 at 16:31:03
; total layer number: 100
; filament_density: 1.25
; filament_diameter: 1.75
; max_z_height: 20.00
; HEADER_BLOCK_END

; THUMBNAIL_BLOCK_START

;
; THUMBNAIL_BLOCK_END

; external perimeters extrusion width = 0.42mm
; perimeters extrusion width = 0.45mm
; infill extrusion width = 0.45mm
; solid infill extrusion width = 0.42mm
; top infill extrusion width = 0.42mm
; support material extrusion width = 0.42mm
; first layer extrusion width = 0.50mm

; EXECUTABLE_BLOCK_START
EXCLUDE_OBJECT_DEFINE NAME=xyzCalibration_cube.stl_id_0_copy_0 CENTER=128.5,128.5 POLYGON=[[118.5,118.5],[138.5,118.5],[138.5,138.5],[118.5,138.5],[118.5,118.5]]
M106 S0
M106 P2 S0
;TYPE:Custom
M400 ; wait for buffer to clear
M220 S100 ;Set the feed speed to 100%
M221 S100 ;Set the flow rate to 100%
M104 S140
M140 S60
G90
G28 ;home
G1 Z10 F900

M204 S5000 ;Call exterior wall print acceleration



M190 S60
M109 S210
G1 X120 Y120 F6000
M83
G92 E0 ;Reset Extruder

;LAYER_COUNT:100
;LAYER:0
G90
G21
M83 ; use relative distances for extrusion
;LAYER_CHANGE
;Z:0.2
;HEIGHT:0.2
;BEFORE_LAYER_CHANGE
;0.2
G92 E0

G1 E-.8 F1800
;LAYER:1

;_SET_FAN_SPEED_CHANGING_LAYER
SET_VELOCITY_LIMIT ACCEL=500
G1 X116.373 Y116.321 F30000
G1 Z.6
G1 Z.2
G1 E.8 F1800
;TYPE:Skirt
;WIDTH:0.5
G1 F3000
G1 X116.833 Y115.836 E.0249
G1 X118.5 Y115.357 E.06459
G1 X138.5 Y115.357 E.74492
G1 X140.023 Y115.751 E.05859
G1 X141.164 Y116.833 E.05859
G1 X141.643 Y118.5 E.06459
G1 X141.643 Y138.5 E.74492
G1 X141.249 Y140.023 E.05859
G1 X140.167 Y141.164 E.05859
G1 X138.5 Y141.643 E.06459
G1 X118.5 Y141.643 E.74492
G1 X116.977 Y141.249 E.05859
G1 X115.836 Y140.167 E.05859
G1 X115.357 Y138.5 E.06459
G1 X115.357 Y118.5 E.74492
G1 X115.751 Y116.977 E.05859
G1 X116.346 Y116.35 E.0322
G1 X116.657 Y116.684 F30000
G1 F3000
G1 X117.27 Y116.113 E.03121
G1 X118.5 Y115.814 E.04715
G1 X138.5 Y115.814 E.74492
G1 X139.898 Y116.207 E.05408
G1 X140.887 Y117.27 E.05408
G1 X141.186 Y118.5 E.04715
G1 X141.186 Y138.5 E.74492
G1 X140.793 Y139.898 E.05408
M73 P1 R10
G1 X139.73 Y140.887 E.05408
G1 X138.5 Y141.186 E.04715
G1 X118.5 Y141.186 E.74492
G1 X117.102 Y140.793 E.05408
G1 X116.113 Y139.73 E.05408
G1 X115.814 Y138.5 E.04715
G1 X115.814 Y118.5 E.74492
G1 X116.207 Y117.102 E.05408
G1 X116.627 Y116.711 E.02139
G1 X116.898 Y117.053 F30000
G1 F3000
G1 X117.698 Y116.421 E.038
G1 X118.5 Y116.271 E.03037
G1 X138.5 Y116.271 E.74492
G1 X139.761 Y116.662 E.04917
G1 X140.579 Y117.698 E.04917
G1 X140.729 Y118.5 E.03037
G1 X140.729 Y138.5 E.74492
G1 X140.338 Y139.761 E.04917
G1 X139.302 Y140.579 E.04917
G1 X138.5 Y140.729 E.03037
G1 X118.5 Y140.729 E.74492
G1 X117.239 Y140.338 E.04917
G1 X116.421 Y139.302 E.04917
G1 X116.271 Y138.5 E.03037
G1 X116.271 Y118.5 E.74492
G1 X116.662 Y117.239 E.04917
G1 X116.866 Y117.078 E.00968
G1 E-.728 F1800
;WIPE_START
G1 F30000
G1 X117.698 Y116.421 E-.06362
G1 X117.836 Y116.395 E-.00838
;WIPE_END
EXCLUDE_OBJECT_START NAME=xyzCalibration_cube.stl_id_0_copy_0
G1 X123.036 Y121.982 Z.6
G1 X137.236 Y137.236 Z.6
G1 Z.2
G1 E.8 F1800
;TYPE:Inner wall
G1 F3000
G1 X119.764 Y137.236 E.63123
G1 X119.764 Y119.764 E.63123
G1 X137.236 Y119.764 E.63123
G1 X137.236 Y137.196 E.62979
G1 X137.693 Y137.693 F30000
M73 P2 R10
G1 F3000
G1 X119.307 Y137.693 E.66426
G1 X119.307 Y119.307 E.66426
G1 X137.693 Y119.307 E.66426
G1 X137.693 Y137.653 E.66281
G1 X138.15 Y138.15 F30000
;TYPE:Outer wall
G1 F3000
G1 X118.85 Y138.15 E.69729
G1 X118.85 Y118.85 E.69729
G1 X138.15 Y118.85 E.69729
G1 X138.15 Y138.11 E.69584
M73 P2 R9
G1 E-.728 F1800
;WIPE_START
G1 F30000
G1 X136.95 Y138.112 E-.072
;WIPE_END
G1 X136.975 Y130.48 Z.6
G1 X137.007 Y120.931 Z.6
G1 Z.2
G1 E.8 F1800
;TYPE:Bottom surface
;WIDTH:0.506899
G1 F6300
G1 X136.274 Y120.198 E.03801
G1 X135.618 Y120.198 E.02406
G1 X136.802 Y121.382 E.06138
G1 X136.802 Y122.038 E.02406
G1 X134.962 Y120.198 E.09541
G1 X134.306 Y120.198 E.02406
G1 X136.802 Y122.694 E.12944
G1 X136.802 Y123.35 E.02406
G1 X133.65 Y120.198 E.16347
G1 X132.994 Y120.198 E.02406
G1 X136.802 Y124.006 E.19751
G1 X136.802 Y124.663 E.02406
G1 X132.337 Y120.198 E.23154
G1 X131.681 Y120.198 E.02406
G1 X136.802 Y125.319 E.26557
G1 X136.802 Y125.975 E.02406
G1 X131.025 Y120.198 E.2996
G1 X130.369 Y120.198 E.02406
M73 P3 R9
G1 X136.802 Y126.631 E.33363
G1 X136.802 Y127.287 E.02406
G1 X129.713 Y120.198 E.36767
G1 X129.057 Y120.198 E.02406
G1 X136.802 Y127.943 E.4017
G1 X136.802 Y128.6 E.02406
G1 X128.4 Y120.198 E.43573
G1 X127.744 Y120.198 E.02406
G1 X136.802 Y129.256 E.46976
G1 X136.802 Y129.912 E.02406
G1 X127.088 Y120.198 E.50379
G1 X126.432 Y120.198 E.02406
G1 X136.802 Y130.568 E.53783
G1 X136.802 Y131.224 E.02406
G1 X125.776 Y120.198 E.57186
G1 X125.12 Y120.198 E.02406
G1 X136.802 Y131.88 E.60589
G1 X136.802 Y132.537 E.02406
G1 X124.463 Y120.198 E.63992
G1 X123.807 Y120.198 E.02406
G1 X136.802 Y133.193 E.67395
G1 X136.802 Y133.849 E.02406
G1 X123.151 Y120.198 E.70799
G1 X122.495 Y120.198 E.02406
G1 X136.802 Y134.505 E.74202
G1 X136.802 Y135.161 E.02406
G1 X121.839 Y120.198 E.77605
G1 X121.183 Y120.198 E.02406
G1 X136.802 Y135.817 E.81008
G1 X136.802 Y136.474 E.02406
G1 X120.526 Y120.198 E.84412
G1 X120.198 Y120.198 E.01203
G1 X120.198 Y120.527 E.01203
G1 X136.473 Y136.802 E.84411
G1 X135.817 Y136.802 E.02406
M73 P4 R9
G1 X120.198 Y121.183 E.81008
G1 X120.198 Y121.839 E.02406
G1 X135.161 Y136.802 E.77605
G1 X134.505 Y136.802 E.02406
G1 X120.198 Y122.495 E.74201
G1 X120.198 Y123.151 E.02406
G1 X133.849 Y136.802 E.70798
G1 X133.193 Y136.802 E.02406
G1 X120.198 Y123.807 E.67395
G1 X120.198 Y124.464 E.02406
G1 X132.536 Y136.802 E.63992
G1 X131.88 Y136.802 E.02406
G1 X120.198 Y125.12 E.60589
G1 X120.198 Y125.776 E.02406
G1 X131.224 Y136.802 E.57185
G1 X130.568 Y136.802 E.02406
G1 X120.198 Y126.432 E.53782
G1 X120.198 Y127.088 E.02406
G1 X129.912 Y136.802 E.50379
G1 X129.256 Y136.802 E.02406
G1 X120.198 Y127.744 E.46976
G1 X120.198 Y128.4 E.02406
G1 X128.6 Y136.802 E.43572
G1 X127.943 Y136.802 E.02406
G1 X120.198 Y129.057 E.40169
G1 X120.198 Y129.713 E.02406
G1 X127.287 Y136.802 E.36766
G1 X126.631 Y136.802 E.02406
G1 X120.198 Y130.369 E.33363
G1 X120.198 Y131.025 E.02406
G1 X125.975 Y136.802 E.2996
G1 X125.319 Y136.802 E.02406
G1 X120.198 Y131.681 E.26556
G1 X120.198 Y132.337 E.02406
M73 P5 R9
G1 X124.663 Y136.802 E.23153
G1 X124.006 Y136.802 E.02406
G1 X120.198 Y132.994 E.1975
G1 X120.198 Y133.65 E.02406
G1 X123.35 Y136.802 E.16347
G1 X122.694 Y136.802 E.02406
G1 X120.198 Y134.306 E.12944
G1 X120.198 Y134.962 E.02406
G1 X122.038 Y136.802 E.0954
G1 X121.382 Y136.802 E.02406
G1 X120.198 Y135.618 E.06137
G1 X120.198 Y136.274 E.02406
G1 X120.931 Y137.007 E.03801
M106 S250
;LAYER_CHANGE
;Z:0.4
;HEIGHT:0.2
;BEFORE_LAYER_CHANGE
;0.4
G92 E0

G1 E-.728 F1800
;WIPE_START
G1 F30000
G1 X120.198 Y136.274 E-.06218
G1 X120.198 Y136.111 E-.00982
;WIPE_END
EXCLUDE_OBJECT_END NAME=xyzCalibration_cube.stl_id_0_copy_0
;LAYER:2

;_SET_FAN_SPEED_CHANGING_LAYER
SET_VELOCITY_LIMIT ACCEL=10000
; No need to reheat.
;G17
G3 Z.8 I0 J-1.217
G1 X116.271 Y136.111 Z.8
G1 Z.4
G1 E.8 F1800
;TYPE:Skirt
;WIDTH:0.5
G1 F3000
G1 X116.271 Y138.5 E.08632
G1 X116.421 Y139.302 E.02946
G1 X117.239 Y140.338 E.0477
G1 X118.5 Y140.729 E.0477
G1 X138.5 Y140.729 E.72258
G1 X139.302 Y140.579 E.02946
G1 X140.338 Y139.761 E.0477
G1 X140.729 Y138.5 E.0477
G1 X140.729 Y118.5 E.72258
G1 X140.579 Y117.698 E.02946
G1 X139.761 Y116.662 E.0477
G1 X138.5 Y116.271 E.0477
G1 X118.5 Y116.271 E.72258
G1 X117.698 Y116.421 E.02946
G1 X116.662 Y117.239 E.0477
G1 X116.271 Y118.5 E.0477
G1 X116.271 Y136.071 E.63481
G1 E-.728 F1800
;WIPE_START
G1 F30000
G1 X116.271 Y137.271 E-.072
;WIPE_END
EXCLUDE_OBJECT_START NAME=xyzCalibration_cube.stl_id_0_copy_0
G1 X123.904 Y137.35 Z.8
G1 X137.491 Y137.491 Z.8
G1 Z.4
G1 E.8 F1800
;TYPE:Inner wall
;WIDTH:0.45
G1 F12000
G1 X119.509 Y137.491 E.57859
G1 X119.509 Y119.509 E.57859
G1 X137.491 Y119.509 E.57859
G1 X137.491 Y137.451 E.5773
G1 E-.728 F1800
;WIPE_START
G1 F30000
G1 X136.291 Y137.454 E-.072
;WIPE_END
G1 X138.29 Y138.29 Z.8
G1 Z.4
G1 E.8 F1800
SET_VELOCITY_LIMIT ACCEL=5000
;TYPE:Outer wall
;WIDTH:0.42
G1 F9600
G1 X118.71 Y138.29 E.58359
G1 X118.71 Y118.71 E.58359
G1 X138.29 Y118.71 E.58359
G1 X138.29 Y138.25 E.5824
G1 X137.898 Y137.898 F30000
SET_VELOCITY_LIMIT ACCEL=10000
;TYPE:Inner wall
;WIDTH:0.45
G1 F12000
G1 X119.102 Y137.898 E.60479
G1 X119.102 Y119.102 E.60479
G1 X137.898 Y119.102 E.60479
G1 X137.898 Y137.858 E.6035
G1 X137.327 Y136.553 F30000
;TYPE:Internal solid infill
;WIDTH:0.425618
G1 F15000
G1 X136.723 Y137.158 E.02586
G1 X136.182 Y137.158 E.01637
G1 X137.158 Y136.182 E.04175
G1 X137.158 Y135.64 E.01637
G1 X135.64 Y137.158 E.06491
G1 X135.099 Y137.158 E.01637
G1 X137.158 Y135.099 E.08806
G1 X137.158 Y134.558 E.01637
G1 X134.558 Y137.158 E.11121
G1 X134.017 Y137.158 E.01637
G1 X137.158 Y134.017 E.13437
G1 X137.158 Y133.475 E.01637
G1 X133.475 Y137.158 E.15752
G1 X132.934 Y137.158 E.01637
G1 X137.158 Y132.934 E.18067
G1 X137.158 Y132.393 E.01637
G1 X132.393 Y137.158 E.20382
G1 X131.852 Y137.158 E.01637
G1 X137.158 Y131.852 E.22698
G1 X137.158 Y131.311 E.01637
G1 X131.311 Y137.158 E.25013
G1 X130.769 Y137.158 E.01637
G1 X137.158 Y130.769 E.27328
G1 X137.158 Y130.228 E.01637
G1 X130.228 Y137.158 E.29644
G1 X129.687 Y137.158 E.01637
G1 X137.158 Y129.687 E.31959
G1 X137.158 Y129.146 E.01637
M73 P6 R9
G1 X129.146 Y137.158 E.34274
G1 X128.605 Y137.158 E.01637
G1 X137.158 Y128.605 E.36589
G1 X137.158 Y128.063 E.01637
G1 X128.063 Y137.158 E.38905
G1 X127.522 Y137.158 E.01637
G1 X137.158 Y127.522 E.4122
G1 X137.158 Y126.981 E.01637
G1 X126.981 Y137.158 E.43535
G1 X126.44 Y137.158 E.01637
G1 X137.158 Y126.44 E.45851
G1 X137.158 Y125.898 E.01637
G1 X125.898 Y137.158 E.48166
G1 X125.357 Y137.158 E.01637
G1 X137.158 Y125.357 E.50481
G1 X137.158 Y124.816 E.01637
G1 X124.816 Y137.158 E.52796
G1 X124.275 Y137.158 E.01637
G1 X137.158 Y124.275 E.55112
G1 X137.158 Y123.734 E.01637
G1 X123.734 Y137.158 E.57427
G1 X123.192 Y137.158 E.01637
G1 X137.158 Y123.192 E.59742
G1 X137.158 Y122.651 E.01637
G1 X122.651 Y137.158 E.62058
G1 X122.11 Y137.158 E.01637
G1 X137.158 Y122.11 E.64373
G1 X137.158 Y121.569 E.01637
G1 X121.569 Y137.158 E.66688
G1 X121.027 Y137.158 E.01637
G1 X137.158 Y121.027 E.69003
G1 X137.158 Y120.486 E.01637
G1 X120.486 Y137.158 E.71319
G1 X119.945 Y137.158 E.01637
G1 X137.158 Y119.945 E.73634
G1 X137.158 Y119.842 E.0031
G1 X136.719 Y119.842 E.01327
G1 X119.842 Y136.719 E.72197
G1 X119.842 Y136.178 E.01637
G1 X136.178 Y119.842 E.69881
G1 X135.637 Y119.842 E.01637
G1 X119.842 Y135.637 E.67566
G1 X119.842 Y135.095 E.01637
G1 X135.095 Y119.842 E.65251
G1 X134.554 Y119.842 E.01637
G1 X119.842 Y134.554 E.62936
G1 X119.842 Y134.013 E.01637
G1 X134.013 Y119.842 E.6062
G1 X133.472 Y119.842 E.01637
G1 X119.842 Y133.472 E.58305
G1 X119.842 Y132.93 E.01637
G1 X132.93 Y119.842 E.5599
G1 X132.389 Y119.842 E.01637
G1 X119.842 Y132.389 E.53674
G1 X119.842 Y131.848 E.01637
G1 X131.848 Y119.842 E.51359
G1 X131.307 Y119.842 E.01637
G1 X119.842 Y131.307 E.49044
G1 X119.842 Y130.766 E.01637
G1 X130.766 Y119.842 E.46729
G1 X130.224 Y119.842 E.01637
G1 X119.842 Y130.224 E.44413
G1 X119.842 Y129.683 E.01637
G1 X129.683 Y119.842 E.42098
G1 X129.142 Y119.842 E.01637
G1 X119.842 Y129.142 E.39783
G1 X119.842 Y128.601 E.01637
G1 X128.601 Y119.842 E.37467
G1 X128.06 Y119.842 E.01637
G1 X119.842 Y128.06 E.35152
G1 X119.842 Y127.518 E.01637
G1 X127.518 Y119.842 E.32837
G1 X126.977 Y119.842 E.01637
G1 X119.842 Y126.977 E.30522
G1 X119.842 Y126.436 E.01637
G1 X126.436 Y119.842 E.28206
G1 X125.895 Y119.842 E.01637
G1 X119.842 Y125.895 E.25891
G1 X119.842 Y125.353 E.01637
G1 X125.353 Y119.842 E.23576
G1 X124.812 Y119.842 E.01637
G1 X119.842 Y124.812 E.2126
G1 X119.842 Y124.271 E.01637
G1 X124.271 Y119.842 E.18945
G1 X123.73 Y119.842 E.01637
G1 X119.842 Y123.73 E.1663
G1 X119.842 Y123.189 E.01637
G1 X123.189 Y119.842 E.14315
G1 X122.647 Y119.842 E.01637
G1 X119.842 Y122.647 E.11999
G1 X119.842 Y122.106 E.01637
G1 X122.106 Y119.842 E.09684
G1 X121.565 Y119.842 E.01637
G1 X119.842 Y121.565 E.07369
G1 X119.842 Y121.024 E.01637
G1 X121.024 Y119.842 E.05053
G1 X120.482 Y119.842 E.01637
G1 X119.673 Y120.652 E.03464
G1 X119.938 Y119.869 F30000
;WIDTH:0.442592
G1 F15000
G1 X119.863 Y119.913 E.00273
G1 X119.942 Y119.947 E.00275
;LAYER_CHANGE
;Z:0.6
;HEIGHT:0.2
;BEFORE_LAYER_CHANGE
;0.6
G92 E0

G1 E-.78958 F1800
;WIPE_START
G1 F30000
G1 X119.863 Y119.913 E-.00523
G1 X119.938 Y119.869 E-.00519
;WIPE_END
EXCLUDE_OBJECT_END NAME=xyzCalibration_cube.stl_id_0_copy_0
;LAYER:3

;_SET_FAN_SPEED_CHANGING_LAYER
;G17
G3 Z1 I1.217 J0
G1 X119.938 Y116.271 Z1
G1 Z.6
G1 E.8 F1800
;TYPE:Skirt
;WIDTH:0.5
G1 F3000
G1 X138.5 Y116.271 E.67064
G1 X139.761 Y116.662 E.0477
G1 X140.579 Y117.698 E.0477
G1 X140.729 Y118.5 E.02946
G1 X140.729 Y138.5 E.72258
G1 X140.338 Y139.761 E.0477
G1 X139.302 Y140.579 E.0477
G1 X138.5 Y140.729 E.02946
G1 X118.5 Y140.729 E.72258
G1 X117.239 Y140.338 E.0477
M73 P7 R9
G1 X116.421 Y139.302 E.0477
G1 X116.271 Y138.5 E.02946
G1 X116.271 Y118.5 E.72258
G1 X116.662 Y117.239 E.0477
G1 X117.698 Y116.421 E.0477
G1 X118.5 Y116.271 E.02946
G1 X119.898 Y116.271 E.05049
G1 E-.728 F1800
;WIPE_START
G1 F30000
G1 X121.098 Y116.271 E-.072
;WIPE_END
EXCLUDE_OBJECT_START NAME=xyzCalibration_cube.stl_id_0_copy_0
G1 X125.764 Y122.311 Z1
G1 X137.491 Y137.491 Z1
G1 Z.6
G1 E.8 F1800
;TYPE:Inner wall
;WIDTH:0.45
G1 F12000
G1 X119.509 Y137.491 E.57859
G1 X119.509 Y119.509 E.57859
G1 X137.491 Y119.509 E.57859
G1 X137.491 Y137.451 E.5773
G1 E-.728 F1800
;WIPE_START
G1 F30000
G1 X136.291 Y137.454 E-.072
;WIPE_END
G1 X138.29 Y138.29 Z1
G1 Z.6
G1 E.8 F1800
SET_VELOCITY_LIMIT ACCEL=5000
;TYPE:Outer wall
;WIDTH:0.42
G1 F9600
G1 X118.71 Y138.29 E.58359
G1 X118.71 Y118.71 E.58359
G1 X138.29 Y118.71 E.58359
G1 X138.29 Y138.25 E.5824
G1 X137.898 Y137.898 F30000
SET_VELOCITY_LIMIT ACCEL=10000
;TYPE:Inner wall
;WIDTH:0.45
G1 F12000
G1 X119.102 Y137.898 E.60479
G1 X119.102 Y119.102 E.60479
G1 X137.898 Y119.102 E.60479
G1 X137.898 Y137.858 E.6035
G1 X137.327 Y120.447 F30000
;TYPE:Internal solid infill
;WIDTH:0.425618
G1 F15000
G1 X136.723 Y119.842 E.02586
G1 X136.182 Y119.842 E.01637
G1 X137.158 Y120.818 E.04175
G1 X137.158 Y121.36 E.01637
G1 X135.64 Y119.842 E.06491
G1 X135.099 Y119.842 E.01637
G1 X137.158 Y121.901 E.08806
G1 X137.158 Y122.442 E.01637
G1 X134.558 Y119.842 E.11121
G1 X134.017 Y119.842 E.01637
G1 X137.158 Y122.983 E.13437
G1 X137.158 Y123.525 E.01637
G1 X133.475 Y119.842 E.15752
G1 X132.934 Y119.842 E.01637
G1 X137.158 Y124.066 E.18067
G1 X137.158 Y124.607 E.01637
G1 X132.393 Y119.842 E.20382
G1 X131.852 Y119.842 E.01637
G1 X137.158 Y125.148 E.22698
G1 X137.158 Y125.689 E.01637
G1 X131.311 Y119.842 E.25013
G1 X130.769 Y119.842 E.01637
G1 X137.158 Y126.231 E.27328
G1 X137.158 Y126.772 E.01637
G1 X130.228 Y119.842 E.29644
G1 X129.687 Y119.842 E.01637
G1 X137.158 Y127.313 E.31959
G1 X137.158 Y127.854 E.01637
G1 X129.146 Y119.842 E.34274
G1 X128.605 Y119.842 E.01637
G1 X137.158 Y128.395 E.36589
G1 X137.158 Y128.937 E.01637
G1 X128.063 Y119.842 E.38905
G1 X127.522 Y119.842 E.01637
G1 X137.158 Y129.478 E.4122
G1 X137.158 Y130.019 E.01637
G1 X126.981 Y119.842 E.43535
G1 X126.44 Y119.842 E.01637
G1 X137.158 Y130.56 E.45851
G1 X137.158 Y131.102 E.01637
G1 X125.898 Y119.842 E.48166
G1 X125.357 Y119.842 E.01637
G1 X137.158 Y131.643 E.50481
G1 X137.158 Y132.184 E.01637
G1 X124.816 Y119.842 E.52796
G1 X124.275 Y119.842 E.01637
G1 X137.158 Y132.725 E.55112
G1 X137.158 Y133.266 E.01637
G1 X123.734 Y119.842 E.57427
G1 X123.192 Y119.842 E.01637
G1 X137.158 Y133.808 E.59742
G1 X137.158 Y134.349 E.01637
G1 X122.651 Y119.842 E.62057
G1 X122.11 Y119.842 E.01637
G1 X137.158 Y134.89 E.64373
G1 X137.158 Y135.431 E.01637
G1 X121.569 Y119.842 E.66688
G1 X121.027 Y119.842 E.01637
G1 X137.158 Y135.973 E.69003
G1 X137.158 Y136.514 E.01637
G1 X120.486 Y119.842 E.71319
G1 X119.945 Y119.842 E.01637
G1 X137.158 Y137.055 E.73634
G1 X137.158 Y137.158 E.0031
G1 X136.719 Y137.158 E.01327
G1 X119.842 Y120.281 E.72197
