; HEADER_BLOCK_START
; generated by ElegooSlicer 1.1.8.2 on 2025-03-13 at 15:16:25
; total layer number: 255
; filament_density: 1.25
; filament_diameter: 1.75
; max_z_height: 63.75
; HEADER_BLOCK_END



; THUMBNAIL_BLOCK_START

;
; THUMBNAIL_BLOCK_END

; external perimeters extrusion width = 0.45mm
; perimeters extrusion width = 0.50mm
; infill extrusion width = 0.45mm
; solid infill extrusion width = 0.42mm
; top infill extrusion width = 0.42mm
; first layer extrusion width = 0.50mm

; EXECUTABLE_BLOCK_START
M73 P0 R18
M201 X20000 Y20000 Z500 E5000
M203 X500 Y500 Z20 E30
M204 P20000 R5000 T20000
M205 X20.00 Y20.00 Z3.00 E2.50 ; sets the jerk limits, mm/sec
M106 S0
M106 P2 S0
;TYPE:Custom
M400 ; wait for buffer to clear
M220 S100 ;Set the feed speed to 100%
M221 S100 ;Set the flow rate to 100%
M104 S140
M190 S60
G90
G28 ;home
M204 S10000

;加热，同时移动到废料桶位置，挤出110mm
M104 S250
G1 Z10 F600
G1 X202 Y250 F20000
G1 Y264.5 F3000
M109 S250
M83
G92 E0
G1 E10 F150 
M400
G1 E10 F300
M400
G4 P2000
G1 E10 F150
M400
G1 E10 F300
M73 P1 R18
M400
G4 P2000
M73 P1 R18
G1 E10 F150
M400
G1 E10 F300
M400
G4 P2000
G1 E10 F150
M400
G1 E10 F300
M73 P2 R18
M400
G4 P2000
M73 P2 R18
G1 E10 F150
M104 S180
M400
G1 E10 F300
M400
G4 P2000
G1 E10 F150
M400

;开启风扇，降温
M106 S250
M109 S180
M104 S140
;刮掉废料
G1 X188 F20000
M73 P3 R18
M73 P3 R18
G1 Y256
G1 X202
G1 Y264.5 F1000
G1 X188 F20000
G1 Y256
G1 X202
G1 Y264.5 F1000
G1 X188 F20000
G1 Y256
G1 X202
G1 Y264.5 F1000

;擦嘴
M204 S10000
G1 X176 F6000
G1 Y263
G3 I2 J0 F3000
G3 I2 J0 F3000
G3 I2 J0 F3000
G3 I2 J0 F3000
G3 I2 J0 F3000
G1 X176 F15000
G1 X185
G1 X170
G1 X185
G1 X170
G1 X180
G1 X176
G3 I2 J0 F3000
G3 I2 J0 F3000
G3 I2 J0 F3000
G3 I2 J0 F3000
G3 I2 J0 F3000


;移动到床后中位置，研磨喷嘴
M400
G1 X128 Y259 Z0 F3000

G2 X129 Y259 I1 J1 F2000
G2 X129 Y259 I1 J1 F2000
G2 X129 Y259 I1 J1 F2000
G2 X129 Y259 Z1 I1 J1 F2000

G1 X128 Y259 Z1 F30000
G1 Z0 F300
G1 X130 F120
G1 X126 
G1 X130
M73 P4 R18
M73 P4 R18
G1 X126 
M73 P4 R17
M73 P4 R17
G1 X130
G1 X126 
G1 X130
M109 S140
M106 S150

G2 X129 Y259 I1 J1 F2000
M73 P5 R17
M73 P5 R17
G2 X129 Y259 I1 J1 F2000
G2 X129 Y259 I1 J1 F2000
G2 X129 Y259 Z1 I1 J1 F2000
G1 Z10 F600
M106 S0


;打印前归零
G28 Z


预设加速度，划线准备打印
M204 S8000 ;Call exterior wall print acceleration
G1 X128.5 Y-1.2 F20000
G1 Z0.3 F900
M109 S220
M83
G92 E0 ;Reset Extruder
G1 F6000 
G1 X-1.2 E10.156 ;Draw the first line
G1 Y98.8 E7.934
G1 X-0.5 Y100 E0.1
G1 Y-0.3 E7.934
G1 X78.5 E6.284
G1 F2400 
G1 X98.5 E2
G1 F12000 
G1 X118.5 E2
G1 F2400 
G1 X138.5 E2
G1 F12000 
G1 X158.5 E2
G1 F12000 
G1 X178.5 E2
;End PA test.


G3 I-1 J0 Z0.6 F1200.0 ;Move to side a little
G1 F20000
G92 E0 ;Reset Extruder
;LAYER_COUNT:255
;LAYER:0


G90
G21
M83 ; use relative distances for extrusion
;LAYER_CHANGE
;Z:0.25
;HEIGHT:0.25
;BEFORE_LAYER_CHANGE
;0.25
G92 E0

G1 E-.8 F1800
M73 L1
;LAYER:1
;M204 S2000
;






;_SET_FAN_SPEED_CHANGING_LAYER
M204 S1000
M205 X12 Y12
G1 Z.65 F30000
G1 X122.103 Y118.293
G1 Z.65
G1 Z.25
G1 E.8 F1800
;TYPE:Outer wall
;WIDTH:0.5
G1 F3000
G1 X122.233 Y118.444 E.0088
G2 X122.45 Y118.583 I.579 J-.661 E.0114
G2 X123.956 Y118.584 I.753 J-1.82 E.06816
G1 X124.753 Y118.238 E.03832
G3 X125.478 Y118.069 I1.407 J4.383 E.03284
G3 X131.823 Y118.126 I2.979 J21.668 E.28085
G3 X132.815 Y118.495 I-1.185 J4.693 E.04677
G2 X134.196 Y118.733 I1.079 J-2.139 E.06269
G2 X134.693 Y118.547 I-.531 J-2.181 E.0235
G2 X135.02 Y117.366 I-.505 J-.776 E.05911
G3 X134.2 Y113.773 I11.015 J-4.406 E.1632
G3 X134.971 Y109.797 I9.76 J-.169 E.17988
G3 X137.776 Y107.451 I3.975 J1.902 E.1663
G3 X140.686 Y107.051 I2.645 J8.45 E.13018
M73 P6 R17
G3 X144.024 Y108.161 I-.445 J6.909 E.15682
M73 P6 R17
G3 X145.057 Y109.54 I-1.51 J2.209 E.07739
G3 X145.651 Y111.458 I-5.567 J2.774 E.08893
G1 X145.687 Y112.448 E.04369
G3 X145.154 Y114.955 I-5.929 J.051 E.11395
G2 X144.602 Y116.194 I9.372 J4.923 E.05987
G1 X143.822 Y118.428 E.10433
G3 X143.211 Y120.447 I-175.009 J-51.858 E.09303
G2 X142.589 Y122.588 I14.535 J5.386 E.09843
G2 X142.434 Y124.636 I19.07 J2.468 E.09059
G3 X141.061 Y131.225 I-22.806 J-1.316 E.29793
G3 X140.003 Y133.32 I-10.202 J-3.833 E.10371
G3 X138.356 Y135.31 I-14.031 J-9.939 E.11403
G3 X137.058 Y136.722 I-14.736 J-12.248 E.08464
G3 X136.042 Y137.642 I-7.277 J-7.011 E.06049
G3 X135.35 Y138.244 I-21.58 J-24.131 E.04045
G2 X135.239 Y138.33 I.056 J.186 E.00632
G3 X133.695 Y139.423 I-12.769 J-16.411 E.08345
G3 X132.412 Y140.264 I-5.321 J-6.714 E.06773
G3 X131.923 Y140.403 I-.594 J-1.159 E.0226
G1 X131.367 Y140.568 E.02555
G3 X131.025 Y140.804 I-1.127 J-1.265 E.01837
G1 X130.848 Y141.021 E.01234
G1 X130.839 Y141.094 E.00328
G1 X130.748 Y141.249 E.00791
G3 X130.711 Y141.415 I-.191 J.045 E.00777
G2 X130.487 Y143.883 I27.986 J3.785 E.10931
G1 X130.48 Y144.825 E.04155
G1 X130.384 Y145.398 E.0256
G3 X126.951 Y146.071 I-1.893 J-.561 E.18959
G3 X126.525 Y144.947 I1.722 J-1.295 E.05373
G2 X126.304 Y141.646 I-39.184 J.965 E.14592
G1 X126.175 Y141.109 E.02439
G1 X125.918 Y140.734 E.02005
G1 X125.532 Y140.506 E.01976
G2 X124.735 Y140.34 I-2.986 J12.363 E.03591
G2 X124.547 Y140.261 I-.369 J.615 E.00902
G1 X124.372 Y140.172 E.00865
G3 X123.205 Y139.357 I7.912 J-12.569 E.06281
G3 X122.421 Y138.763 I1.969 J-3.415 E.04348
G3 X122.135 Y138.513 I1.073 J-1.514 E.01681
G3 X121.378 Y137.92 I1.66 J-2.9 E.04255
G2 X120.353 Y136.967 I-5.258 J4.628 E.06181
G2 X119.584 Y136.246 I-20.397 J21.009 E.0465
G3 X118.757 Y135.239 I3.857 J-4.006 E.05759
G3 X117.976 Y134.394 I2.266 J-2.88 E.05096
G3 X116.714 Y132.784 I5.108 J-5.301 E.09053
G1 X116.644 Y132.677 E.00563
G3 X115.42 Y129.605 I12.414 J-6.728 E.14618
G3 X114.63 Y125.592 I19.135 J-5.851 E.18068
G3 X114.5 Y123.737 I21.542 J-2.446 E.08204
G2 X114.082 Y121.423 I-7.782 J.21 E.10407
G1 X113.84 Y120.699 E.03367
G3 X113.273 Y118.837 I21.258 J-7.491 E.08586
G2 X112.065 Y115.462 I-50.731 J16.254 E.15814
G3 X111.288 Y112.428 I5.301 J-2.973 E.13971
G3 X111.41 Y110.99 I8.269 J-.023 E.06368
G3 X111.803 Y109.852 I6.282 J1.53 E.05317
G2 X112.19 Y109.016 I-21.047 J-10.268 E.04067
G3 X113.12 Y108.06 I2.466 J1.47 E.05935
G3 X117.922 Y107.151 I3.617 J5.972 E.22018
G3 X120.028 Y107.761 I-1.334 J8.553 E.09695
G3 X122.325 Y110.425 I-1.896 J3.956 E.15962
G3 X122.848 Y114.028 I-9.399 J3.205 E.16146
G3 X122.175 Y116.991 I-11.985 J-1.165 E.13434
G2 X121.938 Y117.695 I3.566 J1.591 E.03283
G2 X122.077 Y118.264 I.874 J.088 E.0263
G1 X121.586 Y118.281 F30000
;TYPE:Inner wall
G1 F3000
G1 X121.736 Y118.552 E.01364
G2 X122.246 Y118.984 I1.109 J-.793 E.02982
G1 X122.568 Y119.105 E.01516
G2 X123.251 Y119.185 I.678 J-2.828 E.03038
G2 X124.108 Y119.004 I-.165 J-2.91 E.03877
G1 X124.912 Y118.656 E.03866
G3 X125.542 Y118.511 I1.251 J3.992 E.02854
G3 X131.733 Y118.563 I2.917 J21.229 E.27398
G3 X132.635 Y118.904 I-1.137 J4.369 E.04261
G2 X134.077 Y119.197 I1.272 J-2.567 E.06561
G2 X134.939 Y118.925 I-.187 J-2.095 E.0402
G2 X135.546 Y118.038 I-.788 J-1.19 E.0486
G2 X135.442 Y117.219 I-1.463 J-.23 E.03687
G3 X134.646 Y113.759 I10.597 J-4.26 E.15723
G3 X135.371 Y109.996 I9.334 J-.154 E.17022
G3 X137.908 Y107.877 I3.576 J1.705 E.15036
G3 X140.667 Y107.497 I2.513 J8.024 E.12341
G3 X143.762 Y108.523 I-.455 J6.55 E.14532
G3 X144.646 Y109.715 I-1.256 J1.855 E.0667
G3 X145.206 Y111.497 I-5.167 J2.602 E.08276
G1 X145.24 Y112.449 E.04202
G3 X144.75 Y114.767 I-5.489 J.048 E.1053
G2 X144.184 Y116.036 I9.602 J5.039 E.06132
G1 X143.397 Y118.291 E.10531
G3 X142.792 Y120.292 I-186.958 J-55.419 E.09218
G2 X142.148 Y122.515 I14.998 J5.552 E.10218
G2 X141.989 Y124.608 I19.808 J2.56 E.09261
G3 X140.645 Y131.061 I-22.359 J-1.288 E.29176
G3 X139.639 Y133.062 I-9.83 J-3.69 E.09897
G3 X138.025 Y135.01 I-13.434 J-9.486 E.11167
G3 X136.741 Y136.408 I-14.52 J-12.058 E.08372
G3 X135.753 Y137.302 I-7.025 J-6.766 E.05883
G3 X135.11 Y137.864 I-34.839 J-39.219 E.03768
G2 X134.941 Y137.996 I.085 J.284 E.00966
G3 X133.443 Y139.054 I-12.139 J-15.592 E.08088
G3 X132.155 Y139.893 I-5.027 J-6.305 E.06792
G2 X131.15 Y140.167 I1.452 J7.321 E.04597
G3 X130.723 Y140.469 I-1.435 J-1.576 E.02311
G1 X130.422 Y140.837 E.02097
G1 X130.408 Y140.947 E.00491
G1 X130.301 Y141.129 E.00931
G3 X130.258 Y141.501 I-10.762 J-1.054 E.01652
G1 X130.247 Y141.538 E.00167
G2 X130.034 Y144.786 I22.675 J3.115 E.1437
G1 X129.95 Y145.287 E.02238
G3 X126.97 Y144.903 I-1.457 J-.448 E.18824
G2 X126.746 Y141.576 I-39.946 J1.017 E.14711
G1 X126.59 Y140.924 E.02956
G1 X126.23 Y140.4 E.02804
G1 X125.693 Y140.082 E.02754
G2 X124.882 Y139.91 I-4.594 J19.673 E.03656
G2 X124.692 Y139.832 I-.163 J.127 E.00946
G1 X124.53 Y139.746 E.0081
G3 X123.448 Y138.982 I12.646 J-19.079 E.05841
G3 X122.723 Y138.433 I1.703 J-3.003 E.04022
G3 X122.39 Y138.137 I1.273 J-1.764 E.01971
G3 X121.69 Y137.601 I1.153 J-2.231 E.03907
G2 X120.653 Y136.636 I-5.334 J4.695 E.06258
G2 X119.902 Y135.934 I-19.482 J20.066 E.04534
G3 X119.091 Y134.938 I3.813 J-3.938 E.05677
G3 X118.311 Y134.097 I2.14 J-2.767 E.0508
G3 X117.095 Y132.551 I4.788 J-5.015 E.08703
G1 X117.032 Y132.454 E.00509
G3 X115.849 Y129.48 I11.994 J-6.496 E.1415
G3 X115.073 Y125.537 I18.683 J-5.723 E.17754
G3 X114.945 Y123.708 I21.143 J-2.399 E.0809
G2 X114.506 Y121.284 I-8.217 J.237 E.10901
G1 X114.269 Y120.576 E.03296
G3 X113.701 Y118.71 I21.163 J-7.468 E.08606
G2 X112.474 Y115.279 I-50.822 J16.241 E.16069
G3 X111.735 Y112.429 I4.894 J-2.789 E.13138
G3 X111.883 Y110.948 I6.466 J-.101 E.06579
G3 X112.246 Y109.991 I3.979 J.96 E.04526
G3 X112.728 Y109.001 I5.507 J2.069 E.04863
G3 X113.642 Y108.268 I2.244 J1.862 E.05202
G3 X117.841 Y107.59 I3.094 J5.826 E.19097
G3 X119.836 Y108.164 I-1.243 J8.077 E.0918
G3 X121.904 Y110.575 I-1.703 J3.554 E.14421
G3 X122.404 Y113.984 I-9.003 J3.06 E.15275
G3 X121.758 Y116.831 I-11.565 J-1.125 E.12908
G2 X121.484 Y117.836 I2.233 J1.151 E.04631
G2 X121.564 Y118.227 I1.361 J-.077 E.01764
G1 X121.571 Y118.244 E.00081
G1 E-.728 F1800
;WIPE_START
G1 F30000
G1 X121.736 Y118.552 E-.02095
M73 P7 R17
G1 X121.94 Y118.783 E-.01853
G1 X122.246 Y118.984 E-.02198
G1 X122.411 Y119.046 E-.01055
;WIPE_END
G1 Z.65
G1 X143.068 Y108.378 Z.65
G1 Z.25
G1 E.8 F1800
;TYPE:Bottom surface
;WIDTH:0.501619
G1 F6300
G1 X143.885 Y109.195 E.05119
G3 X144.256 Y109.881 I-1.446 J1.224 E.03472
G3 X144.49 Y110.434 I-2.201 J1.26 E.02666
G1 X142.345 Y108.289 E.13427
G2 X141.462 Y108.039 I-1.792 J4.646 E.0407
G1 X144.754 Y111.331 E.20609
G3 X144.8 Y112.011 I-3.211 J.558 E.0302
G1 X140.721 Y107.931 E.25535
G2 X140.074 Y107.918 I-.407 J4.027 E.02867
G1 X144.802 Y112.646 E.29595
G1 X144.761 Y113.239 E.0263
G1 X139.494 Y107.972 E.32966
G2 X138.952 Y108.063 I.335 J3.667 E.02438
G1 X144.65 Y113.761 E.35665
G3 X144.506 Y114.251 I-2.654 J-.51 E.02264
G1 X138.432 Y108.177 E.38021
G2 X137.939 Y108.317 I.584 J2.996 E.02273
G1 X144.31 Y114.689 E.39884
G1 X144.107 Y115.119 E.02106
G1 X137.481 Y108.492 E.41476
G2 X137.069 Y108.715 I.688 J1.766 E.02075
G1 X143.919 Y115.564 E.42873
G2 X143.741 Y116.019 I4.334 J1.955 E.02166
G1 X136.697 Y108.976 E.44091
G2 X136.362 Y109.274 I1.066 J1.535 E.01991
G1 X143.577 Y116.489 E.45163
G1 X143.413 Y116.959 E.02202
G1 X136.079 Y109.625 E.45904
G2 X135.838 Y110.017 I2.538 J1.833 E.0204
G1 X143.249 Y117.428 E.46389
G1 X143.085 Y117.898 E.02202
G1 X135.639 Y110.452 E.46611
G2 X135.476 Y110.923 I3.215 J1.372 E.02207
G1 X142.926 Y118.372 E.46629
G2 X142.777 Y118.857 I6.727 J2.326 E.02245
G1 X135.343 Y111.423 E.46531
G2 X135.232 Y111.946 I4.818 J1.298 E.02365
G1 X142.637 Y119.351 E.46352
G3 X142.49 Y119.837 I-5.049 J-1.262 E.0225
G1 X135.152 Y112.499 E.45934
G2 X135.097 Y113.077 I3.2 J.596 E.02575
G1 X142.331 Y120.311 E.45281
G2 X142.172 Y120.786 I6.428 J2.414 E.02216
G1 X135.073 Y113.687 E.44435
G1 X135.132 Y114.379 E.03074
G1 X142.027 Y121.275 E.43164
G1 X141.883 Y121.764 E.02256
G1 X135.257 Y115.138 E.41471
G1 X135.463 Y115.978 E.03824
G1 X141.765 Y122.279 E.39444
G2 X141.678 Y122.826 I3.621 J.853 E.02453
G1 X135.788 Y116.936 E.36865
G1 X135.945 Y117.37 E.02041
G1 X135.987 Y117.769 E.01775
G1 X141.635 Y123.417 E.35352
G1 X141.599 Y124.014 E.02651
G1 X135.901 Y118.316 E.35671
M73 P7 R17
G1 X135.806 Y118.6 E.01325
G1 X135.697 Y118.746 E.00806
G1 X141.563 Y124.611 E.36715
G1 X141.514 Y125.196 E.02595
G1 X135.403 Y119.085 E.38249
G1 X135.173 Y119.283 E.01343
G1 X135.034 Y119.349 E.00683
G1 X141.448 Y125.764 E.4015
G1 X141.377 Y126.326 E.02508
G1 X134.583 Y119.532 E.42523
G3 X134.039 Y119.622 I-.646 J-2.223 E.02445
G1 X141.305 Y126.888 E.45481
G3 X141.214 Y127.43 I-4.013 J-.398 E.02435
G1 X133.357 Y119.573 E.4918
G3 X132.416 Y119.266 I.585 J-3.383 E.04398
G1 X141.11 Y127.96 E.54419
G3 X140.988 Y128.471 I-4.518 J-.805 E.02329
G1 X131.462 Y118.945 E.59627
G2 X130.743 Y118.86 I-1.028 J5.583 E.03206
G1 X140.858 Y128.975 E.63316
G3 X140.716 Y129.466 I-6.938 J-1.751 E.02263
G1 X130.042 Y118.792 E.66813
G1 X129.378 Y118.762 E.02942
G1 X140.57 Y129.954 E.70057
G1 X140.414 Y130.431 E.02223
G1 X128.717 Y118.734 E.73217
G1 X128.093 Y118.744 E.0276
G1 X140.248 Y130.899 E.76081
G3 X140.064 Y131.349 I-4.455 J-1.559 E.02151
G1 X127.482 Y118.766 E.7876
G1 X126.882 Y118.8 E.02656
G1 X139.864 Y131.782 E.81256
M73 P8 R17
G3 X139.659 Y132.21 I-2.514 J-.94 E.02105
G1 X126.3 Y118.852 E.83616
G1 X125.731 Y118.916 E.02535
G1 X139.427 Y132.612 E.8573
G3 X139.17 Y132.989 I-2.356 J-1.336 E.0202
G1 X125.196 Y119.015 E.87468
G2 X124.74 Y119.192 I.399 J1.696 E.02173
G1 X138.9 Y133.352 E.88633
G3 X138.619 Y133.705 I-5.417 J-4.039 E.01995
G1 X124.298 Y119.384 E.89639
G1 X123.813 Y119.532 E.02246
G1 X138.329 Y134.048 E.90862
G3 X138.032 Y134.385 I-3.231 J-2.553 E.01988
G1 X123.045 Y119.398 E.93808
G1 E-.728 F1800
;WIPE_START
G1 F30000
G1 X123.894 Y120.246 E-.072
;WIPE_END
G1 Z.65
G1 X121.557 Y110.307 Z.65
G1 Z.25
G1 E.8 F1800
G1 F6300
G1 X119.965 Y108.716 E.09962
G2 X118.874 Y108.258 I-2.389 J4.168 E.05249
G1 X121.584 Y110.968 E.16961
G3 X121.792 Y111.809 I-5.856 J1.891 E.03837
G1 X118.052 Y108.07 E.23404
G2 X117.293 Y107.944 I-1.196 J4.856 E.03411
G1 X121.923 Y112.574 E.28981
G3 X121.977 Y113.261 I-4.951 J.736 E.03056
G1 X116.63 Y107.915 E.33468
G2 X116.04 Y107.958 I-.022 J3.787 E.02624
G1 X121.982 Y113.9 E.37197
G1 X121.912 Y114.464 E.02513
G1 X115.498 Y108.049 E.40151
G2 X114.997 Y108.182 I.464 J2.749 E.02295
G1 X121.82 Y115.005 E.42708
G3 X121.711 Y115.53 I-6.295 J-1.031 E.02373
G1 X114.524 Y108.342 E.44992
G2 X114.077 Y108.529 I.828 J2.601 E.02145
G1 X121.579 Y116.031 E.46958
G3 X121.423 Y116.508 I-3.081 J-.746 E.02225
G1 X113.668 Y108.754 E.48538
G2 X113.301 Y109.02 I.669 J1.308 E.02016
G1 X121.249 Y116.968 E.4975
G2 X121.093 Y117.445 I2.55 J1.101 E.02225
G1 X113.004 Y109.357 E.50628
G2 X112.8 Y109.786 I1.355 J.908 E.02112
G1 X121.099 Y118.085 E.51946
G1 X121.154 Y118.374 E.01302
G1 X121.387 Y118.798 E.0214
G1 X121.66 Y119.106 E.01825
G1 X122.053 Y119.364 E.0208
G1 X122.548 Y119.534 E.02317
G1 X137.725 Y134.711 E.94997
G2 X137.431 Y135.051 I3.585 J3.39 E.01989
G1 X112.603 Y110.223 E1.55411
G2 X112.412 Y110.665 I1.55 J.932 E.02139
G1 X137.139 Y135.392 E1.54775
G3 X136.828 Y135.714 I-2.4 J-2.003 E.01985
G1 X112.274 Y111.161 E1.53689
G2 X112.19 Y111.71 I1.704 J.542 E.0247
G1 X136.512 Y136.032 E1.52241
G1 X136.197 Y136.35 E.01983
G1 X112.164 Y112.318 E1.5043
M73 P8 R17
G2 X112.179 Y112.967 I11.024 J.063 E.02873
G1 X135.868 Y136.655 E1.48275
G1 X135.528 Y136.948 E.01988
G1 X112.314 Y113.735 E1.45304
G2 X112.691 Y114.745 I3.899 J-.879 E.04786
G1 X135.187 Y137.242 E1.40818
G3 X134.835 Y137.523 I-1.136 J-1.06 E.02002
G1 X113.153 Y115.841 E1.35719
G1 X113.505 Y116.826 E.04631
G1 X134.485 Y137.807 E1.31326
G1 X134.123 Y138.078 E.02003
G1 X113.847 Y117.802 E1.26916
G3 X114.149 Y118.737 I-10.204 J3.807 E.0435
G1 X133.751 Y138.339 E1.22699
G1 X133.371 Y138.593 E.02022
G1 X114.398 Y119.62 E1.1876
G1 X114.711 Y120.566 E.04413
G1 X132.997 Y138.853 E1.14463
G1 X132.63 Y139.118 E.02008
G1 X115.024 Y121.513 E1.10201
G3 X115.212 Y122.335 I-6.475 J1.917 E.03735
G1 X132.244 Y139.367 E1.06608
G3 X131.785 Y139.541 I-.583 J-.841 E.02194
G1 X115.32 Y123.076 E1.03066
G3 X115.372 Y123.762 I-11.013 J1.191 E.03047
G1 X131.293 Y139.682 E.99652
G1 X130.944 Y139.786 E.01612
G1 X130.846 Y139.869 E.00568
G1 X115.405 Y124.428 E.96649
