; HEADER_BLOCK_START
; generated by ElegooSlicer 1.1.8.2 on 2025-03-13 at 14:12:58
; total layer number: 1
; filament_density: 1.25
; filament_diameter: 1.75
; max_z_height: 0.20
; HEADER_BLOCK_END



; THUMBNAIL_BLOCK_START

;
; THUMBNAIL_BLOCK_END

; external perimeters extrusion width = 0.42mm
; perimeters extrusion width = 0.45mm
; infill extrusion width = 0.45mm
; solid infill extrusion width = 0.42mm
; top infill extrusion width = 0.42mm
; support material extrusion width = 0.42mm
; first layer extrusion width = 0.50mm

; EXECUTABLE_BLOCK_START
M73 P0 R21
M201 X20000 Y20000 Z500 E5000
M203 X500 Y500 Z20 E30
M204 P20000 R5000 T20000
M205 X9.00 Y9.00 Z3.00 E2.50 ; sets the jerk limits, mm/sec
M106 S0
M106 P2 S0
;TYPE:Custom
M400 ; wait for buffer to clear
M220 S100 ;Set the feed speed to 100%
M221 S100 ;Set the flow rate to 100%
M104 S140
M190 S60
G90
G28 ;home
M204 S10000

;加热，同时移动到废料桶位置，挤出110mm
M104 S250
G1 Z10 F600
G1 X202 Y250 F20000
G1 Y264.5 F3000
M109 S250
M83
G92 E0
G1 E10 F150 
M400
G1 E10 F300
M400
G4 P2000
G1 E10 F150
M400
G1 E10 F300
M73 P0 R20
M400
G4 P2000
M73 P0 R20
G1 E10 F150
M73 P1 R20
M400
M73 P1 R20
G1 E10 F300
M400
G4 P2000
G1 E10 F150
M400
G1 E10 F300
M400
G4 P2000
G1 E10 F150
M73 P2 R20
M104 S180
M400
M73 P2 R20
G1 E10 F300
M400
G4 P2000
G1 E10 F150
M400

;开启风扇，降温
M106 S250
M109 S180
M104 S140
;刮掉废料
G1 X188 F20000
G1 Y256
G1 X202
G1 Y264.5 F1000
G1 X188 F20000
G1 Y256
G1 X202
G1 Y264.5 F1000
G1 X188 F20000
G1 Y256
G1 X202
G1 Y264.5 F1000

;擦嘴
M204 S10000
G1 X176 F6000
M73 P3 R20
M73 P3 R20
G1 Y263
G3 I2 J0 F3000
G3 I2 J0 F3000
G3 I2 J0 F3000
G3 I2 J0 F3000
G3 I2 J0 F3000
G1 X176 F15000
G1 X185
G1 X170
G1 X185
G1 X170
G1 X180
G1 X176
G3 I2 J0 F3000
G3 I2 J0 F3000
G3 I2 J0 F3000
G3 I2 J0 F3000
G3 I2 J0 F3000


;移动到床后中位置，研磨喷嘴
M400
G1 X128 Y259 Z0 F3000

G2 X129 Y259 I1 J1 F2000
G2 X129 Y259 I1 J1 F2000
G2 X129 Y259 I1 J1 F2000
G2 X129 Y259 Z1 I1 J1 F2000

G1 X128 Y259 Z1 F30000
G1 Z0 F300
G1 X130 F120
G1 X126 
G1 X130
G1 X126 
G1 X130
M73 P4 R20
M73 P4 R20
G1 X126 
G1 X130
M109 S140
M106 S150

G2 X129 Y259 I1 J1 F2000
G2 X129 Y259 I1 J1 F2000
G2 X129 Y259 I1 J1 F2000
G2 X129 Y259 Z1 I1 J1 F2000
G1 Z10 F600
M106 S0


;打印前归零
G28 Z


预设加速度，划线准备打印
M204 S5000 ;Call exterior wall print acceleration
G1 X128.5 Y-1.2 F20000
G1 Z0.3 F900
M109 S210
M83
G92 E0 ;Reset Extruder
G1 F6000 
G1 X-1.2 E10.156 ;Draw the first line
G1 Y98.8 E7.934
G1 X-0.5 Y100 E0.1
G1 Y-0.3 E7.934
G1 X78.5 E6.284
M73 P5 R20
G1 F1680 
M73 P5 R20
G1 X98.5 E2
G1 F8400 
G1 X118.5 E2
G1 F1680 
G1 X138.5 E2
G1 F8400 
G1 X158.5 E2
G1 F8400 
G1 X178.5 E2
;End PA test.


G3 I-1 J0 Z0.6 F1200.0 ;Move to side a little
G1 F20000
G92 E0 ;Reset Extruder
;LAYER_COUNT:1
;LAYER:0


G90
G21
M83 ; use relative distances for extrusion
;LAYER_CHANGE
;Z:0.2
;HEIGHT:0.2
;BEFORE_LAYER_CHANGE
;0.2
G92 E0

G1 E-.8 F1800
M73 L1
;LAYER:1
;M204 S2000
;






;_SET_FAN_SPEED_CHANGING_LAYER
M204 S1000
G1 Z.6 F30000
G1 X243.15 Y243.15
G1 Z.6
G1 Z.2
G1 E.8 F1800
;TYPE:Outer wall
;WIDTH:0.5
G1 F3000
G1 X13.85 Y243.15 E8.28434
G1 X13.85 Y13.85 E8.28434
M73 P5 R19
G1 X243.15 Y13.85 E8.28434
M73 P6 R19
M73 P5 R19
G1 X243.15 Y243.11 E8.28289
M73 P6 R19
G1 E-.728 F1800
;WIPE_START
G1 F30000
G1 X241.95 Y243.11 E-.072
;WIPE_END
G1 Z.6
G1 X242.921 Y15.003 Z.6
G1 Z.2
G1 E.8 F1800
;TYPE:Bottom surface
;WIDTH:0.500119
G1 F6300
G1 X242.203 Y14.284 E.03672
G1 X241.556 Y14.284 E.02337
G1 X242.716 Y15.444 E.05926
G1 X242.716 Y16.09 E.02337
G1 X240.91 Y14.284 E.0923
G1 X240.263 Y14.284 E.02337
G1 X242.716 Y16.737 E.12534
G1 X242.716 Y17.383 E.02337
G1 X239.617 Y14.284 E.15839
G1 X238.97 Y14.284 E.02337
G1 X242.716 Y18.03 E.19143
G1 X242.716 Y18.677 E.02337
G1 X238.323 Y14.284 E.22448
G1 X237.677 Y14.284 E.02337
G1 X242.716 Y19.323 E.25752
G1 X242.716 Y19.97 E.02337
M73 P7 R19
G1 X237.03 Y14.284 E.29057
M73 P7 R19
G1 X236.384 Y14.284 E.02337
G1 X242.716 Y20.616 E.32361
G1 X242.716 Y21.263 E.02337
G1 X235.737 Y14.284 E.35666
G1 X235.091 Y14.284 E.02337
G1 X242.716 Y21.909 E.3897
G1 X242.716 Y22.556 E.02337
G1 X234.444 Y14.284 E.42275
G1 X233.797 Y14.284 E.02337
G1 X242.716 Y23.203 E.45579
G1 X242.716 Y23.849 E.02337
G1 X233.151 Y14.284 E.48884
G1 X232.504 Y14.284 E.02337
G1 X242.716 Y24.496 E.52188
G1 X242.716 Y25.142 E.02337
G1 X231.858 Y14.284 E.55493
G1 X231.211 Y14.284 E.02337
G1 X242.716 Y25.789 E.58797
G1 X242.716 Y26.435 E.02337
G1 X230.565 Y14.284 E.62102
G1 X229.918 Y14.284 E.02337
G1 X242.716 Y27.082 E.65406
G1 X242.716 Y27.729 E.02337
G1 X229.271 Y14.284 E.68711
G1 X228.625 Y14.284 E.02337
G1 X242.716 Y28.375 E.72015
G1 X242.716 Y29.022 E.02337
G1 X227.978 Y14.284 E.75319
G1 X227.332 Y14.284 E.02337
G1 X242.716 Y29.668 E.78624
G1 X242.716 Y30.315 E.02337
G1 X226.685 Y14.284 E.81928
G1 X226.038 Y14.284 E.02337
G1 X242.716 Y30.962 E.85233
G1 X242.716 Y31.608 E.02337
G1 X225.392 Y14.284 E.88537
G1 X224.745 Y14.284 E.02337
G1 X242.716 Y32.255 E.91842
G1 X242.716 Y32.901 E.02337
G1 X224.099 Y14.284 E.95146
G1 X223.452 Y14.284 E.02337
G1 X242.716 Y33.548 E.98451
G1 X242.716 Y34.194 E.02337
G1 X222.806 Y14.284 E1.01755
G1 X222.159 Y14.284 E.02337
G1 X242.716 Y34.841 E1.0506
G1 X242.716 Y35.488 E.02337
G1 X221.512 Y14.284 E1.08364
G1 X220.866 Y14.284 E.02337
G1 X242.716 Y36.134 E1.11669
G1 X242.716 Y36.781 E.02337
G1 X220.219 Y14.284 E1.14973
G1 X219.573 Y14.284 E.02337
G1 X242.716 Y37.427 E1.18278
G1 X242.716 Y38.074 E.02337
G1 X218.926 Y14.284 E1.21582
G1 X218.28 Y14.284 E.02337
G1 X242.716 Y38.72 E1.24887
G1 X242.716 Y39.367 E.02337
G1 X217.633 Y14.284 E1.28191
G1 X216.986 Y14.284 E.02337
G1 X242.716 Y40.014 E1.31496
G1 X242.716 Y40.66 E.02337
G1 X216.34 Y14.284 E1.348
G1 X215.693 Y14.284 E.02337
G1 X242.716 Y41.307 E1.38104
G1 X242.716 Y41.953 E.02337
G1 X215.047 Y14.284 E1.41409
G1 X214.4 Y14.284 E.02337
G1 X242.716 Y42.6 E1.44713
G1 X242.716 Y43.246 E.02337
M73 P8 R19
G1 X213.754 Y14.284 E1.48018
M73 P8 R19
G1 X213.107 Y14.284 E.02337
G1 X242.716 Y43.893 E1.51322
G1 X242.716 Y44.54 E.02337
G1 X212.46 Y14.284 E1.54627
G1 X211.814 Y14.284 E.02337
G1 X242.716 Y45.186 E1.57931
G1 X242.716 Y45.833 E.02337
G1 X211.167 Y14.284 E1.61236
G1 X210.521 Y14.284 E.02337
G1 X242.716 Y46.479 E1.6454
G1 X242.716 Y47.126 E.02337
G1 X209.874 Y14.284 E1.67845
G1 X209.227 Y14.284 E.02337
G1 X242.716 Y47.773 E1.71149
G1 X242.716 Y48.419 E.02337
G1 X208.581 Y14.284 E1.74454
G1 X207.934 Y14.284 E.02337
G1 X242.716 Y49.066 E1.77758
G1 X242.716 Y49.712 E.02337
G1 X207.288 Y14.284 E1.81063
G1 X206.641 Y14.284 E.02337
G1 X242.716 Y50.359 E1.84367
G1 X242.716 Y51.005 E.02337
G1 X205.995 Y14.284 E1.87672
G1 X205.348 Y14.284 E.02337
G1 X242.716 Y51.652 E1.90976
G1 X242.716 Y52.299 E.02337
G1 X204.701 Y14.284 E1.94281
G1 X204.055 Y14.284 E.02337
G1 X242.716 Y52.945 E1.97585
G1 X242.716 Y53.592 E.02337
G1 X203.408 Y14.284 E2.00889
G1 X202.762 Y14.284 E.02337
G1 X242.716 Y54.238 E2.04194
G1 X242.716 Y54.885 E.02337
G1 X202.115 Y14.284 E2.07498
G1 X201.469 Y14.284 E.02337
G1 X242.716 Y55.531 E2.10803
G1 X242.716 Y56.178 E.02337
G1 X200.822 Y14.284 E2.14107
G1 X200.175 Y14.284 E.02337
M73 P9 R19
G1 X242.716 Y56.825 E2.17412
M73 P9 R19
G1 X242.716 Y57.471 E.02337
G1 X199.529 Y14.284 E2.20716
G1 X198.882 Y14.284 E.02337
G1 X242.716 Y58.118 E2.24021
G1 X242.716 Y58.764 E.02337
G1 X198.236 Y14.284 E2.27325
G1 X197.589 Y14.284 E.02337
G1 X242.716 Y59.411 E2.3063
G1 X242.716 Y60.057 E.02337
G1 X196.943 Y14.284 E2.33934
G1 X196.296 Y14.284 E.02337
G1 X242.716 Y60.704 E2.37239
G1 X242.716 Y61.351 E.02337
G1 X195.649 Y14.284 E2.40543
G1 X195.003 Y14.284 E.02337
G1 X242.716 Y61.997 E2.43848
G1 X242.716 Y62.644 E.02337
G1 X194.356 Y14.284 E2.47152
G1 X193.71 Y14.284 E.02337
G1 X242.716 Y63.29 E2.50457
G1 X242.716 Y63.937 E.02337
G1 X193.063 Y14.284 E2.53761
G1 X192.416 Y14.284 E.02337
G1 X242.716 Y64.584 E2.57066
G1 X242.716 Y65.23 E.02337
G1 X191.77 Y14.284 E2.6037
G1 X191.123 Y14.284 E.02337
G1 X242.716 Y65.877 E2.63674
G1 X242.716 Y66.523 E.02337
G1 X190.477 Y14.284 E2.66979
G1 X189.83 Y14.284 E.02337
G1 X242.716 Y67.17 E2.70283
G1 X242.716 Y67.816 E.02337
M73 P10 R19
G1 X189.184 Y14.284 E2.73588
M73 P10 R19
G1 X188.537 Y14.284 E.02337
G1 X242.716 Y68.463 E2.76892
G1 X242.716 Y69.11 E.02337
M73 P10 R18
G1 X187.89 Y14.284 E2.80197
M73 P10 R18
G1 X187.244 Y14.284 E.02337
G1 X242.716 Y69.756 E2.83501
G1 X242.716 Y70.403 E.02337
G1 X186.597 Y14.284 E2.86806
G1 X185.951 Y14.284 E.02337
G1 X242.716 Y71.049 E2.9011
G1 X242.716 Y71.696 E.02337
G1 X185.304 Y14.284 E2.93415
G1 X184.658 Y14.284 E.02337
G1 X242.716 Y72.342 E2.96719
G1 X242.716 Y72.989 E.02337
G1 X184.011 Y14.284 E3.00024
G1 X183.364 Y14.284 E.02337
G1 X242.716 Y73.636 E3.03328
G1 X242.716 Y74.282 E.02337
G1 X182.718 Y14.284 E3.06633
G1 X182.071 Y14.284 E.02337
G1 X242.716 Y74.929 E3.09937
G1 X242.716 Y75.575 E.02337
G1 X181.425 Y14.284 E3.13242
G1 X180.778 Y14.284 E.02337
G1 X242.716 Y76.222 E3.16546
G1 X242.716 Y76.868 E.02337
M73 P11 R18
G1 X180.132 Y14.284 E3.19851
M73 P11 R18
G1 X179.485 Y14.284 E.02337
G1 X242.716 Y77.515 E3.23155
G1 X242.716 Y78.162 E.02337
G1 X178.838 Y14.284 E3.2646
G1 X178.192 Y14.284 E.02337
G1 X242.716 Y78.808 E3.29764
G1 X242.716 Y79.455 E.02337
G1 X177.545 Y14.284 E3.33068
G1 X176.899 Y14.284 E.02337
G1 X242.716 Y80.101 E3.36373
G1 X242.716 Y80.748 E.02337
G1 X176.252 Y14.284 E3.39677
G1 X175.605 Y14.284 E.02337
G1 X242.716 Y81.395 E3.42982
G1 X242.716 Y82.041 E.02337
G1 X174.959 Y14.284 E3.46286
G1 X174.312 Y14.284 E.02337
G1 X242.716 Y82.688 E3.49591
G1 X242.716 Y83.334 E.02337
G1 X173.666 Y14.284 E3.52895
G1 X173.019 Y14.284 E.02337
G1 X242.716 Y83.981 E3.562
G1 X242.716 Y84.627 E.02337
G1 X172.373 Y14.284 E3.59504
G1 X171.726 Y14.284 E.02337
M73 P12 R18
G1 X242.716 Y85.274 E3.62809
M73 P12 R18
G1 X242.716 Y85.921 E.02337
G1 X171.079 Y14.284 E3.66113
G1 X170.433 Y14.284 E.02337
G1 X242.716 Y86.567 E3.69418
G1 X242.716 Y87.214 E.02337
G1 X169.786 Y14.284 E3.72722
G1 X169.14 Y14.284 E.02337
G1 X242.716 Y87.86 E3.76027
G1 X242.716 Y88.507 E.02337
G1 X168.493 Y14.284 E3.79331
G1 X167.847 Y14.284 E.02337
G1 X242.716 Y89.153 E3.82636
G1 X242.716 Y89.8 E.02337
G1 X167.2 Y14.284 E3.8594
G1 X166.553 Y14.284 E.02337
G1 X242.716 Y90.447 E3.89245
G1 X242.716 Y91.093 E.02337
G1 X165.907 Y14.284 E3.92549
G1 X165.26 Y14.284 E.02337
G1 X242.716 Y91.74 E3.95853
G1 X242.716 Y92.386 E.02337
M73 P13 R18
G1 X164.614 Y14.284 E3.99158
M73 P13 R18
G1 X163.967 Y14.284 E.02337
G1 X242.716 Y93.033 E4.02462
G1 X242.716 Y93.679 E.02337
G1 X163.321 Y14.284 E4.05767
G1 X162.674 Y14.284 E.02337
G1 X242.716 Y94.326 E4.09071
G1 X242.716 Y94.973 E.02337
G1 X162.027 Y14.284 E4.12376
G1 X161.381 Y14.284 E.02337
G1 X242.716 Y95.619 E4.1568
G1 X242.716 Y96.266 E.02337
G1 X160.734 Y14.284 E4.18985
G1 X160.088 Y14.284 E.02337
G1 X242.716 Y96.912 E4.22289
G1 X242.716 Y97.559 E.02337
G1 X159.441 Y14.284 E4.25594
G1 X158.794 Y14.284 E.02337
G1 X242.716 Y98.206 E4.28898
G1 X242.716 Y98.852 E.02337
M73 P14 R18
G1 X158.148 Y14.284 E4.32203
M73 P14 R18
G1 X157.501 Y14.284 E.02337
G1 X242.716 Y99.499 E4.35507
G1 X242.716 Y100.145 E.02337
G1 X156.855 Y14.284 E4.38812
G1 X156.208 Y14.284 E.02337
G1 X242.716 Y100.792 E4.42116
G1 X242.716 Y101.438 E.02337
G1 X155.562 Y14.284 E4.45421
G1 X154.915 Y14.284 E.02337
G1 X242.716 Y102.085 E4.48725
G1 X242.716 Y102.732 E.02337
G1 X154.268 Y14.284 E4.5203
G1 X153.622 Y14.284 E.02337
G1 X242.716 Y103.378 E4.55334
G1 X242.716 Y104.025 E.02337
G1 X152.975 Y14.284 E4.58638
G1 X152.329 Y14.284 E.02337
M73 P14 R17
G1 X242.716 Y104.671 E4.61943
M73 P14 R17
G1 X242.716 Y105.318 E.02337
M73 P15 R17
G1 X151.682 Y14.284 E4.65247
M73 P15 R17
G1 X151.036 Y14.284 E.02337
G1 X242.716 Y105.964 E4.68552
G1 X242.716 Y106.611 E.02337
G1 X150.389 Y14.284 E4.71856
G1 X149.742 Y14.284 E.02337
G1 X242.716 Y107.258 E4.75161
G1 X242.716 Y107.904 E.02337
G1 X149.096 Y14.284 E4.78465
G1 X148.449 Y14.284 E.02337
G1 X242.716 Y108.551 E4.8177
G1 X242.716 Y109.197 E.02337
G1 X147.803 Y14.284 E4.85074
G1 X147.156 Y14.284 E.02337
G1 X242.716 Y109.844 E4.88379
G1 X242.716 Y110.49 E.02337
G1 X146.51 Y14.284 E4.91683
G1 X145.863 Y14.284 E.02337
M73 P16 R17
G1 X242.716 Y111.137 E4.94988
M73 P16 R17
G1 X242.716 Y111.784 E.02337
G1 X145.216 Y14.284 E4.98292
G1 X144.57 Y14.284 E.02337
G1 X242.716 Y112.43 E5.01597
G1 X242.716 Y113.077 E.02337
G1 X143.923 Y14.284 E5.04901
G1 X143.277 Y14.284 E.02337
G1 X242.716 Y113.723 E5.08206
G1 X242.716 Y114.37 E.02337
G1 X142.63 Y14.284 E5.1151
G1 X141.983 Y14.284 E.02337
G1 X242.716 Y115.017 E5.14815
G1 X242.716 Y115.663 E.02337
G1 X141.337 Y14.284 E5.18119
G1 X140.69 Y14.284 E.02337
G1 X242.716 Y116.31 E5.21423
G1 X242.716 Y116.956 E.02337
M73 P17 R17
G1 X140.044 Y14.284 E5.24728
M73 P17 R17
G1 X139.397 Y14.284 E.02337
G1 X242.716 Y117.603 E5.28032
G1 X242.716 Y118.249 E.02337
G1 X138.751 Y14.284 E5.31337
G1 X138.104 Y14.284 E.02337
G1 X242.716 Y118.896 E5.34641
G1 X242.716 Y119.543 E.02337
G1 X137.457 Y14.284 E5.37946
G1 X136.811 Y14.284 E.02337
G1 X242.716 Y120.189 E5.4125
G1 X242.716 Y120.836 E.02337
G1 X136.164 Y14.284 E5.44555
G1 X135.518 Y14.284 E.02337
G1 X242.716 Y121.482 E5.47859
G1 X242.716 Y122.129 E.02337
M73 P18 R17
G1 X134.871 Y14.284 E5.51164
M73 P18 R17
G1 X134.225 Y14.284 E.02337
G1 X242.716 Y122.775 E5.54468
G1 X242.716 Y123.422 E.02337
G1 X133.578 Y14.284 E5.57773
G1 X132.931 Y14.284 E.02337
G1 X242.716 Y124.069 E5.61077
G1 X242.716 Y124.715 E.02337
G1 X132.285 Y14.284 E5.64382
G1 X131.638 Y14.284 E.02337
G1 X242.716 Y125.362 E5.67686
G1 X242.716 Y126.008 E.02337
G1 X130.992 Y14.284 E5.70991
G1 X130.345 Y14.284 E.02337
G1 X242.716 Y126.655 E5.74295
G1 X242.716 Y127.301 E.02337
M73 P19 R17
G1 X129.699 Y14.284 E5.776
M73 P19 R17
G1 X129.052 Y14.284 E.02337
G1 X242.716 Y127.948 E5.80904
G1 X242.716 Y128.595 E.02337
G1 X128.405 Y14.284 E5.84208
G1 X127.759 Y14.284 E.02337
G1 X242.716 Y129.241 E5.87513
G1 X242.716 Y129.888 E.02337
G1 X127.112 Y14.284 E5.90817
G1 X126.466 Y14.284 E.02337
M73 P19 R16
G1 X242.716 Y130.534 E5.94122
M73 P19 R16
G1 X242.716 Y131.181 E.02337
G1 X125.819 Y14.284 E5.97426
G1 X125.172 Y14.284 E.02337
G1 X242.716 Y131.828 E6.00731
G1 X242.716 Y132.474 E.02337
M73 P20 R16
G1 X124.526 Y14.284 E6.04035
M73 P20 R16
G1 X123.879 Y14.284 E.02337
G1 X242.716 Y133.121 E6.0734
G1 X242.716 Y133.767 E.02337
G1 X123.233 Y14.284 E6.10644
G1 X122.586 Y14.284 E.02337
G1 X242.716 Y134.414 E6.13949
G1 X242.716 Y135.06 E.02337
G1 X121.94 Y14.284 E6.17253
G1 X121.293 Y14.284 E.02337
G1 X242.716 Y135.707 E6.20558
G1 X242.716 Y136.354 E.02337
G1 X120.646 Y14.284 E6.23862
G1 X120 Y14.284 E.02337
M73 P21 R16
G1 X242.716 Y137 E6.27167
M73 P21 R16
G1 X242.716 Y137.647 E.02337
G1 X119.353 Y14.284 E6.30471
G1 X118.707 Y14.284 E.02337
G1 X242.716 Y138.293 E6.33776
G1 X242.716 Y138.94 E.02337
G1 X118.06 Y14.284 E6.3708
G1 X117.414 Y14.284 E.02337
G1 X242.716 Y139.586 E6.40385
G1 X242.716 Y140.233 E.02337
G1 X116.767 Y14.284 E6.43689
G1 X116.12 Y14.284 E.02337
G1 X242.716 Y140.88 E6.46993
G1 X242.716 Y141.526 E.02337
M73 P22 R16
G1 X115.474 Y14.284 E6.50298
M73 P22 R16
G1 X114.827 Y14.284 E.02337
G1 X242.716 Y142.173 E6.53602
G1 X242.716 Y142.819 E.02337
G1 X114.181 Y14.284 E6.56907
G1 X113.534 Y14.284 E.02337
G1 X242.716 Y143.466 E6.60211
G1 X242.716 Y144.112 E.02337
G1 X112.888 Y14.284 E6.63516
G1 X112.241 Y14.284 E.02337
G1 X242.716 Y144.759 E6.6682
G1 X242.716 Y145.406 E.02337
G1 X111.594 Y14.284 E6.70125
G1 X110.948 Y14.284 E.02337
M73 P23 R16
G1 X242.716 Y146.052 E6.73429
M73 P23 R16
G1 X242.716 Y146.699 E.02337
G1 X110.301 Y14.284 E6.76734
G1 X109.655 Y14.284 E.02337
G1 X242.716 Y147.345 E6.80038
G1 X242.716 Y147.992 E.02337
G1 X109.008 Y14.284 E6.83343
G1 X108.361 Y14.284 E.02337
G1 X242.716 Y148.639 E6.86647
G1 X242.716 Y149.285 E.02337
G1 X107.715 Y14.284 E6.89952
G1 X107.068 Y14.284 E.02337
G1 X242.716 Y149.932 E6.93256
G1 X242.716 Y150.578 E.02337
M73 P24 R16
G1 X106.422 Y14.284 E6.96561
M73 P24 R16
G1 X105.775 Y14.284 E.02337
G1 X242.716 Y151.225 E6.99865
G1 X242.716 Y151.871 E.02337
M73 P24 R15
G1 X105.129 Y14.284 E7.0317
M73 P24 R15
G1 X104.482 Y14.284 E.02337
G1 X242.716 Y152.518 E7.06474
