; HEADER_BLOCK_START
; generated by ElegooSlicer 1.1.7.3 on 2025-02-25 at 14:33:57
; total layer number: 240
; filament_density: 1.25
; filament_diameter: 1.75
; max_z_height: 48.00
; HEADER_BLOCK_END

; THUMBNAIL_BLOCK_START

;
; THUMBNAIL_BLOCK_END

; external perimeters extrusion width = 0.42mm
; perimeters extrusion width = 0.45mm
; infill extrusion width = 0.45mm
; solid infill extrusion width = 0.42mm
; top infill extrusion width = 0.42mm
; support material extrusion width = 0.42mm
; first layer extrusion width = 0.50mm

; EXECUTABLE_BLOCK_START
EXCLUDE_OBJECT_DEFINE NAME=3DBenchy_id_0_copy_0 CENTER=128.5,128.5 POLYGON=[[98.4995,119.316],[98.5025,119.255],[98.5065,119.199],[98.5115,119.146],[98.5135,119.13],[98.5195,119.083],[98.5285,119.025],[98.5455,118.936],[98.5585,118.879],[98.5735,118.822],[98.5805,118.796],[98.5975,118.739],[98.6265,118.655],[98.6405,118.618],[98.6625,118.564],[98.6695,118.547],[98.6855,118.51],[98.7095,118.458],[98.7305,118.416],[98.7635,118.354],[98.7785,118.327],[98.7905,118.306],[98.8395,118.227],[98.8575,118.2],[98.8715,118.179],[98.9055,118.131],[98.9405,118.084],[98.9835,118.031],[99.0085,118.001],[99.0385,117.966],[99.0785,117.923],[99.0925,117.908],[99.1005,117.9],[99.1415,117.859],[99.1615,117.84],[99.2045,117.8],[99.2375,117.771],[99.2825,117.734],[99.2935,117.725],[99.3285,117.697],[99.3865,117.654],[99.4345,117.621],[99.4785,117.592],[99.5445,117.552],[99.5715,117.536],[99.6235,117.508],[99.6485,117.495],[99.6755,117.481],[99.6975,117.47],[99.7535,117.444],[99.8115,117.419],[99.8615,117.399],[99.9165,117.379],[99.9285,117.375],[99.9715,117.361],[99.9845,117.357],[100.041,117.34],[100.048,117.338],[100.084,117.328],[100.097,117.325],[100.125,117.318],[100.14,117.314],[100.21,117.299],[100.239,117.294],[100.269,117.289],[100.298,117.284],[128.312,113.386],[128.555,113.353],[128.799,113.321],[129.043,113.291],[129.382,113.252],[129.605,113.228],[129.85,113.202],[130.096,113.178],[130.342,113.156],[130.587,113.135],[130.753,113.122],[130.833,113.116],[131.023,113.102],[131.079,113.098],[131.326,113.081],[131.487,113.071],[131.571,113.066],[131.732,113.057],[131.989,113.044],[132.097,113.039],[132.119,113.038],[132.255,113.032],[132.406,113.026],[132.55,113.021],[132.667,113.017],[132.733,113.015],[132.842,113.012],[132.96,113.009],[133.048,113.007],[133.189,113.004],[133.381,113.001],[133.562,112.999],[133.68,112.998],[134.078,112.998],[134.434,113],[134.869,113.008],[134.95,113.01],[135.305,113.02],[135.412,113.024],[135.74,113.037],[136.177,113.058],[136.509,113.078],[136.592,113.083],[136.702,113.09],[136.875,113.102],[136.995,113.111],[137.141,113.122],[137.228,113.129],[137.409,113.144],[137.54,113.155],[138.332,113.28],[138.341,113.282],[138.769,113.388],[138.877,113.415],[139.095,113.47],[139.237,113.507],[139.313,113.527],[139.467,113.568],[139.748,113.645],[139.924,113.695],[140.18,113.77],[140.396,113.834],[140.611,113.9],[140.832,113.97],[141.058,114.043],[141.252,114.107],[141.508,114.194],[141.678,114.253],[141.732,114.272],[141.9,114.332],[142.101,114.405],[142.322,114.487],[142.533,114.567],[142.733,114.645],[142.844,114.688],[142.943,114.728],[142.953,114.732],[143.162,114.816],[143.371,114.902],[143.427,114.925],[143.634,115.013],[143.841,115.103],[144.047,115.193],[144.457,115.379],[144.66,115.474],[144.863,115.57],[145.065,115.668],[145.266,115.767],[145.467,115.867],[145.666,115.969],[145.866,116.072],[146.063,116.177],[146.262,116.283],[146.457,116.39],[146.653,116.499],[146.848,116.61],[147.043,116.721],[147.237,116.834],[147.43,116.949],[147.623,117.065],[147.814,117.183],[148.005,117.301],[148.196,117.422],[148.385,117.543],[148.575,117.667],[148.762,117.791],[148.951,117.917],[149.137,118.044],[149.324,118.173],[149.508,118.303],[149.693,118.434],[149.876,118.567],[150.06,118.701],[150.243,118.837],[150.423,118.974],[150.604,119.112],[150.784,119.252],[150.963,119.393],[151.142,119.536],[151.32,119.68],[151.498,119.825],[151.673,119.972],[152.023,120.27],[152.197,120.421],[152.37,120.574],[152.542,120.728],[152.714,120.884],[152.828,120.989],[152.998,121.145],[153.165,121.303],[153.332,121.462],[153.496,121.622],[153.661,121.783],[153.825,121.945],[153.986,122.109],[154.147,122.273],[154.307,122.439],[154.466,122.606],[154.624,122.774],[154.782,122.943],[154.938,123.114],[155.092,123.285],[155.245,123.458],[155.398,123.632],[155.55,123.806],[155.701,123.983],[155.849,124.16],[155.999,124.338],[156.145,124.517],[156.291,124.698],[156.436,124.88],[156.581,125.063],[156.723,125.247],[156.864,125.432],[157.005,125.618],[157.145,125.805],[157.284,125.993],[157.421,126.183],[157.556,126.374],[157.692,126.565],[157.826,126.758],[157.958,126.952],[158.089,127.147],[158.118,127.192],[158.151,127.245],[158.182,127.298],[158.213,127.352],[158.242,127.407],[158.269,127.462],[158.319,127.576],[158.334,127.617],[158.356,127.675],[158.376,127.733],[158.395,127.792],[158.412,127.851],[158.429,127.913],[158.443,127.97],[158.454,128.03],[158.466,128.093],[158.475,128.152],[158.484,128.213],[158.491,128.274],[158.495,128.336],[158.498,128.405],[158.5,128.466],[158.5,128.527],[158.499,128.588],[158.496,128.649],[158.492,128.709],[158.486,128.77],[158.477,128.831],[158.468,128.891],[158.458,128.949],[158.445,129.012],[158.432,129.069],[158.416,129.132],[158.401,129.186],[158.383,129.245],[158.363,129.303],[158.342,129.361],[158.32,129.418],[158.297,129.474],[158.271,129.53],[158.244,129.586],[158.216,129.64],[158.186,129.694],[158.155,129.748],[158.124,129.801],[158.089,129.853],[157.972,130.027],[157.839,130.221],[157.706,130.414],[157.571,130.606],[157.436,130.797],[157.297,130.987],[157.159,131.176],[157.02,131.364],[156.88,131.55],[156.737,131.736],[156.595,131.92],[156.451,132.104],[156.159,132.468],[156.01,132.648],[155.861,132.828],[155.71,133.006],[155.56,133.183],[155.407,133.36],[155.252,133.535],[155.097,133.709],[154.982,133.837],[154.826,134.009],[154.667,134.18],[154.508,134.35],[154.348,134.518],[154.188,134.686],[154.026,134.852],[153.7,135.18],[153.534,135.341],[153.369,135.502],[153.203,135.661],[153.035,135.819],[152.868,135.975],[152.699,136.13],[152.528,136.284],[152.357,136.437],[152.186,136.589],[152.012,136.739],[151.838,136.888],[151.664,137.036],[151.487,137.182],[151.311,137.327],[151.132,137.471],[150.954,137.614],[150.775,137.756],[150.593,137.896],[150.411,138.035],[150.228,138.173],[150.044,138.31],[149.859,138.445],[149.673,138.58],[149.299,138.844],[149.111,138.974],[148.921,139.103],[148.73,139.231],[148.539,139.357],[148.346,139.482],[148.153,139.606],[147.958,139.728],[147.763,139.849],[147.567,139.969],[147.369,140.087],[147.172,140.204],[146.972,140.319],[146.772,140.434],[146.572,140.546],[146.37,140.658],[146.095,140.807],[145.895,140.912],[145.696,141.016],[145.496,141.118],[145.296,141.219],[145.095,141.318],[144.892,141.416],[144.69,141.512],[144.487,141.607],[144.283,141.7],[144.079,141.792],[143.874,141.883],[143.669,141.972],[143.463,142.059],[143.256,142.145],[143.166,142.182],[143.049,142.23],[142.841,142.313],[142.622,142.398],[142.503,142.444],[142.204,142.557],[141.993,142.634],[141.793,142.706],[141.571,142.784],[141.384,142.848],[141.369,142.853],[141.156,142.924],[140.943,142.994],[140.707,143.07],[140.505,143.132],[140.479,143.14],[140.251,143.209],[140.023,143.276],[139.795,143.341],[139.642,143.384],[139.565,143.405],[139.424,143.443],[139.207,143.501],[139.106,143.527],[138.988,143.557],[138.769,143.612],[138.344,143.718],[137.816,143.819],[137.806,143.82],[137.55,143.844],[137.503,143.848],[137.31,143.864],[137.225,143.871],[137.061,143.884],[136.981,143.89],[136.634,143.914],[136.188,143.941],[136.149,143.943],[135.764,143.962],[135.626,143.968],[135.278,143.981],[135.064,143.987],[134.844,143.993],[134.407,144],[134.022,144.002],[133.677,144.002],[133.377,143.999],[133.321,143.998],[133.099,143.994],[132.957,143.991],[132.838,143.988],[132.666,143.983],[132.576,143.98],[132.43,143.975],[132.252,143.968],[132.228,143.967],[132.07,143.96],[131.963,143.955],[131.832,143.948],[131.633,143.937],[131.389,143.923],[131.144,143.907],[131.129,143.906],[130.842,143.885],[130.596,143.866],[130.349,143.845],[130.167,143.828],[130.103,143.822],[129.923,143.805],[129.679,143.78],[129.611,143.773],[129.435,143.754],[129.119,143.718],[128.873,143.688],[128.704,143.666],[128.382,143.624],[100.328,139.72],[100.292,139.715],[100.243,139.707],[100.186,139.696],[100.153,139.689],[100.097,139.675],[100.084,139.672],[100.048,139.662],[100.036,139.659],[99.9805,139.642],[99.9285,139.625],[99.9165,139.621],[99.8615,139.601],[99.8115,139.581],[99.7535,139.556],[99.6975,139.53],[99.6555,139.509],[99.6045,139.482],[99.5865,139.472],[99.5445,139.448],[99.4925,139.417],[99.4785,139.408],[99.4435,139.385],[99.4345,139.379],[99.3865,139.346],[99.3475,139.317],[99.3395,139.311],[99.2935,139.275],[99.2555,139.244],[99.2485,139.238],[99.2045,139.2],[99.1615,139.16],[99.1405,139.14],[99.0925,139.092],[99.0575,139.055],[99.0385,139.034],[99.0185,139.011],[98.9805,138.966],[98.9445,138.92],[98.9305,138.902],[98.9095,138.874],[98.9065,138.87],[98.8725,138.822],[98.8575,138.8],[98.8425,138.778],[98.8085,138.724],[98.7785,138.673],[98.7505,138.622],[98.7305,138.584],[98.7185,138.56],[98.6955,138.512],[98.6695,138.454],[98.6485,138.403],[98.6275,138.349],[98.6085,138.293],[98.6075,138.29],[98.5905,138.238],[98.5745,138.182],[98.5595,138.125],[98.5455,138.064],[98.5345,138.007],[98.5255,137.954],[98.5245,137.948],[98.5165,137.896],[98.5115,137.853],[98.5085,137.825],[98.5025,137.745],[98.5005,137.708],[98.4995,137.679],[98.4995,119.316]]
M106 S0
M106 P2 S0
;TYPE:Custom
M400 ; wait for buffer to clear
M220 S100 ;Set the feed speed to 100%
M221 S100 ;Set the flow rate to 100%
M104 S140
M140 S60
G90
G28 ;home
G1 Z10 F900

M204 S1000 ;Call exterior wall print acceleration


M204 S2000
M190 S60
M109 S210
G1 X120 Y120 F6000
M83
G92 E0 ;Reset Extruder

M204 S2000
;LAYER_COUNT:240
;LAYER:0
G90
G21
M83 ; use relative distances for extrusion
;LAYER_CHANGE
;Z:0.2
;HEIGHT:0.2
;BEFORE_LAYER_CHANGE
;0.2
G92 E0

G1 E-.8 F1800
;LAYER:1

;_SET_FAN_SPEED_CHANGING_LAYER
SET_VELOCITY_LIMIT ACCEL=500
G1 X104.564 Y118.349 F30000
G1 Z.6
G1 Z.2
G1 E.8 F1800
;TYPE:Skirt
;WIDTH:0.5
G1 F3000
G1 X127.253 Y116.868 E.84686
G1 X128.912 Y116.83 E.06181
G1 X131.353 Y117.038 E.09127
G1 X133.74 Y117.558 E.09098
G1 X135.822 Y118.287 E.08215
G1 X138.229 Y119.499 E.1004
G1 X140.142 Y120.805 E.08628
G1 X142.036 Y122.493 E.09447
G1 X143.645 Y124.364 E.09192
G1 X144.92 Y126.299 E.08629
G1 X145.394 Y127.535 E.04931
G1 X145.501 Y128.551 E.03806
G1 X145.372 Y129.561 E.03791
G1 X144.969 Y130.611 E.04191
G1 X143.956 Y132.21 E.07048
G1 X142.498 Y134.019 E.08654
G1 X141.01 Y135.478 E.07763
G1 X139.316 Y136.802 E.08006
G1 X136.969 Y138.189 E.10154
G1 X135.599 Y138.805 E.05594
G1 X134.194 Y139.306 E.05558
G1 X131.633 Y139.918 E.09806
G1 X130.216 Y140.099 E.05321
G1 X128.443 Y140.175 E.06611
G1 X103.56 Y138.582 E.9287
G1 X102.625 Y138.389 E.03557
G1 X101.642 Y137.965 E.03985
G1 X100.808 Y137.361 E.03837
G1 X100.115 Y136.582 E.03884
G1 X99.49 Y135.375 E.05062
G1 X99.216 Y134.073 E.04953
G1 X99.216 Y122.927 E.41517
G1 X99.422 Y121.831 E.04153
G1 X99.814 Y120.899 E.03766
G1 X100.523 Y119.92 E.04499
G1 X101.317 Y119.239 E.03899
G1 X102.369 Y118.697 E.04406
G1 X103.686 Y118.406 E.05026
G1 X104.524 Y118.351 E.03128
G1 X104.554 Y118.807 F30000
G1 F3000
G1 X127.283 Y117.324 E.84835
G1 X128.908 Y117.287 E.06055
G1 X131.281 Y117.489 E.08871
G1 X133.61 Y117.996 E.08879
G1 X135.64 Y118.706 E.08007
G1 X138.043 Y119.921 E.10033
G1 X139.857 Y121.162 E.08185
G1 X141.706 Y122.809 E.09223
G1 X143.333 Y124.709 E.09318
G1 X144.658 Y126.788 E.09181
G1 X144.977 Y127.773 E.03855
G1 X145.04 Y128.685 E.03407
G1 X144.799 Y129.872 E.0451
G1 X144.319 Y130.822 E.03966
G1 X143.306 Y132.327 E.06756
G1 X141.9 Y133.99 E.08113
G1 X140.357 Y135.436 E.07877
G1 X138.728 Y136.647 E.07558
G1 X136.475 Y137.921 E.0964
G1 X135.052 Y138.527 E.05761
G1 X133.783 Y138.954 E.04988
G1 X132.441 Y139.298 E.05162
G1 X130.984 Y139.553 E.05507
G1 X128.375 Y139.717 E.09737
G1 X103.603 Y138.127 E.92458
G1 X102.627 Y137.908 E.03723
G1 X101.701 Y137.467 E.03823
G1 X100.961 Y136.876 E.03528
G1 X100.368 Y136.14 E.03518
G1 X99.861 Y135.041 E.04507
G1 X99.662 Y133.877 E.04398
G1 X99.672 Y122.968 E.40635
G1 X99.861 Y121.959 E.03823
G1 X100.305 Y120.962 E.04063
G1 X100.945 Y120.14 E.03883
G1 X101.682 Y119.545 E.03527
G1 X102.709 Y119.063 E.04224
G1 X103.73 Y118.861 E.03875
G1 X104.514 Y118.81 E.02929
G1 X104.544 Y119.266 F30000
G1 F3000
G1 X127.312 Y117.78 E.84984
G1 X128.904 Y117.744 E.0593
G1 X131.209 Y117.94 E.08616
G1 X133.481 Y118.434 E.08659
G1 X135.457 Y119.125 E.07799
G1 X137.804 Y120.31 E.09794
G1 X139.571 Y121.519 E.07973
G1 X141.376 Y123.125 E.08998
G1 X142.963 Y124.978 E.09088
G1 X144.241 Y126.975 E.08829
G1 X144.529 Y127.865 E.03486
G1 X144.559 Y128.939 E.04001
G1 X144.318 Y129.85 E.0351
G1 X143.895 Y130.641 E.03341
G1 X142.943 Y132.048 E.06328
G1 X141.572 Y133.672 E.07914
G1 X140.06 Y135.089 E.0772
G1 X138.426 Y136.299 E.07573
G1 X136.283 Y137.506 E.0916
G1 X134.887 Y138.101 E.05654
G1 X133.65 Y138.516 E.04859
G1 X132.348 Y138.85 E.05006
G1 X130.916 Y139.101 E.05415
G1 X128.385 Y139.26 E.09446
G1 X103.646 Y137.672 E.92333
G1 X102.783 Y137.478 E.03295
G1 X101.95 Y137.084 E.03433
G1 X101.288 Y136.556 E.03154
G1 X100.757 Y135.899 E.03146
G1 X100.3 Y134.913 E.04048
G1 X100.119 Y133.863 E.0397
G1 X100.127 Y123.008 E.40428
G1 X100.3 Y122.087 E.03493
G1 X100.693 Y121.203 E.03603
G1 X101.275 Y120.457 E.03524
G1 X101.935 Y119.926 E.03153
G1 X102.843 Y119.5 E.03735
G1 X103.773 Y119.316 E.03531
G1 X104.504 Y119.268 E.0273
G1 E-.728 F1800
;WIPE_START
G1 F30000
G1 X105.702 Y119.19 E-.072
;WIPE_END
EXCLUDE_OBJECT_START NAME=3DBenchy_id_0_copy_0
G1 X112.858 Y121.843 Z.6
G1 X128.685 Y127.711 Z.6
G1 Z.2
G1 E.8 F1800
;TYPE:Outer wall
G1 F3000
G1 X128.841 Y127.49 E.00978
G1 X129.105 Y126.975 E.02091
G1 X129.429 Y126.718 E.01495
G1 X129.6 Y126.648 E.00667
G1 X129.785 Y126.638 E.00669
G1 X129.96 Y126.683 E.00653
G1 X130.221 Y126.852 E.01125
G1 X130.411 Y127.111 E.01161
G1 X130.451 Y127.431 E.01164
G1 X130.406 Y127.769 E.01229
G1 X130.086 Y128.349 E.02395
G1 X129.715 Y128.961 E.02588
G1 X129.652 Y129.108 E.00577
G1 X129.634 Y129.208 E.00365
G1 X129.641 Y129.285 E.00281
G1 X129.677 Y129.379 E.00364
G1 X130.356 Y130.51 E.04765
G1 X130.504 Y130.841 E.0131
G1 X130.547 Y131.126 E.01043
G1 X130.512 Y131.404 E.01011
G1 X130.394 Y131.639 E.00952
G1 X130.27 Y131.767 E.0064
G1 X130.123 Y131.859 E.00629
G1 X129.885 Y131.935 E.00902
G1 X129.696 Y131.949 E.00687
G1 X129.513 Y131.921 E.00665
G1 X129.35 Y131.856 E.00637
G1 X129.211 Y131.75 E.0063
G1 X129.065 Y131.565 E.00851
G1 X128.96 Y131.378 E.00775
G1 X128.869 Y131.096 E.01074
G1 X128.748 Y130.884 E.00878
G1 X128.603 Y130.708 E.00824
G1 X128.512 Y130.834 E.00559
G1 X128.448 Y130.961 E.00514
G1 X128.447 Y131.105 E.0052
G1 X128.199 Y131.519 E.01746
G1 X128.023 Y131.727 E.00985
G1 X127.821 Y131.864 E.00882
G1 X127.609 Y131.916 E.00788
G1 X127.24 Y131.841 E.01363
G1 X127.001 Y131.656 E.01089
G1 X126.852 Y131.279 E.01466
G1 X126.855 Y131.059 E.00795
G1 X126.893 Y130.905 E.00574
G1 X127.06 Y130.439 E.01789
G1 X127.403 Y129.762 E.02739
G1 X127.74 Y129.263 E.02176
G1 X127.498 Y128.889 E.01611
G1 X126.93 Y127.863 E.04236
G1 X126.837 Y127.588 E.01049
G1 X126.821 Y127.267 E.01162
G1 X126.911 Y127.018 E.00956
G1 X127.133 Y126.787 E.01158
G1 X127.301 Y126.7 E.00684
G1 X127.478 Y126.648 E.00667
G1 X127.733 Y126.637 E.00921
G1 X127.915 Y126.7 E.00695
G1 X128.157 Y126.875 E.0108
G1 X128.3 Y127.03 E.00761
G1 X128.372 Y127.221 E.00739
G1 X128.512 Y127.484 E.01077
G1 X128.661 Y127.679 E.00886
G1 E-.728 F1800
;WIPE_START
G1 F30000
G1 X128.841 Y127.49 E-.01569
G1 X129.105 Y126.975 E-.03472
G1 X129.387 Y126.752 E-.02158
;WIPE_END
G1 X126.319 Y130.064 Z.6
G1 Z.2
G1 E.8 F1800
G1 F3000
G1 X126.435 Y130.267 E.00846
G1 X126.48 Y130.408 E.00533
G1 X126.518 Y130.814 E.01473
G1 X126.508 Y131.031 E.00783
G1 X126.461 Y131.24 E.00775
