; HEADER_BLOCK_START
; generated by ElegooSlicer 1.1.8.2 on 2025-03-13 at 14:17:01
; total layer number: 240
; filament_density: 1.25
; filament_diameter: 1.75
; max_z_height: 48.00
; HEADER_BLOCK_END



; THUMBNAIL_BLOCK_START

;
; THUMBNAIL_BLOCK_END

; external perimeters extrusion width = 0.42mm
; perimeters extrusion width = 0.45mm
; infill extrusion width = 0.45mm
; solid infill extrusion width = 0.42mm
; top infill extrusion width = 0.42mm
; support material extrusion width = 0.42mm
; first layer extrusion width = 0.50mm

; EXECUTABLE_BLOCK_START
M73 P0 R33
M201 X20000 Y20000 Z500 E5000
M203 X500 Y500 Z20 E30
M204 P20000 R5000 T20000
M205 X9.00 Y9.00 Z3.00 E2.50 ; sets the jerk limits, mm/sec
M106 S0
M106 P2 S0
;TYPE:Custom
M400 ; wait for buffer to clear
M220 S100 ;Set the feed speed to 100%
M221 S100 ;Set the flow rate to 100%
M104 S140
M190 S60
G90
G28 ;home
M204 S10000

;加热，同时移动到废料桶位置，挤出110mm
M104 S250
G1 Z10 F600
G1 X202 Y250 F20000
G1 Y264.5 F3000
M109 S250
M83
G92 E0
G1 E10 F150 
M400
G1 E10 F300
M400
G4 P2000
G1 E10 F150
M400
G1 E10 F300
M400
G4 P2000
G1 E10 F150
M400
G1 E10 F300
M400
G4 P2000
G1 E10 F150
M400
G1 E10 F300
M73 P1 R33
M400
G4 P2000
M73 P1 R33
G1 E10 F150
M104 S180
M400
G1 E10 F300
M400
G4 P2000
G1 E10 F150
M400

;开启风扇，降温
M106 S250
M109 S180
M104 S140
;刮掉废料
G1 X188 F20000
G1 Y256
G1 X202
G1 Y264.5 F1000
G1 X188 F20000
G1 Y256
G1 X202
G1 Y264.5 F1000
G1 X188 F20000
G1 Y256
G1 X202
G1 Y264.5 F1000

;擦嘴
M204 S10000
G1 X176 F6000
G1 Y263
G3 I2 J0 F3000
G3 I2 J0 F3000
G3 I2 J0 F3000
G3 I2 J0 F3000
G3 I2 J0 F3000
G1 X176 F15000
G1 X185
G1 X170
G1 X185
G1 X170
G1 X180
G1 X176
G3 I2 J0 F3000
G3 I2 J0 F3000
G3 I2 J0 F3000
M73 P2 R33
M73 P2 R33
G3 I2 J0 F3000
G3 I2 J0 F3000


;移动到床后中位置，研磨喷嘴
M400
G1 X128 Y259 Z0 F3000

G2 X129 Y259 I1 J1 F2000
G2 X129 Y259 I1 J1 F2000
G2 X129 Y259 I1 J1 F2000
G2 X129 Y259 Z1 I1 J1 F2000

G1 X128 Y259 Z1 F30000
G1 Z0 F300
G1 X130 F120
G1 X126 
G1 X130
G1 X126 
G1 X130
G1 X126 
G1 X130
M109 S140
M106 S150

G2 X129 Y259 I1 J1 F2000
M73 P2 R32
M73 P2 R32
G2 X129 Y259 I1 J1 F2000
G2 X129 Y259 I1 J1 F2000
G2 X129 Y259 Z1 I1 J1 F2000
G1 Z10 F600
M106 S0


;打印前归零
G28 Z


预设加速度，划线准备打印
M204 S5000 ;Call exterior wall print acceleration
G1 X128.5 Y-1.2 F20000
G1 Z0.3 F900
M109 S210
M83
G92 E0 ;Reset Extruder
G1 F6000 
G1 X-1.2 E10.156 ;Draw the first line
G1 Y98.8 E7.934
M73 P3 R32
G1 X-0.5 Y100 E0.1
M73 P3 R32
G1 Y-0.3 E7.934
G1 X78.5 E6.284
G1 F1680 
G1 X98.5 E2
G1 F8400 
G1 X118.5 E2
G1 F1680 
G1 X138.5 E2
G1 F8400 
G1 X158.5 E2
G1 F8400 
G1 X178.5 E2
;End PA test.


G3 I-1 J0 Z0.6 F1200.0 ;Move to side a little
G1 F20000
G92 E0 ;Reset Extruder
;LAYER_COUNT:240
;LAYER:0


G90
G21
M83 ; use relative distances for extrusion
;LAYER_CHANGE
;Z:0.2
;HEIGHT:0.2
;BEFORE_LAYER_CHANGE
;0.2
G92 E0

G1 E-.8 F1800
M73 L1
;LAYER:1
;M204 S2000
;






;_SET_FAN_SPEED_CHANGING_LAYER
M204 S1000
G1 Z.6 F30000
G1 X128.685 Y127.711
G1 Z.6
G1 Z.2
G1 E.8 F1800
;TYPE:Outer wall
;WIDTH:0.5
G1 F3000
G2 X129.04 Y127.078 I-2.033 J-1.557 E.02634
G3 X129.6 Y126.648 I.964 J.677 E.02589
G3 X130.437 Y127.598 I.086 J.768 E.05361
G1 X130.403 Y127.775 E.00653
G2 X129.663 Y129.072 I204.744 J117.594 E.05394
G1 X129.651 Y129.108 E.00136
G2 X129.75 Y129.505 I.395 J.113 E.01549
G3 X130.437 Y130.664 I-63.612 J38.532 E.04869
G3 X130.27 Y131.767 I-.808 J.441 E.04326
G3 X129.153 Y131.686 I-.516 J-.626 E.04465
G3 X128.869 Y131.096 I1.201 J-.943 E.02389
G2 X128.603 Y130.708 I-1.263 J.582 E.01704
G2 X128.448 Y130.961 I.672 J.586 E.01075
G1 X128.447 Y131.109 E.00537
G3 X128.139 Y131.6 I-12.912 J-7.768 E.02094
G3 X126.95 Y131.547 I-.578 J-.381 E.05173
G3 X126.951 Y130.756 I.706 J-.394 E.02983
G1 X127.06 Y130.44 E.01207
G3 X127.461 Y129.667 I5.518 J2.373 E.03151
G2 X127.743 Y129.267 I-11.939 J-8.727 E.01768
G1 X127.738 Y129.254 E.0005
G3 X127.031 Y128.068 I12.753 J-8.408 E.04991
G3 X126.825 Y127.264 I1.114 J-.714 E.03048
G3 X127.475 Y126.65 I.772 J.166 E.03436
G3 X128.165 Y126.884 I.128 J.756 E.02743
G3 X128.372 Y127.221 I-.309 J.421 E.01466
G2 X128.658 Y127.681 I1.645 J-.707 E.01966
G1 E-.728 F1800
;WIPE_START
G1 F30000
G1 X128.84 Y127.492 E-.01576
G1 X128.959 Y127.277 E-.01471
G1 X129.04 Y127.078 E-.01293
G1 X129.111 Y126.975 E-.00749
G1 X129.31 Y126.801 E-.01584
G1 X129.382 Y126.752 E-.00527
;WIPE_END
G1 Z.6
G1 X124.251 Y130.139 Z.6
G1 Z.2
G1 E.8 F1800
G1 F3000
G3 X124.721 Y129.741 I1.023 J.731 E.02247
G3 X125.244 Y129.548 I.484 J.506 E.02071
G3 X126.491 Y130.54 I.126 J1.123 E.06394
G3 X126.369 Y131.497 I-1.772 J.259 E.03527
G3 X125.895 Y132.047 I-.986 J-.371 E.02679
G3 X124.034 Y131.253 I-.632 J-1.096 E.08467
G3 X124.037 Y130.643 I4.934 J-.281 E.02207
G3 X124.228 Y130.172 I1.237 J.228 E.01848
G1 E-.728 F1800
;WIPE_START
G1 F30000
G1 X124.476 Y129.897 E-.0222
G1 X124.721 Y129.741 E-.01741
G1 X124.909 Y129.613 E-.01365
G1 X125.051 Y129.564 E-.00906
G1 X125.212 Y129.551 E-.00968
;WIPE_END
G1 Z.6
G1 X119.304 Y125.656 Z.6
G1 Z.2
G1 E.8 F1800
G1 F3000
G3 X119.907 Y125.219 I.737 J.381 E.02792
G3 X120.226 Y125.184 I.312 J1.389 E.01161
G3 X121.847 Y125.221 I-1.513 J102.028 E.05861
G3 X123.398 Y125.743 I-.082 J2.811 E.05998
G3 X124.409 Y127.629 I-1.911 J2.239 E.07912
G3 X124.368 Y129.215 I-3.87 J.693 E.05774
G2 X124.091 Y130.03 I45.791 J16.035 E.0311
G3 X123.555 Y130.864 I-2.482 J-1.005 E.03604
G3 X122.442 Y131.616 I-1.456 J-.957 E.04979
G3 X120.741 Y131.723 I-1.25 J-6.287 E.06176
G2 X120.006 Y131.767 I2.09 J40.728 E.02662
G3 X119.311 Y131.161 I.032 J-.738 E.03598
G3 X119.262 Y130.762 I1.96 J-.442 E.01454
G2 X119.273 Y126.358 I-200.696 J-2.671 E.15913
G3 X119.293 Y125.695 I1.49 J-.285 E.02416
G1 E-.728 F1800
;WIPE_START
G1 F30000
G1 X119.391 Y125.513 E-.01241
G1 X119.579 Y125.345 E-.01511
G1 X119.725 Y125.274 E-.00974
G1 X119.907 Y125.219 E-.01139
G1 X120.226 Y125.184 E-.01924
G1 X120.294 Y125.185 E-.00412
;WIPE_END
G1 Z.6
G1 X118.356 Y127.985 Z.6
G1 Z.2
G1 E.8 F1800
;TYPE:Inner wall
G1 F3000
G1 X118.439 Y127.829 E.00636
G1 X118.516 Y127.77 E.00351
G1 X118.603 Y127.587 E.00731
G1 X118.817 Y127.636 E.00791
G1 X118.817 Y128.279 E.02322
G1 X118.623 Y128.338 E.00734
G2 X118.382 Y128.015 I-2.827 J1.857 E.01456
G1 X117.596 Y128.002 F30000
;TYPE:Outer wall
G1 F3000
G1 X117.596 Y128.002 E.00002
G3 X118.113 Y128.43 I-.342 J.939 E.02472
G3 X118.352 Y128.837 I-.669 J.667 E.01721
G3 X116.364 Y131.905 I-1.963 J.906 E.15741
G3 X114.795 Y131.53 I-.225 J-2.524 E.0593
G3 X114.468 Y130.213 I.608 J-.85 E.05336
G3 X115.494 Y129.868 I.753 J.543 E.04172
G3 X116.172 Y130.272 I-.615 J1.8 E.02873
G2 X116.587 Y130.211 I.167 J-.304 E.0163
G2 X116.641 Y129.422 I-.365 J-.421 E.03179
G2 X116.023 Y129.028 I-.8 J.573 E.0271
G3 X115.302 Y128.819 I.123 J-1.774 E.02735
G3 X115.086 Y127.953 I.479 J-.579 E.03451
G3 X115.662 Y127.38 I.735 J.162 E.03101
G3 X116.162 Y127.259 I1.402 J4.707 E.01861
G2 X116.466 Y126.793 I-.08 J-.385 E.02233
G2 X116.094 Y126.641 I-.261 J.109 E.01616
G2 X115.631 Y126.89 I.516 J1.52 E.01906
G3 X115.131 Y127.058 I-.827 J-1.63 E.01913
G3 X114.587 Y126.731 I.115 J-.806 E.02355
G3 X114.401 Y126.207 I.58 J-.501 E.02055
G3 X114.79 Y125.449 I.809 J-.064 E.03241
G3 X116.109 Y125.024 I1.358 J1.955 E.0508
G3 X117.46 Y125.26 I.178 J2.961 E.05003
G3 X118.29 Y126.953 I-.659 J1.373 E.07342
G1 X118.223 Y127.322 E.01357
G1 X118.15 Y127.475 E.00612
G2 X118.013 Y127.657 I.135 J.245 E.00848
G3 X117.632 Y127.985 I-.836 J-.585 E.01836
G1 E-.728 F1800
;WIPE_START
G1 F30000
G1 X117.596 Y128.002 E-.00237
G1 X117.753 Y128.075 E-.01035
G1 X117.887 Y128.164 E-.00964
G1 X118 Y128.271 E-.00938
G1 X118.113 Y128.43 E-.01171
G1 X118.167 Y128.479 E-.00436
G1 X118.301 Y128.679 E-.01441
G1 X118.351 Y128.834 E-.0098
;WIPE_END
G1 Z.6
G1 X112.54 Y128.636 Z.6
G1 Z.2
G1 E.8 F1800
;TYPE:Inner wall
G1 F3000
G1 X112.541 Y127.318 E.04761
G2 X113.662 Y127.186 I.201 J-3.119 E.04101
G2 X114.131 Y126.883 I-.592 J-1.433 E.02028
G1 X114.236 Y127.025 E.0064
G2 X114.802 Y127.461 I1.388 J-1.214 E.02596
G2 X114.59 Y128.454 I1.419 J.821 E.03729
G2 X114.921 Y129.096 I1.146 J-.185 E.02653
G1 X115.213 Y129.341 E.01374
G2 X114.356 Y129.66 I.234 J1.936 E.03335
G2 X114.027 Y131.282 I.892 J1.025 E.06427
G2 X115.212 Y132.231 I1.594 J-.777 E.05667
G2 X117.369 Y132.17 I.979 J-3.578 E.07911
G2 X118.774 Y130.862 I-1.107 J-2.598 E.07078
G2 X119.132 Y131.812 I2.147 J-.266 E.03701
G2 X120.217 Y132.219 I.915 J-.789 E.04369
G3 X121.139 Y132.191 I.592 J4.336 E.03336
G2 X122.83 Y131.977 I.209 J-5.151 E.06187
G2 X123.617 Y131.515 I-.689 J-2.07 E.03322
G2 X126.462 Y132.177 I1.635 J-.58 E.12551
G1 X126.661 Y131.975 E.01024
G2 X128.014 Y132.278 I.897 J-.834 E.05325
G2 X128.616 Y131.723 I-.752 J-1.418 E.02989
G2 X129.122 Y132.257 I1.412 J-.832 E.02682
G2 X130.949 Y131.53 I.613 J-1.118 E.08115
G2 X130.746 Y130.27 I-1.574 J-.392 E.0474
G2 X130.1 Y129.206 I-1505.527 J912.934 E.04493
G2 X130.61 Y128.359 I-72.787 J-44.368 E.03573
G3 X131.526 Y130.749 I-59.14 J24.028 E.09247
G3 X131.734 Y131.21 I-7.095 J3.477 E.0183
G2 X131.297 Y132.234 I14.282 J6.708 E.04021
G3 X131.193 Y132.324 I-.176 J-.098 E.00508
G2 X130.522 Y132.551 I.515 J2.625 E.02564
G2 X130.017 Y133.866 I.611 J.989 E.05468
G2 X131.583 Y134.913 I1.331 J-.296 E.07514
G2 X133.259 Y133.913 I-.263 J-2.346 E.07269
G2 X133.695 Y133.025 I-4.817 J-2.915 E.03579
G2 X135.349 Y128.38 I-64 J-25.41 E.17817
G1 X135.617 Y128.568 E.01183
G2 X136.189 Y128.719 I1.306 J-3.782 E.02138
G2 X135.09 Y130.234 I9.039 J7.712 E.06768
G2 X135.291 Y132.06 I1.369 J.774 E.07091
G2 X136.345 Y132.407 I.898 J-.955 E.04139
G3 X137.457 Y132.387 I.69 J7.417 E.04023
G1 X137.52 Y132.57 E.00702
G3 X127.693 Y135.765 I-8.975 J-10.894 E.38222
G1 X104.333 Y134.346 E.84554
G3 X103.435 Y133.365 I.021 J-.921 E.05368
G1 X103.434 Y131.071 E.08289
G2 X104.983 Y132.19 I2.796 J-2.237 E.0699
M73 P4 R32
G2 X107.553 Y132.042 I1.099 J-3.303 E.09527
G2 X108.672 Y130.66 I-1.008 J-1.959 E.06611
G2 X107.505 Y129.246 I-1.308 J-.11 E.07336
G2 X106.275 Y129.731 I-.195 J1.306 E.05002
G3 X105.466 Y129.283 I-.202 J-.591 E.03765
G3 X105.506 Y127.54 I3.036 J-.802 E.06383
G3 X106.089 Y127.185 I.509 J.179 E.02673
G2 X106.909 Y127.625 I2.597 J-3.856 E.03368
G2 X108.485 Y127.014 I.444 J-1.192 E.06678
G2 X109.648 Y127.33 I.912 J-1.058 E.04503
G1 X109.997 Y127.28 E.01273
G2 X109.984 Y128.208 I6.071 J.548 E.03354
G2 X109.99 Y130.495 I112.853 J.846 E.08264
G2 X110.036 Y131.481 I2.149 J.395 E.03597
G2 X111.038 Y132.206 I1.133 J-.511 E.04676
G2 X112.515 Y131.146 I.208 J-1.269 E.07295
G2 X112.539 Y130.321 I-3.202 J-.507 E.02989
G1 X112.54 Y128.676 E.05947
G1 E-.728 F1800
;WIPE_START
G1 F30000
G1 X112.54 Y127.476 E-.072
;WIPE_END
G1 Z.6
G1 X110.384 Y126.887 Z.6
G1 Z.2
G1 E.8 F1800
;TYPE:Outer wall
G1 F3000
G2 X110.055 Y126.819 I-.239 J.324 E.01252
G3 X109.308 Y126.891 I-1.326 J-9.883 E.02712
G3 X108.61 Y126.267 I.023 J-.729 E.03671
G3 X108.598 Y125.744 I1.049 J-.286 E.01911
G3 X109.238 Y125.174 I.785 J.237 E.03259
G3 X109.884 Y125.202 I.21 J2.638 E.02342
G3 X113.317 Y125.199 I2.318 J689.552 E.12402
G3 X113.955 Y126.018 I-.044 J.692 E.04239
G3 X113.348 Y126.808 I-.724 J.071 E.03963
G3 X112.16 Y126.833 I-.686 J-4.18 E.04308
G1 X112.082 Y126.838 E.00282
G3 X112.082 Y130.337 I-454.253 J1.795 E.12641
G3 X112.011 Y131.241 I-1.913 J.303 E.03308
G3 X110.914 Y131.711 I-.783 J-.313 E.04789
G3 X110.411 Y130.907 I.208 J-.689 E.0374
G2 X110.438 Y129.941 I-4.951 J-.625 E.03498
G3 X110.438 Y127.508 I354.203 J-1.281 E.08788
G2 X110.452 Y126.95 I-1.634 J-.32 E.02029
G2 X110.415 Y126.912 I-.306 J.262 E.00189
G1 E-.728 F1800
;WIPE_START
G1 F30000
G1 X110.3 Y126.835 E-.00833
G1 X110.055 Y126.819 E-.0147
G1 X109.485 Y126.888 E-.03449
G1 X109.308 Y126.891 E-.01058
G1 X109.245 Y126.877 E-.0039
;WIPE_END
G1 Z.6
G1 X106.146 Y126.728 Z.6
G1 Z.2
G1 E.8 F1800
G1 F3000
G2 X105.007 Y127.592 I-.1 J1.051 E.05677
G2 X105.085 Y129.572 I3.459 J.855 E.07253
G2 X106.59 Y130.075 I.973 J-.407 E.06491
G3 X107.797 Y129.821 I.733 J.491 E.04932
G3 X108.133 Y130.814 I-.32 J.662 E.04216
G3 X106.536 Y131.88 I-1.748 J-.89 E.07248
G3 X103.971 Y130.975 I-.452 J-2.803 E.10245
G3 X103.369 Y129.483 I1.96 J-1.66 E.05913
G3 X103.409 Y127.14 I9.416 J-1.009 E.08486
G3 X105.962 Y125.025 I2.575 J.509 E.12964
G3 X107.605 Y125.463 I.205 J2.535 E.06266
G3 X108.047 Y125.922 I-1.735 J2.11 E.02308
G3 X108.164 Y126.576 I-1.453 J.597 E.02417
G3 X107.467 Y127.245 I-.858 J-.196 E.03695
G3 X106.686 Y127.011 I.001 J-1.425 E.02987
G2 X106.184 Y126.74 I-1.001 J1.253 E.02072
G1 E-.728 F1800
;WIPE_START
G1 F30000
G1 X105.982 Y126.719 E-.01221
G1 X105.795 Y126.746 E-.01135
G1 X105.608 Y126.809 E-.01184
G1 X105.439 Y126.903 E-.01159
G1 X105.301 Y127.019 E-.0108
G1 X105.188 Y127.164 E-.01102
G1 X105.163 Y127.211 E-.00319
;WIPE_END
G1 Z.6
G1 X139.141 Y126.333 Z.6
G1 Z.2
G1 E.8 F1800
;TYPE:Inner wall
G1 F3000
G2 X138.363 Y126.173 I-.787 J1.846 E.02887
G2 X136.356 Y126.181 I2.089 J764.802 E.07254
G2 X135.387 Y126.515 I.059 J1.74 E.03758
G1 X135.273 Y126.656 E.00655
G2 X134.142 Y126.205 I-.962 J.769 E.046
G2 X133.323 Y126.828 I.407 J1.387 E.03802
G2 X133.048 Y127.365 I2.666 J1.702 E.02184
G2 X132.59 Y126.553 I-1.916 J.546 E.03399
G2 X131.002 Y126.334 I-.95 J1.021 E.06168
G2 X130.647 Y126.642 I.634 J1.091 E.01709
G2 X129.499 Y126.196 I-.963 J.779 E.04658
G2 X128.885 Y126.558 I.547 J1.628 E.02596
G1 X128.673 Y126.761 E.01057
G2 X127.824 Y126.184 I-1.294 J.994 E.03773
G2 X126.439 Y126.945 I-.174 J1.324 E.06106
G2 X126.511 Y128.047 I1.42 J.461 E.04087
G2 X127.192 Y129.251 I15.486 J-7.967 E.05001
G2 X126.796 Y129.949 I3.024 J2.179 E.02902
G2 X125.211 Y129.092 I-1.449 J.786 E.06889
G1 X124.857 Y129.121 E.01283
G2 X124.317 Y126.089 I-4.271 J-.803 E.11372
G2 X122.394 Y124.832 I-2.325 J1.456 E.08564
G2 X120.668 Y124.741 I-1.399 J10.178 E.06252
G2 X119.547 Y124.852 I-.296 J2.73 E.04098
G2 X118.803 Y125.775 I.402 J1.086 E.04499
G1 X118.609 Y125.811 E.00711
G2 X116.858 Y124.606 I-1.967 J.984 E.08016
G2 X114.857 Y124.864 I-.596 J3.269 E.07404
G2 X114.261 Y125.299 I1.213 J2.284 E.02676
G2 X113.133 Y124.736 I-1.037 J.666 E.04784
G2 X109.915 Y124.746 I.147 J615.649 E.11624
G2 X108.933 Y124.776 I-.418 J2.433 E.03576
G2 X108.232 Y125.427 I.532 J1.275 E.03529
G2 X106.366 Y124.573 I-1.968 J1.835 E.07605
G2 X103.433 Y125.886 I-.288 J3.289 E.12124
G1 X103.435 Y123.645 E.08095
G3 X104.34 Y122.654 I.92 J-.069 E.05431
G1 X127.706 Y121.234 E.84575
G3 X129.044 Y121.216 I.897 J17.37 E.04836
G3 X139.269 Y126.16 I-.516 J14.116 E.4223
G1 X139.165 Y126.301 E.00636
G1 E-.728 F1800
;WIPE_START
G1 F30000
G1 X138.826 Y126.217 E-.02095
G1 X138.602 Y126.18 E-.01359
G1 X138.363 Y126.173 E-.01435
G1 X137.978 Y126.174 E-.02312
;WIPE_END
G1 Z.6
G1 X133.083 Y129.047 Z.6
G1 Z.2
G1 E.8 F1800
;TYPE:Outer wall
G1 F3000
G3 X133.301 Y128.369 I5.839 J1.501 E.02575
G3 X133.702 Y127.084 I3.139 J.275 E.04898
G3 X134.235 Y126.658 I.83 J.491 E.02524
G3 X135.027 Y127.245 I.091 J.705 E.03935
G3 X135.045 Y127.77 I-.745 J.289 E.01934
G3 X134.888 Y128.323 I-1.838 J-.225 E.02085
G1 X134.607 Y129.204 E.03342
G3 X133.118 Y133.212 I-65.198 J-21.944 E.15449
G3 X131.168 Y134.459 I-1.794 J-.658 E.08981
G3 X130.434 Y133.498 I.192 J-.907 E.04763
G3 X130.903 Y132.878 I.662 J.014 E.03
G2 X131.462 Y132.701 I-1.34 J-5.215 E.0212
G2 X131.815 Y132.183 I-.508 J-.724 E.02317
G3 X132.184 Y131.304 I20.462 J8.087 E.03444
G2 X132.163 Y131.051 I-.311 J-.101 E.0094
G3 X131.723 Y129.963 I12.959 J-5.871 E.04242
M73 P4 R32
G3 X130.968 Y127.972 I235.925 J-90.62 E.07693
G3 X130.909 Y127.227 I2.081 J-.541 E.02716
G3 X131.382 Y126.669 I.63 J.055 E.02818
G3 X132.565 Y127.415 I.245 J.922 E.05671
G2 X133.024 Y129.008 I8.745 J-1.657 E.05997
G1 X133.052 Y128.991 E.00116
G1 X133.063 Y129.012 E.00085
G1 E-.728 F1800
;WIPE_START
G1 F30000
G1 X133.301 Y128.369 E-.04115
G1 X133.334 Y128.118 E-.01516
G1 X133.398 Y127.864 E-.01569
;WIPE_END
G1 Z.6
G1 X137.601 Y130.303 Z.6
G1 Z.2
G1 E.8 F1800
G1 F3000
G2 X138.22 Y130.264 I.213 J-1.534 E.02255
G3 X139.025 Y130.448 I.096 J1.435 E.03027
G3 X139.248 Y130.72 I-.265 J.444 E.01298
G3 X139.193 Y131.485 I-1.104 J.305 E.02825
G3 X138.574 Y131.822 I-.619 J-.401 E.02657
G3 X136.622 Y131.928 I-1.536 J-10.305 E.07071
G3 X135.883 Y131.906 I-.309 J-2.122 E.02684
