; HEADER_BLOCK_START
; generated by ElegooSlicer 1.1.1.0 on 2024-11-07 at 16:51:23
; total layer number: 115
; filament_density: 1.32
; filament_diameter: 1.75
; max_z_height: 23.00
; HEADER_BLOCK_END







; THUMBNAIL_BLOCK_START

;
; THUMBNAIL_BLOCK_END

; external perimeters extrusion width = 0.42mm
; perimeters extrusion width = 0.45mm
; infill extrusion width = 0.45mm
; solid infill extrusion width = 0.42mm
; top infill extrusion width = 0.42mm
; first layer extrusion width = 0.50mm

; external perimeters extrusion width = 0.42mm
; perimeters extrusion width = 0.45mm
; infill extrusion width = 0.45mm
; solid infill extrusion width = 0.42mm
; top infill extrusion width = 0.42mm
; first layer extrusion width = 0.50mm

; EXECUTABLE_BLOCK_START
EXCLUDE_OBJECT_DEFINE NAME=Cube_id_0_copy_0 CENTER=152.49,117.087 POLYGON=[[140.99,105.587],[163.99,105.587],[163.99,128.587],[140.99,128.587],[140.99,105.587]]
EXCLUDE_OBJECT_DEFINE NAME=Cube_id_1_copy_0 CENTER=78.3356,112.607 POLYGON=[[66.8356,101.107],[89.8356,101.107],[89.8356,124.107],[66.8356,124.107],[66.8356,101.107]]
;TYPE:Custom
;;===== date: 20240520 =====================
M400 ; wait for buffer to clear
;Elegoo Neptune 4 Pro
;initial_filament:PLA
;curr_bed_type=High Temp Plate
M220 S100 ;Set the feed speed to 100%
M221 S100 ;Set the flow rate to 100%
M104 S140
M190 S60
G90
G28 ;home
G1 Z10 F300
G1 X65 Y0.5 F6000
G1 Z0.4 F300
M109 S230
G92 E0 ;Reset Extruder
G1 X165 E30 F400 ;Draw the first line
G1 Z0.6 F120.0 ;Move to side a little
G1 X162 F3000
G92 E0 ;Reset Extruder
;LAYER_COUNT:115
;LAYER:0
G90
G21
M83 ; use relative distances for extrusion
; filament start gcode
M106 S0
;LAYER_CHANGE
;Z:0.2
;HEIGHT:0.2
;0.2
G92 E0

M141 S0

G1 E-.8 F3600
;LAYER:1

;_SET_FAN_SPEED_CHANGING_LAYER
SET_VELOCITY_LIMIT ACCEL=500
SET_VELOCITY_LIMIT SQUARE_CORNER_VELOCITY=5
EXCLUDE_OBJECT_START NAME=Cube_id_0_copy_0
G1 X162.726 Y127.323 F18000
G1 Z.4
G1 Z.2
G1 E.8 F1800
;TYPE:Inner wall
;WIDTH:0.5
G1 F3000
G1 X142.255 Y127.323 E.73962
G1 X142.255 Y106.852 E.73962
G1 X162.726 Y106.852 E.73962
G1 X162.726 Y127.283 E.73817
G1 X163.183 Y127.78 F18000
G1 F3000
G1 X141.798 Y127.78 E.77265
G1 X141.798 Y106.395 E.77265
G1 X163.183 Y106.395 E.77265
G1 X163.183 Y127.74 E.7712
G1 X163.64 Y128.237 F18000
;TYPE:Outer wall
G1 F3000
G1 X141.34 Y128.237 E.80567
G1 X141.34 Y105.937 E.80567
G1 X163.64 Y105.937 E.80567
G1 X163.64 Y128.197 E.80423
G1 E-.56 F3600
;WIPE_START
G1 F18000
G1 X162.44 Y128.2 E-.24
;WIPE_END
G1 Z.6
G1 X161.573 Y107.08
G1 Z.6
G1 Z.2
G1 E.8 F1800
;TYPE:Bottom surface
;WIDTH:0.500493
G1 F4800
G1 X162.292 Y107.8 E.03679
G1 X162.292 Y108.447 E.0234
G1 X161.131 Y107.286 E.05937
G1 X160.484 Y107.286 E.0234
G1 X162.292 Y109.094 E.09247
G1 X162.292 Y109.741 E.0234
G1 X159.837 Y107.286 E.12557
G1 X159.19 Y107.286 E.0234
G1 X162.292 Y110.388 E.15867
G1 X162.292 Y111.035 E.0234
G1 X158.543 Y107.286 E.19177
G1 X157.896 Y107.286 E.0234
G1 X162.292 Y111.682 E.22487
G1 X162.292 Y112.329 E.0234
G1 X157.249 Y107.286 E.25796
G1 X156.602 Y107.286 E.0234
G1 X162.292 Y112.976 E.29106
G1 X162.292 Y113.623 E.0234
G1 X155.954 Y107.286 E.32416
G1 X155.307 Y107.286 E.0234
G1 X162.292 Y114.271 E.35726
G1 X162.292 Y114.918 E.0234
G1 X154.66 Y107.286 E.39036
G1 X154.013 Y107.286 E.0234
G1 X162.292 Y115.565 E.42346
G1 X162.292 Y116.212 E.0234
G1 X153.366 Y107.286 E.45656
G1 X152.719 Y107.286 E.0234
G1 X162.292 Y116.859 E.48966
G1 X162.292 Y117.506 E.0234
G1 X152.072 Y107.286 E.52276
G1 X151.425 Y107.286 E.0234
G1 X162.292 Y118.153 E.55585
G1 X162.292 Y118.8 E.0234
G1 X150.778 Y107.286 E.58895
G1 X150.131 Y107.286 E.0234
G1 X162.292 Y119.447 E.62205
G1 X162.292 Y120.095 E.0234
G1 X149.483 Y107.286 E.65515
G1 X148.836 Y107.286 E.0234
G1 X162.292 Y120.742 E.68825
G1 X162.292 Y121.389 E.0234
G1 X148.189 Y107.286 E.72135
G1 X147.542 Y107.286 E.0234
G1 X162.292 Y122.036 E.75445
G1 X162.292 Y122.683 E.0234
G1 X146.895 Y107.286 E.78755
G1 X146.248 Y107.286 E.0234
G1 X162.292 Y123.33 E.82064
G1 X162.292 Y123.977 E.0234
G1 X145.601 Y107.286 E.85374
G1 X144.954 Y107.286 E.0234
G1 X162.292 Y124.624 E.88684
G1 X162.292 Y125.271 E.0234
G1 X144.307 Y107.286 E.91994
G1 X143.659 Y107.286 E.0234
G1 X162.292 Y125.918 E.95304
G1 X162.292 Y126.566 E.0234
G1 X143.012 Y107.286 E.98614
G1 X142.689 Y107.286 E.0117
G1 X142.689 Y107.609 E.0117
G1 X161.968 Y126.889 E.98613
G1 X161.321 Y126.889 E.0234
G1 X142.689 Y108.257 E.95304
G1 X142.689 Y108.904 E.0234
G1 X160.674 Y126.889 E.91994
G1 X160.027 Y126.889 E.0234
G1 X142.689 Y109.551 E.88684
G1 X142.689 Y110.198 E.0234
G1 X159.38 Y126.889 E.85374
G1 X158.733 Y126.889 E.0234
G1 X142.689 Y110.845 E.82064
G1 X142.689 Y111.492 E.0234
G1 X158.086 Y126.889 E.78754
G1 X157.439 Y126.889 E.0234
G1 X142.689 Y112.139 E.75444
G1 X142.689 Y112.786 E.0234
G1 X156.792 Y126.889 E.72134
G1 X156.145 Y126.889 E.0234
G1 X142.689 Y113.433 E.68825
G1 X142.689 Y114.081 E.0234
G1 X155.497 Y126.889 E.65515
G1 X154.85 Y126.889 E.0234
G1 X142.689 Y114.728 E.62205
G1 X142.689 Y115.375 E.0234
G1 X154.203 Y126.889 E.58895
G1 X153.556 Y126.889 E.0234
G1 X142.689 Y116.022 E.55585
G1 X142.689 Y116.669 E.0234
G1 X152.909 Y126.889 E.52275
G1 X152.262 Y126.889 E.0234
G1 X142.689 Y117.316 E.48965
G1 X142.689 Y117.963 E.0234
G1 X151.615 Y126.889 E.45655
G1 X150.968 Y126.889 E.0234
G1 X142.689 Y118.61 E.42345
G1 X142.689 Y119.257 E.0234
G1 X150.321 Y126.889 E.39036
G1 X149.673 Y126.889 E.0234
G1 X142.689 Y119.904 E.35726
G1 X142.689 Y120.552 E.0234
G1 X149.026 Y126.889 E.32416
G1 X148.379 Y126.889 E.0234
G1 X142.689 Y121.199 E.29106
G1 X142.689 Y121.846 E.0234
G1 X147.732 Y126.889 E.25796
G1 X147.085 Y126.889 E.0234
G1 X142.689 Y122.493 E.22486
G1 X142.689 Y123.14 E.0234
G1 X146.438 Y126.889 E.19176
G1 X145.791 Y126.889 E.0234
G1 X142.689 Y123.787 E.15866
G1 X142.689 Y124.434 E.0234
G1 X145.144 Y126.889 E.12557
G1 X144.497 Y126.889 E.0234
G1 X142.689 Y125.081 E.09247
G1 X142.689 Y125.728 E.0234
G1 X143.85 Y126.889 E.05937
G1 X143.202 Y126.889 E.0234
G1 X142.483 Y126.17 E.03679
G1 E-.56 F3600
;WIPE_START
G1 F18000
G1 X143.202 Y126.889 E-.20344
G1 X143.385 Y126.889 E-.03656
;WIPE_END
EXCLUDE_OBJECT_END NAME=Cube_id_0_copy_0
EXCLUDE_OBJECT_START NAME=Cube_id_1_copy_0
G1 X135.773 Y126.327 Z.6
G1 X88.571 Y122.843 Z.6
G1 Z.2
G1 E.8 F1800
;TYPE:Inner wall
;WIDTH:0.5
G1 F3000
G1 X68.1 Y122.843 E.73962
G1 X68.1 Y102.371 E.73962
G1 X88.571 Y102.371 E.73962
G1 X88.571 Y122.803 E.73817
G1 X89.029 Y123.3 F18000
G1 F3000
G1 X67.643 Y123.3 E.77265
G1 X67.643 Y101.914 E.77265
G1 X89.029 Y101.914 E.77265
G1 X89.029 Y123.26 E.7712
G1 X89.486 Y123.757 F18000
;TYPE:Outer wall
G1 F3000
G1 X67.186 Y123.757 E.80567
G1 X67.186 Y101.457 E.80567
G1 X89.486 Y101.457 E.80567
G1 X89.486 Y123.717 E.80423
G1 E-.56 F3600
;WIPE_START
G1 F18000
G1 X88.286 Y123.719 E-.24
;WIPE_END
G1 X87.972 Y116.093 Z.6
G1 X87.418 Y102.599 Z.6
G1 Z.2
G1 E.8 F1800
;TYPE:Bottom surface
;WIDTH:0.500493
G1 F4800
G1 X88.137 Y103.319 E.03679
G1 X88.137 Y103.966 E.0234
G1 X86.976 Y102.805 E.05937
G1 X86.329 Y102.805 E.0234
G1 X88.137 Y104.613 E.09247
G1 X88.137 Y105.26 E.0234
G1 X85.682 Y102.805 E.12557
G1 X85.035 Y102.805 E.0234
G1 X88.137 Y105.907 E.15867
G1 X88.137 Y106.554 E.0234
G1 X84.388 Y102.805 E.19177
G1 X83.741 Y102.805 E.0234
G1 X88.137 Y107.201 E.22487
G1 X88.137 Y107.849 E.0234
G1 X83.094 Y102.805 E.25796
G1 X82.447 Y102.805 E.0234
G1 X88.137 Y108.496 E.29106
G1 X88.137 Y109.143 E.0234
G1 X81.8 Y102.805 E.32416
G1 X81.153 Y102.805 E.0234
G1 X88.137 Y109.79 E.35726
G1 X88.137 Y110.437 E.0234
G1 X80.505 Y102.805 E.39036
G1 X79.858 Y102.805 E.0234
G1 X88.137 Y111.084 E.42346
G1 X88.137 Y111.731 E.0234
G1 X79.211 Y102.805 E.45656
G1 X78.564 Y102.805 E.0234
G1 X88.137 Y112.378 E.48966
G1 X88.137 Y113.025 E.0234
G1 X77.917 Y102.805 E.52276
G1 X77.27 Y102.805 E.0234
G1 X88.137 Y113.673 E.55585
G1 X88.137 Y114.32 E.0234
G1 X76.623 Y102.805 E.58895
G1 X75.976 Y102.805 E.0234
G1 X88.137 Y114.967 E.62205
G1 X88.137 Y115.614 E.0234
G1 X75.329 Y102.805 E.65515
G1 X74.681 Y102.805 E.0234
G1 X88.137 Y116.261 E.68825
G1 X88.137 Y116.908 E.0234
G1 X74.034 Y102.805 E.72135
G1 X73.387 Y102.805 E.0234
G1 X88.137 Y117.555 E.75445
G1 X88.137 Y118.202 E.0234
G1 X72.74 Y102.805 E.78755
G1 X72.093 Y102.805 E.0234
G1 X88.137 Y118.849 E.82064
G1 X88.137 Y119.496 E.0234
G1 X71.446 Y102.805 E.85374
G1 X70.799 Y102.805 E.0234
G1 X88.137 Y120.144 E.88684
G1 X88.137 Y120.791 E.0234
G1 X70.152 Y102.805 E.91994
G1 X69.505 Y102.805 E.0234
G1 X88.137 Y121.438 E.95304
G1 X88.137 Y122.085 E.0234
G1 X68.858 Y102.805 E.98614
G1 X68.534 Y102.805 E.0117
G1 X68.534 Y103.129 E.0117
G1 X87.814 Y122.408 E.98613
G1 X87.167 Y122.408 E.0234
G1 X68.534 Y103.776 E.95304
G1 X68.534 Y104.423 E.0234
G1 X86.519 Y122.408 E.91994
G1 X85.872 Y122.408 E.0234
G1 X68.534 Y105.07 E.88684
G1 X68.534 Y105.717 E.0234
G1 X85.225 Y122.408 E.85374
G1 X84.578 Y122.408 E.0234
G1 X68.534 Y106.364 E.82064
G1 X68.534 Y107.011 E.0234
G1 X83.931 Y122.408 E.78754
G1 X83.284 Y122.408 E.0234
G1 X68.534 Y107.659 E.75444
G1 X68.534 Y108.306 E.0234
G1 X82.637 Y122.408 E.72134
G1 X81.99 Y122.408 E.0234
G1 X68.534 Y108.953 E.68825
G1 X68.534 Y109.6 E.0234
G1 X81.343 Y122.408 E.65515
G1 X80.695 Y122.408 E.0234
G1 X68.534 Y110.247 E.62205
G1 X68.534 Y110.894 E.0234
G1 X80.048 Y122.408 E.58895
G1 X79.401 Y122.408 E.0234
G1 X68.534 Y111.541 E.55585
G1 X68.534 Y112.188 E.0234
G1 X78.754 Y122.408 E.52275
G1 X78.107 Y122.408 E.0234
G1 X68.534 Y112.835 E.48965
G1 X68.534 Y113.482 E.0234
G1 X77.46 Y122.408 E.45655
G1 X76.813 Y122.408 E.0234
G1 X68.534 Y114.13 E.42345
G1 X68.534 Y114.777 E.0234
G1 X76.166 Y122.408 E.39036
G1 X75.519 Y122.408 E.0234
G1 X68.534 Y115.424 E.35726
G1 X68.534 Y116.071 E.0234
G1 X74.872 Y122.408 E.32416
G1 X74.224 Y122.408 E.0234
G1 X68.534 Y116.718 E.29106
G1 X68.534 Y117.365 E.0234
G1 X73.577 Y122.408 E.25796
G1 X72.93 Y122.408 E.0234
G1 X68.534 Y118.012 E.22486
G1 X68.534 Y118.659 E.0234
G1 X72.283 Y122.408 E.19176
G1 X71.636 Y122.408 E.0234
G1 X68.534 Y119.306 E.15866
G1 X68.534 Y119.954 E.0234
G1 X70.989 Y122.408 E.12557
G1 X70.342 Y122.408 E.0234
G1 X68.534 Y120.601 E.09247
G1 X68.534 Y121.248 E.0234
G1 X69.695 Y122.408 E.05937
G1 X69.048 Y122.408 E.0234
G1 X68.328 Y121.689 E.03679
M106 S212
;LAYER_CHANGE
;Z:0.4
;HEIGHT:0.2
;0.4
G92 E0

M141 S0

G1 E-.56 F3600
;WIPE_START
G1 F18000
G1 X69.048 Y122.408 E-.20344
G1 X69.23 Y122.408 E-.03656
;WIPE_END
EXCLUDE_OBJECT_END NAME=Cube_id_1_copy_0
;LAYER:2

;_SET_FAN_SPEED_CHANGING_LAYER
SET_VELOCITY_LIMIT ACCEL=1000
; No need to reheat.
EXCLUDE_OBJECT_START NAME=Cube_id_0_copy_0
;G17
G3 Z.6 I-.067 J1.215
G1 X162.981 Y127.578 Z.6
G1 Z.4
G1 E.8 F1800
;TYPE:Inner wall
;WIDTH:0.45
G1 F9600
G1 X142 Y127.578 E.67512
G1 X142 Y106.597 E.67512
G1 X162.981 Y106.597 E.67512
G1 X162.981 Y127.538 E.67383
G1 E-.56 F3600
;WIPE_START
G1 F18000
G1 X161.781 Y127.541 E-.24
;WIPE_END
G1 X163.78 Y128.377 Z.8
G1 Z.4
G1 E.8 F1800
;TYPE:Outer wall
;WIDTH:0.42
G1 F4800
G1 X141.2 Y128.377 E.67301
G1 X141.2 Y105.797 E.67301
G1 X163.78 Y105.797 E.67301
G1 X163.78 Y128.337 E.67181
G1 X163.388 Y127.985 F18000
;TYPE:Inner wall
;WIDTH:0.45
G1 F9600
G1 X141.593 Y127.985 E.70132
G1 X141.593 Y106.19 E.70132
G1 X163.388 Y106.19 E.70132
G1 X163.388 Y127.945 E.70003
G1 E-.56 F3600
;WIPE_START
G1 F18000
G1 X162.188 Y127.948 E-.24
;WIPE_END
G1 Z.8
G1 X162.818 Y126.65
G1 Z.8
G1 Z.4
G1 E.8 F1800
;TYPE:Internal solid infill
;WIDTH:0.421016
G1 F7200
G1 X162.223 Y127.245 E.02514
G1 X161.688 Y127.245 E.01598
G1 X162.648 Y126.285 E.04056
G1 X162.648 Y125.751 E.01598
G1 X161.154 Y127.245 E.06316
G1 X160.619 Y127.245 E.01598
G1 X162.648 Y125.216 E.08576
G1 X162.648 Y124.681 E.01598
G1 X160.084 Y127.245 E.10836
G1 X159.549 Y127.245 E.01598
G1 X162.648 Y124.146 E.13096
G1 X162.648 Y123.612 E.01598
G1 X159.015 Y127.245 E.15356
G1 X158.48 Y127.245 E.01598
G1 X162.648 Y123.077 E.17616
G1 X162.648 Y122.542 E.01598
G1 X157.945 Y127.245 E.19876
G1 X157.411 Y127.245 E.01598
G1 X162.648 Y122.008 E.22136
G1 X162.648 Y121.473 E.01598
G1 X156.876 Y127.245 E.24396
G1 X156.341 Y127.245 E.01598
G1 X162.648 Y120.938 E.26656
G1 X162.648 Y120.404 E.01598
G1 X155.806 Y127.245 E.28916
G1 X155.272 Y127.245 E.01598
G1 X162.648 Y119.869 E.31176
G1 X162.648 Y119.334 E.01598
G1 X154.737 Y127.245 E.33436
G1 X154.202 Y127.245 E.01598
G1 X162.648 Y118.799 E.35696
G1 X162.648 Y118.265 E.01598
G1 X153.668 Y127.245 E.37955
G1 X153.133 Y127.245 E.01598
G1 X162.648 Y117.73 E.40215
G1 X162.648 Y117.195 E.01598
G1 X152.598 Y127.245 E.42475
G1 X152.064 Y127.245 E.01598
G1 X162.648 Y116.661 E.44735
G1 X162.648 Y116.126 E.01598
G1 X151.529 Y127.245 E.46995
G1 X150.994 Y127.245 E.01598
G1 X162.648 Y115.591 E.49255
G1 X162.648 Y115.056 E.01598
G1 X150.459 Y127.245 E.51515
G1 X149.925 Y127.245 E.01598
G1 X162.648 Y114.522 E.53775
G1 X162.648 Y113.987 E.01598
G1 X149.39 Y127.245 E.56035
G1 X148.855 Y127.245 E.01598
G1 X162.648 Y113.452 E.58295
G1 X162.648 Y112.918 E.01598
G1 X148.321 Y127.245 E.60555
G1 X147.786 Y127.245 E.01598
G1 X162.648 Y112.383 E.62815
G1 X162.648 Y111.848 E.01598
G1 X147.251 Y127.245 E.65075
G1 X146.716 Y127.245 E.01598
G1 X162.648 Y111.313 E.67335
G1 X162.648 Y110.779 E.01598
G1 X146.182 Y127.245 E.69595
G1 X145.647 Y127.245 E.01598
G1 X162.648 Y110.244 E.71854
G1 X162.648 Y109.709 E.01598
G1 X145.112 Y127.245 E.74114
G1 X144.578 Y127.245 E.01598
G1 X162.648 Y109.175 E.76374
G1 X162.648 Y108.64 E.01598
G1 X144.043 Y127.245 E.78634
G1 X143.508 Y127.245 E.01598
G1 X162.648 Y108.105 E.80894
G1 X162.648 Y107.571 E.01598
G1 X142.973 Y127.245 E.83154
G1 X142.439 Y127.245 E.01598
G1 X162.648 Y107.036 E.85414
G1 X162.648 Y106.93 E.00316
G1 X162.219 Y106.93 E.01282
G1 X142.333 Y126.816 E.84049
G1 X142.333 Y126.282 E.01598
G1 X161.684 Y106.93 E.81789
G1 X161.15 Y106.93 E.01598
G1 X142.333 Y125.747 E.79529
G1 X142.333 Y125.212 E.01598
G1 X160.615 Y106.93 E.77269
G1 X160.08 Y106.93 E.01598
G1 X142.333 Y124.677 E.75009
G1 X142.333 Y124.143 E.01598
G1 X159.546 Y106.93 E.7275
G1 X159.011 Y106.93 E.01598
G1 X142.333 Y123.608 E.7049
G1 X142.333 Y123.073 E.01598
G1 X158.476 Y106.93 E.6823
G1 X157.942 Y106.93 E.01598
G1 X142.333 Y122.539 E.6597
G1 X142.333 Y122.004 E.01598
G1 X157.407 Y106.93 E.6371
G1 X156.872 Y106.93 E.01598
G1 X142.333 Y121.469 E.6145
G1 X142.333 Y120.934 E.01598
G1 X156.337 Y106.93 E.5919
G1 X155.803 Y106.93 E.01598
G1 X142.333 Y120.4 E.5693
G1 X142.333 Y119.865 E.01598
G1 X155.268 Y106.93 E.5467
G1 X154.733 Y106.93 E.01598
G1 X142.333 Y119.33 E.5241
G1 X142.333 Y118.796 E.01598
G1 X154.199 Y106.93 E.5015
G1 X153.664 Y106.93 E.01598
G1 X142.333 Y118.261 E.4789
G1 X142.333 Y117.726 E.01598
G1 X153.129 Y106.93 E.4563
G1 X152.594 Y106.93 E.01598
G1 X142.333 Y117.191 E.4337
G1 X142.333 Y116.657 E.01598
G1 X152.06 Y106.93 E.4111
G1 X151.525 Y106.93 E.01598
G1 X142.333 Y116.122 E.38851
G1 X142.333 Y115.587 E.01598
G1 X150.99 Y106.93 E.36591
G1 X150.456 Y106.93 E.01598
G1 X142.333 Y115.053 E.34331
G1 X142.333 Y114.518 E.01598
G1 X149.921 Y106.93 E.32071
G1 X149.386 Y106.93 E.01598
G1 X142.333 Y113.983 E.29811
G1 X142.333 Y113.449 E.01598
G1 X148.851 Y106.93 E.27551
G1 X148.317 Y106.93 E.01598
G1 X142.333 Y112.914 E.25291
G1 X142.333 Y112.379 E.01598
G1 X147.782 Y106.93 E.23031
G1 X147.247 Y106.93 E.01598
G1 X142.333 Y111.844 E.20771
G1 X142.333 Y111.31 E.01598
G1 X146.713 Y106.93 E.18511
G1 X146.178 Y106.93 E.01598
G1 X142.333 Y110.775 E.16251
G1 X142.333 Y110.24 E.01598
G1 X145.643 Y106.93 E.13991
G1 X145.109 Y106.93 E.01598
G1 X142.333 Y109.706 E.11731
G1 X142.333 Y109.171 E.01598
G1 X144.574 Y106.93 E.09471
G1 X144.039 Y106.93 E.01598
G1 X142.333 Y108.636 E.07211
G1 X142.333 Y108.101 E.01598
G1 X143.504 Y106.93 E.04951
G1 X142.97 Y106.93 E.01598
G1 X142.163 Y107.736 E.03409
G1 X142.428 Y106.957 F18000
;WIDTH:0.442592
G1 F7200
G1 X142.353 Y107 E.00273
G1 X142.433 Y107.035 E.00275
G1 E-.76527 F3600
;WIPE_START
G1 F18000
G1 X142.353 Y107 E-.01742
G1 X142.428 Y106.957 E-.01731
;WIPE_END
EXCLUDE_OBJECT_END NAME=Cube_id_0_copy_0
EXCLUDE_OBJECT_START NAME=Cube_id_1_copy_0
G1 X135.12 Y109.157 Z.8
G1 X88.826 Y123.098 Z.8
G1 Z.4
