; HEADER_BLOCK_START
; generated by ElegooSlicer 1.1.8.2 on 2025-03-13 at 15:09:03
; total layer number: 192
; filament_density: 1.25
; filament_diameter: 1.75
; max_z_height: 48.00
; HEADER_BLOCK_END



; THUMBNAIL_BLOCK_START

;
; THUMBNAIL_BLOCK_END

; external perimeters extrusion width = 0.45mm
; perimeters extrusion width = 0.50mm
; infill extrusion width = 0.45mm
; solid infill extrusion width = 0.42mm
; top infill extrusion width = 0.42mm
; first layer extrusion width = 0.50mm

; EXECUTABLE_BLOCK_START
M73 P0 R21
M201 X20000 Y20000 Z500 E5000
M203 X500 Y500 Z20 E30
M204 P20000 R5000 T20000
M205 X20.00 Y20.00 Z3.00 E2.50 ; sets the jerk limits, mm/sec
M106 S0
M106 P2 S0
;TYPE:Custom
M400 ; wait for buffer to clear
M220 S100 ;Set the feed speed to 100%
M221 S100 ;Set the flow rate to 100%
M104 S140
M190 S60
G90
G28 ;home
M204 S10000

;加热，同时移动到废料桶位置，挤出110mm
M104 S250
G1 Z10 F600
G1 X202 Y250 F20000
G1 Y264.5 F3000
M109 S250
M83
G92 E0
G1 E10 F150 
M400
G1 E10 F300
M400
G4 P2000
G1 E10 F150
M73 P0 R20
M400
M73 P0 R20
G1 E10 F300
M400
G4 P2000
G1 E10 F150
M73 P1 R20
M400
M73 P1 R20
G1 E10 F300
M400
G4 P2000
G1 E10 F150
M400
G1 E10 F300
M400
G4 P2000
G1 E10 F150
M73 P2 R20
M104 S180
M400
M73 P2 R20
G1 E10 F300
M400
G4 P2000
G1 E10 F150
M400

;开启风扇，降温
M106 S250
M109 S180
M104 S140
;刮掉废料
G1 X188 F20000
G1 Y256
G1 X202
G1 Y264.5 F1000
G1 X188 F20000
G1 Y256
G1 X202
G1 Y264.5 F1000
G1 X188 F20000
G1 Y256
G1 X202
G1 Y264.5 F1000

;擦嘴
M204 S10000
G1 X176 F6000
M73 P3 R20
M73 P3 R20
G1 Y263
G3 I2 J0 F3000
G3 I2 J0 F3000
G3 I2 J0 F3000
G3 I2 J0 F3000
G3 I2 J0 F3000
G1 X176 F15000
G1 X185
G1 X170
G1 X185
G1 X170
G1 X180
G1 X176
G3 I2 J0 F3000
G3 I2 J0 F3000
G3 I2 J0 F3000
G3 I2 J0 F3000
G3 I2 J0 F3000


;移动到床后中位置，研磨喷嘴
M400
G1 X128 Y259 Z0 F3000

G2 X129 Y259 I1 J1 F2000
G2 X129 Y259 I1 J1 F2000
G2 X129 Y259 I1 J1 F2000
G2 X129 Y259 Z1 I1 J1 F2000

G1 X128 Y259 Z1 F30000
G1 Z0 F300
G1 X130 F120
G1 X126 
G1 X130
G1 X126 
G1 X130
M73 P4 R20
M73 P4 R20
G1 X126 
G1 X130
M109 S140
M106 S150

G2 X129 Y259 I1 J1 F2000
G2 X129 Y259 I1 J1 F2000
G2 X129 Y259 I1 J1 F2000
G2 X129 Y259 Z1 I1 J1 F2000
G1 Z10 F600
M106 S0


;打印前归零
G28 Z


预设加速度，划线准备打印
M204 S8000 ;Call exterior wall print acceleration
G1 X128.5 Y-1.2 F20000
G1 Z0.3 F900
M109 S220
M83
G92 E0 ;Reset Extruder
G1 F6000 
G1 X-1.2 E10.156 ;Draw the first line
G1 Y98.8 E7.934
G1 X-0.5 Y100 E0.1
G1 Y-0.3 E7.934
G1 X78.5 E6.284
M73 P5 R20
G1 F2400 
M73 P5 R20
G1 X98.5 E2
G1 F12000 
G1 X118.5 E2
G1 F2400 
G1 X138.5 E2
G1 F12000 
G1 X158.5 E2
G1 F12000 
G1 X178.5 E2
;End PA test.


G3 I-1 J0 Z0.6 F1200.0 ;Move to side a little
G1 F20000
G92 E0 ;Reset Extruder
;LAYER_COUNT:192
;LAYER:0


G90
G21
M83 ; use relative distances for extrusion
;LAYER_CHANGE
;Z:0.25
;HEIGHT:0.25
;BEFORE_LAYER_CHANGE
;0.25
G92 E0

G1 E-.8 F1800
M73 L1
;LAYER:1
;M204 S2000
;






;_SET_FAN_SPEED_CHANGING_LAYER
M204 S1000
M205 X12 Y12
G1 Z.65 F30000
G1 X141.283 Y128.368
G1 Z.65
G1 Z.25
G1 E.8 F1800
;TYPE:Outer wall
;WIDTH:0.5
G1 F3000
M73 P5 R19
G3 X141.164 Y128.992 I-1.001 J.132 E.0285
M73 P5 R19
G3 X139.905 Y130.894 I-21.713 J-13.007 E.10063
G3 X139.533 Y131.426 I-1.501 J-.654 E.02881
G3 X138.654 Y132.314 I-8.639 J-7.672 E.05513
G2 X137.478 Y133.214 I12.19 J17.135 E.06531
G3 X127.661 Y136.239 I-8.951 J-11.604 E.46288
G1 X104.292 Y134.815 E1.03253
G3 X102.966 Y133.38 I.054 J-1.38 E.09572
G2 X102.941 Y129.955 I-70.112 J-1.193 E.15107
G3 X102.935 Y127.055 I16.553 J-1.485 E.12804
G2 X102.965 Y126.066 I-16.108 J-.982 E.04366
G1 X102.966 Y123.629 E.10747
G3 X104.292 Y122.185 I1.381 J-.062 E.09609
G1 X127.681 Y120.759 E1.03339
G3 X129.06 Y120.741 I.921 J17.885 E.06087
G3 X141.196 Y128.07 I-.529 J14.588 E.65285
G3 X141.278 Y128.328 I-.914 J.429 E.01197
G1 X140.844 Y128.435 F30000
;TYPE:Inner wall
G1 F3000
G1 X140.848 Y128.486 E.00226
G3 X140.774 Y128.775 I-.57 J.008 E.01331
G3 X139.638 Y130.485 I-19.175 J-11.5 E.09055
G1 X139.491 Y130.239 E.01264
G2 X138.511 Y129.801 I-1.275 J1.537 E.04791
G2 X139.526 Y128.374 I-16.665 J-12.926 E.07722
G2 X139.652 Y126.925 I-1.616 J-.871 E.06596
G1 X139.852 Y126.83 E.00977
G1 X140.041 Y127.088 E.0141
G3 X140.834 Y128.369 I-6.42 J4.855 E.06655
G1 X140.838 Y128.395 E.00115
G1 E-.728 F1800
;WIPE_START
G1 F30000
G1 X140.848 Y128.486 E-.00547
G1 X140.841 Y128.599 E-.00681
G1 X140.774 Y128.775 E-.01129
G1 X140.357 Y129.452 E-.04768
G1 X140.35 Y129.462 E-.00074
;WIPE_END
G1 Z.65
G1 X137.604 Y130.301 Z.65
G1 Z.25
G1 E.8 F1800
;TYPE:Outer wall
G1 F3000
G2 X138.222 Y130.259 I.202 J-1.622 E.02749
G3 X139.019 Y130.444 I.086 J1.443 E.03659
G3 X139.275 Y130.941 I-.21 J.422 E.02638
G3 X138.574 Y131.822 I-.689 J.171 E.05732
G3 X137.867 Y131.915 I-.991 J-4.818 E.03148
G3 X136.622 Y131.928 I-1.07 J-43.081 E.05488
G3 X135.883 Y131.906 I-.308 J-2.122 E.03276
G3 X135.346 Y131.062 I.361 J-.822 E.04682
G3 X135.685 Y130.132 I1.506 J.022 E.04448
G3 X136.97 Y128.515 I17.736 J12.787 E.09111
G1 X137.126 Y128.235 E.01414
G2 X136.256 Y128.266 I-.287 J4.128 E.03847
G3 X135.824 Y128.154 I.545 J-2.989 E.0197
G3 X135.507 Y127.667 I.285 J-.532 E.02672
G3 X135.586 Y126.992 I1.197 J-.203 E.0304
G3 X135.987 Y126.712 I.587 J.414 E.02198
G3 X136.565 Y126.631 I.564 J1.923 E.02586
G1 X137.974 Y126.636 E.06214
G3 X138.809 Y126.689 I.238 J2.848 E.03703
G3 X139.303 Y127.399 I-.298 J.734 E.04033
G3 X139.01 Y128.358 I-1.389 J.101 E.04527
G3 X137.749 Y129.977 I-9.18 J-5.85 E.09062
G3 X137.625 Y130.267 I-.978 J-.245 E.01397
G1 E-.728 F1800
;WIPE_START
G1 F30000
G1 X137.964 Y130.306 E-.02043
G1 X138.222 Y130.259 E-.01572
G1 X138.618 Y130.286 E-.02382
G1 X138.81 Y130.344 E-.01202
;WIPE_END
G1 Z.65
G1 X133.083 Y129.047 Z.65
G1 Z.25
G1 E.8 F1800
G1 F3000
G3 X133.301 Y128.369 I5.834 J1.499 E.03138
G3 X133.701 Y127.084 I3.114 J.265 E.05984
G3 X134.234 Y126.657 I.838 J.499 E.0308
G3 X135.02 Y127.185 I.087 J.718 E.0455
G3 X135.043 Y127.842 I-1.069 J.367 E.0294
G3 X134.607 Y129.205 I-20.624 J-5.858 E.06312
G3 X133.118 Y133.212 I-65.211 J-21.95 E.18857
G3 X131.168 Y134.459 I-1.794 J-.658 E.10962
G3 X130.434 Y133.498 I.192 J-.907 E.05813
G3 X130.903 Y132.878 I.662 J.014 E.03662
G2 X131.462 Y132.701 I-1.34 J-5.216 E.02588
G2 X131.815 Y132.183 I-.508 J-.725 E.02828
G3 X132.184 Y131.304 I20.461 J8.086 E.04204
G2 X132.163 Y131.051 I-.311 J-.101 E.01147
G3 X131.723 Y129.963 I12.959 J-5.871 E.05178
G3 X130.967 Y127.974 I515.009 J-197.002 E.09385
G3 X130.903 Y127.224 I2.01 J-.547 E.03339
G3 X131.382 Y126.667 I.639 J.066 E.03445
G3 X132.565 Y127.414 I.243 J.925 E.06923
G2 X133.024 Y129.008 I10.443 J-2.145 E.0732
G1 X133.052 Y128.991 E.00141
G1 X133.063 Y129.012 E.00104
G1 E-.728 F1800
;WIPE_START
G1 F30000
G1 X133.301 Y128.369 E-.04109
G1 X133.332 Y128.118 E-.0152
G1 X133.396 Y127.864 E-.01571
;WIPE_END
G1 Z.65
G1 X139.235 Y126.405 Z.65
G1 Z.25
G1 E.8 F1800
;TYPE:Inner wall
G1 F3000
G2 X138.363 Y126.183 I-.784 J1.259 E.04028
M73 P6 R19
G2 X136.358 Y126.191 I1.793 J704.944 E.08843
G2 X135.399 Y126.516 I.048 J1.724 E.04532
G1 X135.273 Y126.669 E.00875
G2 X134.142 Y126.215 I-.965 J.769 E.05622
G2 X133.331 Y126.834 I.415 J1.385 E.04599
G2 X133.047 Y127.39 I2.868 J1.817 E.02758
G2 X132.734 Y126.729 I-2.28 J.675 E.03236
G2 X130.896 Y126.411 I-1.091 J.835 E.0904
G2 X130.647 Y126.655 I.704 J.969 E.01542
G2 X129.825 Y126.188 I-1.026 J.849 E.04264
G1 X129.503 Y126.206 E.0142
G2 X128.89 Y126.568 I.503 J1.554 E.03167
G1 X128.673 Y126.776 E.01325
G2 X127.792 Y126.195 I-1.238 J.917 E.04752
G2 X126.381 Y127.194 I-.16 J1.269 E.08368
G2 X126.638 Y128.28 I1.774 J.154 E.05006
G2 X127.205 Y129.251 I22.478 J-12.474 E.04963
G2 X126.797 Y129.968 I3.127 J2.257 E.03643
G2 X125.384 Y129.09 I-1.48 J.806 E.07672
G2 X124.843 Y129.138 I.518 J8.939 E.02396
G2 X124.308 Y126.095 I-4.255 J-.82 E.1393
G2 X122.392 Y124.842 I-2.316 J1.45 E.10415
G2 X120.668 Y124.752 I-1.397 J10.168 E.07625
G2 X119.552 Y124.862 I-.295 J2.719 E.04982
G2 X118.808 Y125.816 I.399 J1.078 E.05615
G1 X118.619 Y125.85 E.00848
G2 X116.856 Y124.617 I-1.98 J.954 E.09914
G2 X114.998 Y124.811 I-.564 J3.579 E.08332
G2 X114.259 Y125.313 I1.041 J2.329 E.03958
G2 X113.132 Y124.747 I-1.029 J.644 E.05849
G2 X109.915 Y124.756 I.345 J665.795 E.14189
G2 X108.939 Y124.785 I-.418 J2.414 E.04333
G2 X108.233 Y125.441 I.517 J1.263 E.04345
G2 X106.109 Y124.576 I-1.994 J1.857 E.10442
G2 X103.411 Y125.929 I-.078 J3.211 E.13853
G1 X103.412 Y123.636 E.10111
G3 X104.326 Y122.63 I.934 J-.07 E.06709
G1 X127.703 Y121.205 E1.03287
G3 X129.043 Y121.188 I.898 J17.424 E.0591
G3 X139.376 Y126.234 I-.515 J14.159 E.52221
G1 X139.26 Y126.374 E.00805
G1 E-.728 F1800
;WIPE_START
G1 F30000
G1 X139.081 Y126.32 E-.01126
G1 X138.823 Y126.228 E-.01639
G1 X138.601 Y126.191 E-.01351
G1 X138.363 Y126.183 E-.01429
G1 X138.087 Y126.185 E-.01656
;WIPE_END
G1 Z.65
G1 X107.721 Y127.167 Z.65
G1 Z.25
G1 E.8 F1800
;TYPE:Outer wall
G1 F3000
G1 X107.467 Y127.245 E.0117
G3 X106.686 Y127.011 I.002 J-1.425 E.03647
G2 X106.146 Y126.728 I-1.001 J1.252 E.02706
G2 X105.007 Y127.592 I-.1 J1.051 E.06929
G2 X105.085 Y129.572 I3.459 J.855 E.08854
G2 X106.59 Y130.075 I.973 J-.407 E.07923
G3 X107.797 Y129.821 I.733 J.491 E.0602
G3 X108.133 Y130.814 I-.32 J.662 E.05146
G3 X106.536 Y131.88 I-1.748 J-.89 E.08848
G3 X103.972 Y130.975 I-.452 J-2.804 E.12505
G3 X103.333 Y129.178 I2.142 J-1.773 E.08582
G3 X103.402 Y127.134 I10.782 J-.66 E.09035
G3 X105.962 Y125.025 I2.588 J.534 E.15811
G3 X107.781 Y125.612 I.212 J2.456 E.08658
G3 X108.046 Y125.913 I-2.191 J2.193 E.01771
G3 X108.168 Y126.584 I-1.383 J.598 E.03031
G3 X107.747 Y127.142 I-.864 J-.214 E.0317
G1 E-.728 F1800
;WIPE_START
G1 F30000
G1 X107.467 Y127.245 E-.01789
G1 X107.307 Y127.246 E-.00965
G1 X107.052 Y127.19 E-.01566
G1 X106.686 Y127.011 E-.02441
G1 X106.624 Y126.972 E-.0044
;WIPE_END
G1 Z.65
G1 X110.412 Y126.895 Z.65
G1 Z.25
G1 E.8 F1800
G1 F3000
G2 X109.873 Y126.836 I-.341 J.638 E.02451
G3 X109.059 Y126.838 I-.41 J-1.505 E.03631
G3 X108.591 Y126.195 I.277 J-.693 E.03698
G3 X109.239 Y125.173 I.795 J-.213 E.05993
G3 X109.884 Y125.202 I.208 J2.637 E.02857
G3 X113.315 Y125.198 I2.472 J765.333 E.15132
G3 X113.96 Y126.018 I-.042 J.697 E.05194
M73 P6 R19
G3 X113.697 Y126.653 I-.744 J.064 E.03151
G3 X112.846 Y126.859 I-.792 J-1.409 E.03909
G2 X112.082 Y126.838 I-4.715 J153.583 E.03373
G3 X112.082 Y130.337 I-454.524 J1.795 E.15431
G3 X112.011 Y131.241 I-1.913 J.303 E.04038
G3 X110.914 Y131.711 I-.783 J-.313 E.05845
G3 X110.411 Y130.907 I.208 J-.689 E.04565
G2 X110.438 Y129.941 I-4.951 J-.625 E.04269
G3 X110.438 Y127.508 I353.957 J-1.281 E.10727
G2 X110.443 Y126.933 I-1.461 J-.3 E.02552
G1 X110.437 Y126.926 E.00042
G1 E-.728 F1800
;WIPE_START
G1 F30000
G1 X110.328 Y126.845 E-.00817
G1 X110.221 Y126.821 E-.00654
G1 X109.873 Y126.836 E-.02091
G1 X109.485 Y126.888 E-.02349
G1 X109.309 Y126.892 E-.01056
G1 X109.271 Y126.884 E-.00234
;WIPE_END
G1 Z.65
G1 X112.529 Y128.631 Z.65
G1 Z.25
G1 E.8 F1800
;TYPE:Inner wall
G1 F3000
G1 X112.53 Y127.299 E.05873
G2 X113.658 Y127.178 I.281 J-2.686 E.05042
G2 X114.132 Y126.871 I-.597 J-1.443 E.02506
G1 X114.239 Y127.018 E.00803
G2 X114.814 Y127.457 I1.378 J-1.207 E.0321
G2 X114.642 Y128.624 I1.303 J.788 E.05341
G2 X114.929 Y129.088 I1.103 J-.361 E.02429
G1 X115.263 Y129.369 E.01925
G2 X114.173 Y129.858 I.017 J1.496 E.05417
G2 X114.531 Y131.89 I1.186 J.839 E.10121
G2 X116.38 Y132.351 I1.607 J-2.506 E.08557
G2 X118.557 Y131.189 I.012 J-2.598 E.11338
G1 X118.779 Y130.834 E.01848
G2 X119.14 Y131.805 I2.193 J-.263 E.04611
G2 X120.217 Y132.208 I.907 J-.783 E.05288
G3 X121.139 Y132.18 I.592 J4.344 E.04076
G2 X122.826 Y131.967 I.208 J-5.145 E.07536
G2 X123.616 Y131.501 I-.699 J-2.086 E.04076
G2 X124.117 Y132.238 I2.099 J-.888 E.03956
G2 X126.372 Y132.246 I1.132 J-1.314 E.10824
G1 X126.677 Y131.955 E.01859
G2 X128.016 Y132.267 I.888 J-.782 E.0647
G2 X128.617 Y131.706 I-.791 J-1.452 E.03663
G2 X129.128 Y132.25 I1.421 J-.824 E.03319
G2 X130.939 Y131.527 I.606 J-1.112 E.09816
G2 X130.736 Y130.275 I-1.563 J-.389 E.05747
G2 X130.088 Y129.207 I-749.785 J454.456 E.05511
G2 X130.609 Y128.33 I-38.522 J-23.477 E.04498
G3 X131.536 Y130.745 I-56.719 J23.158 E.11408
G3 X131.746 Y131.211 I-7.164 J3.509 E.02255
G2 X131.306 Y132.239 I14.395 J6.764 E.04934
G3 X131.196 Y132.334 I-.185 J-.104 E.00652
G2 X130.528 Y132.56 I.512 J2.618 E.03121
G2 X130.027 Y133.864 I.606 J.98 E.06615
G2 X131.582 Y134.902 I1.32 J-.293 E.09103
G2 X133.25 Y133.907 I-.262 J-2.335 E.08831
G2 X133.685 Y133.021 I-4.808 J-2.909 E.0436
G2 X135.343 Y128.369 I-64.856 J-25.742 E.21785
G1 X135.627 Y128.56 E.0151
G2 X136.205 Y128.713 I1.331 J-3.848 E.0264
G2 X135.1 Y130.238 I9.243 J7.862 E.08315
G2 X135.299 Y132.053 I1.359 J.769 E.08597
G2 X136.345 Y132.396 I.89 J-.947 E.05013
G3 X137.524 Y132.373 I1.029 J22.364 E.05201
G1 X137.591 Y132.553 E.00848
G3 X127.686 Y135.794 I-9.074 J-10.975 E.47055
G1 X104.326 Y134.37 E1.0321
G3 X103.413 Y133.372 I.019 J-.934 E.06672
G1 X103.412 Y131.032 E.10321
G2 X104.426 Y131.926 I3.35 J-2.776 E.05986
G2 X107.548 Y132.033 I1.666 J-3.009 E.14302
G2 X108.661 Y130.659 I-1.003 J-1.95 E.08027
G2 X107.503 Y129.256 I-1.297 J-.108 E.08878
G2 X106.282 Y129.741 I-.194 J1.293 E.06073
G3 X105.456 Y129.286 I-.207 J-.601 E.04685
G3 X105.496 Y127.536 I3.045 J-.805 E.07825
G3 X106.093 Y127.175 I.518 J.183 E.03332
G2 X106.912 Y127.614 I2.612 J-3.881 E.04108
G2 X108.483 Y127.001 I.443 J-1.185 E.08141
G2 X109.647 Y127.32 I.912 J-1.048 E.05507
G1 X110.009 Y127.268 E.01611
G2 X109.995 Y128.208 I6.113 J.56 E.0415
G2 X110.001 Y130.496 I113.624 J.845 E.10091
G2 X110.046 Y131.477 I2.14 J.394 E.0437
G2 X111.039 Y132.196 I1.123 J-.507 E.05657
G2 X112.505 Y131.144 I.207 J-1.259 E.08834
G2 X112.529 Y130.322 I-3.192 J-.505 E.03638
G1 X112.529 Y128.671 E.07281
G1 E-.728 F1800
;WIPE_START
G1 F30000
G1 X112.53 Y127.471 E-.072
;WIPE_END
G1 Z.65
G1 X117.596 Y128.002 Z.65
G1 Z.25
G1 E.8 F1800
;TYPE:Outer wall
G1 F3000
G1 X117.596 Y128.002 E.00002
G3 X118.109 Y128.424 I-.34 J.937 E.02982
G1 X118.17 Y128.473 E.00348
G3 X118.47 Y129.14 I-2.203 J1.39 E.03234
G3 X116.364 Y131.905 I-2.095 J.589 E.17756
G3 X114.795 Y131.53 I-.225 J-2.524 E.07238
G3 X114.468 Y130.213 I.608 J-.85 E.06513
G3 X115.494 Y129.868 I.753 J.543 E.05093
G3 X116.171 Y130.272 I-.615 J1.8 E.03504
G2 X116.604 Y130.196 I.169 J-.308 E.02097
G2 X116.641 Y129.422 I-.383 J-.406 E.0378
M73 P7 R19
G2 X116.023 Y129.028 I-.8 J.573 E.03308
G3 X115.302 Y128.819 I.124 J-1.778 E.03338
G3 X115.115 Y127.865 I.503 J-.594 E.0463
G3 X115.66 Y127.375 I.711 J.242 E.03382
G3 X116.162 Y127.257 I1.273 J4.305 E.02273
G2 X116.466 Y126.793 I-.077 J-.382 E.0272
G2 X116.058 Y126.652 I-.269 J.118 E.02138
G2 X115.635 Y126.894 I.609 J1.561 E.02158
G3 X115.126 Y127.063 I-.817 J-1.601 E.02375
G3 X114.583 Y126.732 I.135 J-.83 E.02875
G3 X114.396 Y126.207 I.596 J-.509 E.02512
G3 X114.468 Y125.79 I1.495 J.045 E.01875
G3 X115.624 Y125.081 I1.443 J1.056 E.06134
G3 X116.122 Y125.023 I.6 J2.978 E.02213
G3 X117.46 Y125.26 I.166 J2.959 E.06047
G3 X118.291 Y126.952 I-.661 J1.375 E.08959
G1 X118.224 Y127.319 E.01648
G1 X118.157 Y127.469 E.00723
G2 X118.011 Y127.66 I.184 J.293 E.01082
G3 X117.632 Y127.985 I-.833 J-.587 E.02225
G1 X118.34 Y127.982 F30000
;TYPE:Inner wall
G1 F3000
G3 X118.522 Y127.746 I.411 J.127 E.01345
G1 X118.615 Y127.537 E.01008
G1 X118.827 Y127.582 E.00956
G1 X118.828 Y128.316 E.03235
G1 X118.634 Y128.372 E.00889
G1 X118.508 Y128.172 E.01042
G3 X118.362 Y128.016 I.502 J-.614 E.00945
G1 E-.728 F1800
;WIPE_START
G1 F30000
G1 X118.434 Y127.819 E-.01253
G1 X118.522 Y127.746 E-.0069
G1 X118.615 Y127.537 E-.01371
G1 X118.827 Y127.582 E-.013
G1 X118.827 Y128.013 E-.02586
;WIPE_END
G1 Z.65
G1 X119.304 Y125.656 Z.65
G1 Z.25
G1 E.8 F1800
;TYPE:Outer wall
G1 F3000
G3 X119.907 Y125.219 I.737 J.381 E.03408
G3 X120.226 Y125.184 I.312 J1.389 E.01417
G3 X121.847 Y125.221 I-1.513 J102.029 E.07154
G3 X123.398 Y125.743 I-.082 J2.811 E.07322
G3 X124.409 Y127.628 I-1.911 J2.239 E.09658
G3 X124.37 Y129.215 I-3.92 J.698 E.07046
G2 X124.091 Y130.03 I29.467 J10.563 E.038
G3 X123.555 Y130.864 I-2.481 J-1.005 E.04395
G3 X123.208 Y131.251 I-1.01 J-.555 E.02313
G3 X122.184 Y131.668 I-1.275 J-1.668 E.04934
